( Made using CamBam - http://www.cambam.co.uk )
( m_mount_servo 2/11/2022 1:48:01 PM )
( T0 : 3.175 )
G21 G90 G40
G0 Z2.0
( T0 : 3.175 )
T0 M6
( 1_drill )
G17
M3 S1000
G0 X-154.0 Y118.2
G98
G81 X-154.0 Y118.2 Z-3.2 R2.0 F200.0
G81 X-128.4 Z-3.2
G81 X-114.0 Z-3.2
G81 X-128.4 Y102.0 Z-3.2
G81 Y84.2 Z-3.2
G81 X-114.0 Z-3.2
G81 X-128.4 Y68.0 Z-3.2
G81 Y50.2 Z-3.2
G81 X-114.0 Z-3.2
G81 X-128.4 Y34.0 Z-3.2
G81 Y16.2 Z-3.2
G81 X-114.0 Z-3.2
G81 X-88.4 Z-3.2
G81 X-74.0 Z-3.2
G81 X-88.4 Y34.0 Z-3.2
G81 Y50.2 Z-3.2
G81 X-74.0 Z-3.2
G81 X-88.4 Y68.0 Z-3.2
G81 Y84.2 Z-3.2
G81 X-74.0 Z-3.2
G81 X-88.4 Y102.0 Z-3.2
G81 Y118.2 Z-3.2
G81 X-74.0 Z-3.2
G81 X-88.4 Y136.0 Z-3.2
G81 X-128.4 Z-3.2
G81 X-154.0 Y84.2 Z-3.2
G81 Y50.2 Z-3.2
G81 Y16.2 Z-3.2
G81 X-48.4 Z-3.2
G81 X-34.0 Z-3.2
G81 X-48.4 Y34.0 Z-3.2
G81 Y50.2 Z-3.2
G81 X-34.0 Z-3.2
G81 X-48.4 Y68.0 Z-3.2
G81 Y84.2 Z-3.2
G81 X-34.0 Z-3.2
G81 X-48.4 Y102.0 Z-3.2
G81 Y118.2 Z-3.2
G81 X-34.0 Z-3.2
G81 X-48.4 Y136.0 Z-3.2
G81 X-8.4 Z-3.2
G81 Y118.2 Z-3.2
G81 Y102.0 Z-3.2
G81 Y84.2 Z-3.2
G81 Y68.0 Z-3.2
G81 Y50.2 Z-3.2
G81 Y34.0 Z-3.2
G81 Y16.2 Z-3.2
G80
M5
M30
