( Made using CamBam - http://www.cambam.co.uk )
( m_mount_servo 2/11/2022 1:56:29 PM )
( T0 : 3.175 )
G21 G90 G40
G0 Z2.0
( T0 : 3.175 )
T0 M6
( 2_free )
G17
M3 S1000
G0 X-83.8125 Y114.5
G1 F200.0 Z-0.4
G1 F800.0 Y137.5
G3 X-86.9 Y140.5875 I-3.0875 J0.0
G1 X-115.5
G3 X-118.5875 Y137.5 I0.0 J-3.0875
G1 Y114.5
G3 X-115.5 Y111.4125 I3.0875 J0.0
G1 X-86.9
G3 X-83.8125 Y114.5 I0.0 J3.0875
G1 F200.0 Z-0.8
G1 F800.0 Y137.5
G3 X-86.9 Y140.5875 I-3.0875 J0.0
G1 X-115.5
G3 X-118.5875 Y137.5 I0.0 J-3.0875
G1 Y114.5
G3 X-115.5 Y111.4125 I3.0875 J0.0
G1 X-86.9
G3 X-83.8125 Y114.5 I0.0 J3.0875
G1 F200.0 Z-1.2
G1 F800.0 Y137.5
G3 X-86.9 Y140.5875 I-3.0875 J0.0
G1 X-115.5
G3 X-118.5875 Y137.5 I0.0 J-3.0875
G1 Y114.5
G3 X-115.5 Y111.4125 I3.0875 J0.0
G1 X-86.9
G3 X-83.8125 Y114.5 I0.0 J3.0875
G1 F200.0 Z-1.6
G1 F800.0 Y137.5
G3 X-86.9 Y140.5875 I-3.0875 J0.0
G1 X-115.5
G3 X-118.5875 Y137.5 I0.0 J-3.0875
G1 Y114.5
G3 X-115.5 Y111.4125 I3.0875 J0.0
G1 X-86.9
G3 X-83.8125 Y114.5 I0.0 J3.0875
G1 F200.0 Z-2.0
G1 F800.0 Y137.5
G3 X-86.9 Y140.5875 I-3.0875 J0.0
G1 X-115.5
G3 X-118.5875 Y137.5 I0.0 J-3.0875
G1 Y114.5
G3 X-115.5 Y111.4125 I3.0875 J0.0
G1 X-86.9
G3 X-83.8125 Y114.5 I0.0 J3.0875
G1 F200.0 Z-2.4
G1 F800.0 Y137.5
G3 X-86.9 Y140.5875 I-3.0875 J0.0
G1 X-115.5
G3 X-118.5875 Y137.5 I0.0 J-3.0875
G1 Y114.5
G3 X-115.5 Y111.4125 I3.0875 J0.0
G1 X-86.9
G3 X-83.8125 Y114.5 I0.0 J3.0875
G1 F200.0 Z-2.8
G1 F800.0 Y137.5
G3 X-86.9 Y140.5875 I-3.0875 J0.0
G1 X-115.5
G3 X-118.5875 Y137.5 I0.0 J-3.0875
G1 Y114.5
G3 X-115.5 Y111.4125 I3.0875 J0.0
G1 X-86.9
G3 X-83.8125 Y114.5 I0.0 J3.0875
G1 F200.0 Z-3.2
G1 F800.0 Y137.5
G3 X-86.9 Y140.5875 I-3.0875 J0.0
G1 X-115.5
G3 X-118.5875 Y137.5 I0.0 J-3.0875
G1 Y114.5
G3 X-115.5 Y111.4125 I3.0875 J0.0
G1 X-86.9
G3 X-83.8125 Y114.5 I0.0 J3.0875
G0 Z2.0
G0 X-78.5875
G1 F200.0 Z-0.4
G3 F800.0 X-75.5 Y111.4125 I3.0875 J0.0
G1 X-46.9
G3 X-43.8125 Y114.5 I0.0 J3.0875
G1 Y137.5
G3 X-46.9 Y140.5875 I-3.0875 J0.0
G1 X-75.5
G3 X-78.5875 Y137.5 I0.0 J-3.0875
G1 Y114.5
G1 F200.0 Z-0.8
G3 F800.0 X-75.5 Y111.4125 I3.0875 J0.0
G1 X-46.9
G3 X-43.8125 Y114.5 I0.0 J3.0875
G1 Y137.5
G3 X-46.9 Y140.5875 I-3.0875 J0.0
G1 X-75.5
G3 X-78.5875 Y137.5 I0.0 J-3.0875
G1 Y114.5
G1 F200.0 Z-1.2
G3 F800.0 X-75.5 Y111.4125 I3.0875 J0.0
G1 X-46.9
G3 X-43.8125 Y114.5 I0.0 J3.0875
G1 Y137.5
G3 X-46.9 Y140.5875 I-3.0875 J0.0
G1 X-75.5
G3 X-78.5875 Y137.5 I0.0 J-3.0875
G1 Y114.5
G1 F200.0 Z-1.6
G3 F800.0 X-75.5 Y111.4125 I3.0875 J0.0
G1 X-46.9
G3 X-43.8125 Y114.5 I0.0 J3.0875
G1 Y137.5
G3 X-46.9 Y140.5875 I-3.0875 J0.0
G1 X-75.5
G3 X-78.5875 Y137.5 I0.0 J-3.0875
G1 Y114.5
G1 F200.0 Z-2.0
G3 F800.0 X-75.5 Y111.4125 I3.0875 J0.0
G1 X-46.9
G3 X-43.8125 Y114.5 I0.0 J3.0875
G1 Y137.5
G3 X-46.9 Y140.5875 I-3.0875 J0.0
G1 X-75.5
G3 X-78.5875 Y137.5 I0.0 J-3.0875
G1 Y114.5
G1 F200.0 Z-2.4
G3 F800.0 X-75.5 Y111.4125 I3.0875 J0.0
G1 X-46.9
G3 X-43.8125 Y114.5 I0.0 J3.0875
G1 Y137.5
G3 X-46.9 Y140.5875 I-3.0875 J0.0
G1 X-75.5
G3 X-78.5875 Y137.5 I0.0 J-3.0875
G1 Y114.5
G1 F200.0 Z-2.8
G3 F800.0 X-75.5 Y111.4125 I3.0875 J0.0
G1 X-46.9
G3 X-43.8125 Y114.5 I0.0 J3.0875
G1 Y137.5
G3 X-46.9 Y140.5875 I-3.0875 J0.0
G1 X-75.5
G3 X-78.5875 Y137.5 I0.0 J-3.0875
G1 Y114.5
G1 F200.0 Z-3.2
G3 F800.0 X-75.5 Y111.4125 I3.0875 J0.0
G1 X-46.9
G3 X-43.8125 Y114.5 I0.0 J3.0875
G1 Y137.5
G3 X-46.9 Y140.5875 I-3.0875 J0.0
G1 X-75.5
G3 X-78.5875 Y137.5 I0.0 J-3.0875
G1 Y114.5
G0 Z2.0
G0 X-76.3344 Y106.4726
G1 F200.0 Z-0.4
G3 F800.0 X-78.5875 Y103.5 I0.8344 J-2.9726
G1 Y80.5
G3 X-75.5 Y77.4125 I3.0875 J0.0
G1 X-46.9
G3 X-43.8125 Y80.5 I0.0 J3.0875
G1 Y103.5
G3 X-46.9 Y106.5875 I-3.0875 J0.0
G1 X-75.5
G3 X-76.3344 Y106.4726 I0.0 J-3.0875
G1 F200.0 Z-0.8
G3 F800.0 X-78.5875 Y103.5 I0.8344 J-2.9726
G1 Y80.5
G3 X-75.5 Y77.4125 I3.0875 J0.0
G1 X-46.9
G3 X-43.8125 Y80.5 I0.0 J3.0875
G1 Y103.5
G3 X-46.9 Y106.5875 I-3.0875 J0.0
G1 X-75.5
G3 X-76.3344 Y106.4726 I0.0 J-3.0875
G1 F200.0 Z-1.2
G3 F800.0 X-78.5875 Y103.5 I0.8344 J-2.9726
G1 Y80.5
G3 X-75.5 Y77.4125 I3.0875 J0.0
G1 X-46.9
G3 X-43.8125 Y80.5 I0.0 J3.0875
G1 Y103.5
G3 X-46.9 Y106.5875 I-3.0875 J0.0
G1 X-75.5
G3 X-76.3344 Y106.4726 I0.0 J-3.0875
G1 F200.0 Z-1.6
G3 F800.0 X-78.5875 Y103.5 I0.8344 J-2.9726
G1 Y80.5
G3 X-75.5 Y77.4125 I3.0875 J0.0
G1 X-46.9
G3 X-43.8125 Y80.5 I0.0 J3.0875
G1 Y103.5
G3 X-46.9 Y106.5875 I-3.0875 J0.0
G1 X-75.5
G3 X-76.3344 Y106.4726 I0.0 J-3.0875
G1 F200.0 Z-2.0
G3 F800.0 X-78.5875 Y103.5 I0.8344 J-2.9726
G1 Y80.5
G3 X-75.5 Y77.4125 I3.0875 J0.0
G1 X-46.9
G3 X-43.8125 Y80.5 I0.0 J3.0875
G1 Y103.5
G3 X-46.9 Y106.5875 I-3.0875 J0.0
G1 X-75.5
G3 X-76.3344 Y106.4726 I0.0 J-3.0875
G1 F200.0 Z-2.4
G3 F800.0 X-78.5875 Y103.5 I0.8344 J-2.9726
G1 Y80.5
G3 X-75.5 Y77.4125 I3.0875 J0.0
G1 X-46.9
G3 X-43.8125 Y80.5 I0.0 J3.0875
G1 Y103.5
G3 X-46.9 Y106.5875 I-3.0875 J0.0
G1 X-75.5
G3 X-76.3344 Y106.4726 I0.0 J-3.0875
G1 F200.0 Z-2.8
G3 F800.0 X-78.5875 Y103.5 I0.8344 J-2.9726
G1 Y80.5
G3 X-75.5 Y77.4125 I3.0875 J0.0
G1 X-46.9
G3 X-43.8125 Y80.5 I0.0 J3.0875
G1 Y103.5
G3 X-46.9 Y106.5875 I-3.0875 J0.0
G1 X-75.5
G3 X-76.3344 Y106.4726 I0.0 J-3.0875
G1 F200.0 Z-3.2
G3 F800.0 X-78.5875 Y103.5 I0.8344 J-2.9726
G1 Y80.5
G3 X-75.5 Y77.4125 I3.0875 J0.0
G1 X-46.9
G3 X-43.8125 Y80.5 I0.0 J3.0875
G1 Y103.5
G3 X-46.9 Y106.5875 I-3.0875 J0.0
G1 X-75.5
G3 X-76.3344 Y106.4726 I0.0 J-3.0875
G0 Z2.0
G0 X-83.9279 Y104.3362
G1 F200.0 Z-0.4
G3 F800.0 X-86.9 Y106.5875 I-2.9721 J-0.8362
G1 X-115.5
G3 X-118.5875 Y103.5 I0.0 J-3.0875
G1 Y80.5
G3 X-115.5 Y77.4125 I3.0875 J0.0
G1 X-86.9
G3 X-83.8125 Y80.5 I0.0 J3.0875
G1 Y103.5
G3 X-83.9279 Y104.3362 I-3.0875 J0.0
G1 F200.0 Z-0.8
G3 F800.0 X-86.9 Y106.5875 I-2.9721 J-0.8362
G1 X-115.5
G3 X-118.5875 Y103.5 I0.0 J-3.0875
G1 Y80.5
G3 X-115.5 Y77.4125 I3.0875 J0.0
G1 X-86.9
G3 X-83.8125 Y80.5 I0.0 J3.0875
G1 Y103.5
G3 X-83.9279 Y104.3362 I-3.0875 J0.0
G1 F200.0 Z-1.2
G3 F800.0 X-86.9 Y106.5875 I-2.9721 J-0.8362
G1 X-115.5
G3 X-118.5875 Y103.5 I0.0 J-3.0875
G1 Y80.5
G3 X-115.5 Y77.4125 I3.0875 J0.0
G1 X-86.9
G3 X-83.8125 Y80.5 I0.0 J3.0875
G1 Y103.5
G3 X-83.9279 Y104.3362 I-3.0875 J0.0
G1 F200.0 Z-1.6
G3 F800.0 X-86.9 Y106.5875 I-2.9721 J-0.8362
G1 X-115.5
G3 X-118.5875 Y103.5 I0.0 J-3.0875
G1 Y80.5
G3 X-115.5 Y77.4125 I3.0875 J0.0
G1 X-86.9
G3 X-83.8125 Y80.5 I0.0 J3.0875
G1 Y103.5
G3 X-83.9279 Y104.3362 I-3.0875 J0.0
G1 F200.0 Z-2.0
G3 F800.0 X-86.9 Y106.5875 I-2.9721 J-0.8362
G1 X-115.5
G3 X-118.5875 Y103.5 I0.0 J-3.0875
G1 Y80.5
G3 X-115.5 Y77.4125 I3.0875 J0.0
G1 X-86.9
G3 X-83.8125 Y80.5 I0.0 J3.0875
G1 Y103.5
G3 X-83.9279 Y104.3362 I-3.0875 J0.0
G1 F200.0 Z-2.4
G3 F800.0 X-86.9 Y106.5875 I-2.9721 J-0.8362
G1 X-115.5
G3 X-118.5875 Y103.5 I0.0 J-3.0875
G1 Y80.5
G3 X-115.5 Y77.4125 I3.0875 J0.0
G1 X-86.9
G3 X-83.8125 Y80.5 I0.0 J3.0875
G1 Y103.5
G3 X-83.9279 Y104.3362 I-3.0875 J0.0
G1 F200.0 Z-2.8
G3 F800.0 X-86.9 Y106.5875 I-2.9721 J-0.8362
G1 X-115.5
G3 X-118.5875 Y103.5 I0.0 J-3.0875
G1 Y80.5
G3 X-115.5 Y77.4125 I3.0875 J0.0
G1 X-86.9
G3 X-83.8125 Y80.5 I0.0 J3.0875
G1 Y103.5
G3 X-83.9279 Y104.3362 I-3.0875 J0.0
G1 F200.0 Z-3.2
G3 F800.0 X-86.9 Y106.5875 I-2.9721 J-0.8362
G1 X-115.5
G3 X-118.5875 Y103.5 I0.0 J-3.0875
G1 Y80.5
G3 X-115.5 Y77.4125 I3.0875 J0.0
G1 X-86.9
G3 X-83.8125 Y80.5 I0.0 J3.0875
G1 Y103.5
G3 X-83.9279 Y104.3362 I-3.0875 J0.0
G0 Z2.0
G0 X-86.6375 Y72.5763
G1 F200.0 Z-0.4
G3 F800.0 X-86.9 Y72.5875 I-0.2625 J-3.0763
G1 X-115.5
G3 X-118.5875 Y69.5 I0.0 J-3.0875
G1 Y46.5
G3 X-115.5 Y43.4125 I3.0875 J0.0
G1 X-86.9
G3 X-83.8125 Y46.5 I0.0 J3.0875
G1 Y69.5
G3 X-86.6375 Y72.5763 I-3.0875 J0.0
G1 F200.0 Z-0.8
G3 F800.0 X-86.9 Y72.5875 I-0.2625 J-3.0763
G1 X-115.5
G3 X-118.5875 Y69.5 I0.0 J-3.0875
G1 Y46.5
G3 X-115.5 Y43.4125 I3.0875 J0.0
G1 X-86.9
G3 X-83.8125 Y46.5 I0.0 J3.0875
G1 Y69.5
G3 X-86.6375 Y72.5763 I-3.0875 J0.0
G1 F200.0 Z-1.2
G3 F800.0 X-86.9 Y72.5875 I-0.2625 J-3.0763
G1 X-115.5
G3 X-118.5875 Y69.5 I0.0 J-3.0875
G1 Y46.5
G3 X-115.5 Y43.4125 I3.0875 J0.0
G1 X-86.9
G3 X-83.8125 Y46.5 I0.0 J3.0875
G1 Y69.5
G3 X-86.6375 Y72.5763 I-3.0875 J0.0
G1 F200.0 Z-1.6
G3 F800.0 X-86.9 Y72.5875 I-0.2625 J-3.0763
G1 X-115.5
G3 X-118.5875 Y69.5 I0.0 J-3.0875
G1 Y46.5
G3 X-115.5 Y43.4125 I3.0875 J0.0
G1 X-86.9
G3 X-83.8125 Y46.5 I0.0 J3.0875
G1 Y69.5
G3 X-86.6375 Y72.5763 I-3.0875 J0.0
G1 F200.0 Z-2.0
G3 F800.0 X-86.9 Y72.5875 I-0.2625 J-3.0763
G1 X-115.5
G3 X-118.5875 Y69.5 I0.0 J-3.0875
G1 Y46.5
G3 X-115.5 Y43.4125 I3.0875 J0.0
G1 X-86.9
G3 X-83.8125 Y46.5 I0.0 J3.0875
G1 Y69.5
G3 X-86.6375 Y72.5763 I-3.0875 J0.0
G1 F200.0 Z-2.4
G3 F800.0 X-86.9 Y72.5875 I-0.2625 J-3.0763
G1 X-115.5
G3 X-118.5875 Y69.5 I0.0 J-3.0875
G1 Y46.5
G3 X-115.5 Y43.4125 I3.0875 J0.0
G1 X-86.9
G3 X-83.8125 Y46.5 I0.0 J3.0875
G1 Y69.5
G3 X-86.6375 Y72.5763 I-3.0875 J0.0
G1 F200.0 Z-2.8
G3 F800.0 X-86.9 Y72.5875 I-0.2625 J-3.0763
G1 X-115.5
G3 X-118.5875 Y69.5 I0.0 J-3.0875
G1 Y46.5
G3 X-115.5 Y43.4125 I3.0875 J0.0
G1 X-86.9
G3 X-83.8125 Y46.5 I0.0 J3.0875
G1 Y69.5
G3 X-86.6375 Y72.5763 I-3.0875 J0.0
G1 F200.0 Z-3.2
G3 F800.0 X-86.9 Y72.5875 I-0.2625 J-3.0763
G1 X-115.5
G3 X-118.5875 Y69.5 I0.0 J-3.0875
G1 Y46.5
G3 X-115.5 Y43.4125 I3.0875 J0.0
G1 X-86.9
G3 X-83.8125 Y46.5 I0.0 J3.0875
G1 Y69.5
G3 X-86.6375 Y72.5763 I-3.0875 J0.0
G0 Z2.0
G0 X-78.4761 Y70.322
G1 F200.0 Z-0.4
G3 F800.0 X-78.5875 Y69.5 I2.9761 J-0.822
G1 Y46.5
G3 X-75.5 Y43.4125 I3.0875 J0.0
G1 X-46.9
G3 X-43.8125 Y46.5 I0.0 J3.0875
G1 Y69.5
G3 X-46.9 Y72.5875 I-3.0875 J0.0
G1 X-75.5
G3 X-78.4761 Y70.322 I0.0 J-3.0875
G1 F200.0 Z-0.8
G3 F800.0 X-78.5875 Y69.5 I2.9761 J-0.822
G1 Y46.5
G3 X-75.5 Y43.4125 I3.0875 J0.0
G1 X-46.9
G3 X-43.8125 Y46.5 I0.0 J3.0875
G1 Y69.5
G3 X-46.9 Y72.5875 I-3.0875 J0.0
G1 X-75.5
G3 X-78.4761 Y70.322 I0.0 J-3.0875
G1 F200.0 Z-1.2
G3 F800.0 X-78.5875 Y69.5 I2.9761 J-0.822
G1 Y46.5
G3 X-75.5 Y43.4125 I3.0875 J0.0
G1 X-46.9
G3 X-43.8125 Y46.5 I0.0 J3.0875
G1 Y69.5
G3 X-46.9 Y72.5875 I-3.0875 J0.0
G1 X-75.5
G3 X-78.4761 Y70.322 I0.0 J-3.0875
G1 F200.0 Z-1.6
G3 F800.0 X-78.5875 Y69.5 I2.9761 J-0.822
G1 Y46.5
G3 X-75.5 Y43.4125 I3.0875 J0.0
G1 X-46.9
G3 X-43.8125 Y46.5 I0.0 J3.0875
G1 Y69.5
G3 X-46.9 Y72.5875 I-3.0875 J0.0
G1 X-75.5
G3 X-78.4761 Y70.322 I0.0 J-3.0875
G1 F200.0 Z-2.0
G3 F800.0 X-78.5875 Y69.5 I2.9761 J-0.822
G1 Y46.5
G3 X-75.5 Y43.4125 I3.0875 J0.0
G1 X-46.9
G3 X-43.8125 Y46.5 I0.0 J3.0875
G1 Y69.5
G3 X-46.9 Y72.5875 I-3.0875 J0.0
G1 X-75.5
G3 X-78.4761 Y70.322 I0.0 J-3.0875
G1 F200.0 Z-2.4
G3 F800.0 X-78.5875 Y69.5 I2.9761 J-0.822
G1 Y46.5
G3 X-75.5 Y43.4125 I3.0875 J0.0
G1 X-46.9
G3 X-43.8125 Y46.5 I0.0 J3.0875
G1 Y69.5
G3 X-46.9 Y72.5875 I-3.0875 J0.0
G1 X-75.5
G3 X-78.4761 Y70.322 I0.0 J-3.0875
G1 F200.0 Z-2.8
G3 F800.0 X-78.5875 Y69.5 I2.9761 J-0.822
G1 Y46.5
G3 X-75.5 Y43.4125 I3.0875 J0.0
G1 X-46.9
G3 X-43.8125 Y46.5 I0.0 J3.0875
G1 Y69.5
G3 X-46.9 Y72.5875 I-3.0875 J0.0
G1 X-75.5
G3 X-78.4761 Y70.322 I0.0 J-3.0875
G1 F200.0 Z-3.2
G3 F800.0 X-78.5875 Y69.5 I2.9761 J-0.822
G1 Y46.5
G3 X-75.5 Y43.4125 I3.0875 J0.0
G1 X-46.9
G3 X-43.8125 Y46.5 I0.0 J3.0875
G1 Y69.5
G3 X-46.9 Y72.5875 I-3.0875 J0.0
G1 X-75.5
G3 X-78.4761 Y70.322 I0.0 J-3.0875
G0 Z2.0
G0 X-75.7629 Y38.5763
G1 F200.0 Z-0.4
G3 F800.0 X-78.5875 Y35.5 I0.2629 J-3.0763
G1 Y12.5
G3 X-75.5 Y9.4125 I3.0875 J0.0
G1 X-46.9
G3 X-43.8125 Y12.5 I0.0 J3.0875
G1 Y35.5
G3 X-46.9 Y38.5875 I-3.0875 J0.0
G1 X-75.5
G3 X-75.7629 Y38.5763 I0.0 J-3.0875
G1 F200.0 Z-0.8
G3 F800.0 X-78.5875 Y35.5 I0.2629 J-3.0763
G1 Y12.5
G3 X-75.5 Y9.4125 I3.0875 J0.0
G1 X-46.9
G3 X-43.8125 Y12.5 I0.0 J3.0875
G1 Y35.5
G3 X-46.9 Y38.5875 I-3.0875 J0.0
G1 X-75.5
G3 X-75.7629 Y38.5763 I0.0 J-3.0875
G1 F200.0 Z-1.2
G3 F800.0 X-78.5875 Y35.5 I0.2629 J-3.0763
G1 Y12.5
G3 X-75.5 Y9.4125 I3.0875 J0.0
G1 X-46.9
G3 X-43.8125 Y12.5 I0.0 J3.0875
G1 Y35.5
G3 X-46.9 Y38.5875 I-3.0875 J0.0
G1 X-75.5
G3 X-75.7629 Y38.5763 I0.0 J-3.0875
G1 F200.0 Z-1.6
G3 F800.0 X-78.5875 Y35.5 I0.2629 J-3.0763
G1 Y12.5
G3 X-75.5 Y9.4125 I3.0875 J0.0
G1 X-46.9
G3 X-43.8125 Y12.5 I0.0 J3.0875
G1 Y35.5
G3 X-46.9 Y38.5875 I-3.0875 J0.0
G1 X-75.5
G3 X-75.7629 Y38.5763 I0.0 J-3.0875
G1 F200.0 Z-2.0
G3 F800.0 X-78.5875 Y35.5 I0.2629 J-3.0763
G1 Y12.5
G3 X-75.5 Y9.4125 I3.0875 J0.0
G1 X-46.9
G3 X-43.8125 Y12.5 I0.0 J3.0875
G1 Y35.5
G3 X-46.9 Y38.5875 I-3.0875 J0.0
G1 X-75.5
G3 X-75.7629 Y38.5763 I0.0 J-3.0875
G1 F200.0 Z-2.4
G3 F800.0 X-78.5875 Y35.5 I0.2629 J-3.0763
G1 Y12.5
G3 X-75.5 Y9.4125 I3.0875 J0.0
G1 X-46.9
G3 X-43.8125 Y12.5 I0.0 J3.0875
G1 Y35.5
G3 X-46.9 Y38.5875 I-3.0875 J0.0
G1 X-75.5
G3 X-75.7629 Y38.5763 I0.0 J-3.0875
G1 F200.0 Z-2.8
G3 F800.0 X-78.5875 Y35.5 I0.2629 J-3.0763
G1 Y12.5
G3 X-75.5 Y9.4125 I3.0875 J0.0
G1 X-46.9
G3 X-43.8125 Y12.5 I0.0 J3.0875
G1 Y35.5
G3 X-46.9 Y38.5875 I-3.0875 J0.0
G1 X-75.5
G3 X-75.7629 Y38.5763 I0.0 J-3.0875
G1 F200.0 Z-3.2
G3 F800.0 X-78.5875 Y35.5 I0.2629 J-3.0763
G1 Y12.5
G3 X-75.5 Y9.4125 I3.0875 J0.0
G1 X-46.9
G3 X-43.8125 Y12.5 I0.0 J3.0875
G1 Y35.5
G3 X-46.9 Y38.5875 I-3.0875 J0.0
G1 X-75.5
G3 X-75.7629 Y38.5763 I0.0 J-3.0875
G0 Z2.0
G0 X-83.9239 Y36.322
G1 F200.0 Z-0.4
G3 F800.0 X-86.9 Y38.5875 I-2.9761 J-0.822
G1 X-115.5
G3 X-118.5875 Y35.5 I0.0 J-3.0875
G1 Y12.5
G3 X-115.5 Y9.4125 I3.0875 J0.0
G1 X-86.9
G3 X-83.8125 Y12.5 I0.0 J3.0875
G1 Y35.5
G3 X-83.9239 Y36.322 I-3.0875 J0.0
G1 F200.0 Z-0.8
G3 F800.0 X-86.9 Y38.5875 I-2.9761 J-0.822
G1 X-115.5
G3 X-118.5875 Y35.5 I0.0 J-3.0875
G1 Y12.5
G3 X-115.5 Y9.4125 I3.0875 J0.0
G1 X-86.9
G3 X-83.8125 Y12.5 I0.0 J3.0875
G1 Y35.5
G3 X-83.9239 Y36.322 I-3.0875 J0.0
G1 F200.0 Z-1.2
G3 F800.0 X-86.9 Y38.5875 I-2.9761 J-0.822
G1 X-115.5
G3 X-118.5875 Y35.5 I0.0 J-3.0875
G1 Y12.5
G3 X-115.5 Y9.4125 I3.0875 J0.0
G1 X-86.9
G3 X-83.8125 Y12.5 I0.0 J3.0875
G1 Y35.5
G3 X-83.9239 Y36.322 I-3.0875 J0.0
G1 F200.0 Z-1.6
G3 F800.0 X-86.9 Y38.5875 I-2.9761 J-0.822
G1 X-115.5
G3 X-118.5875 Y35.5 I0.0 J-3.0875
G1 Y12.5
G3 X-115.5 Y9.4125 I3.0875 J0.0
G1 X-86.9
G3 X-83.8125 Y12.5 I0.0 J3.0875
G1 Y35.5
G3 X-83.9239 Y36.322 I-3.0875 J0.0
G1 F200.0 Z-2.0
G3 F800.0 X-86.9 Y38.5875 I-2.9761 J-0.822
G1 X-115.5
G3 X-118.5875 Y35.5 I0.0 J-3.0875
G1 Y12.5
G3 X-115.5 Y9.4125 I3.0875 J0.0
G1 X-86.9
G3 X-83.8125 Y12.5 I0.0 J3.0875
G1 Y35.5
G3 X-83.9239 Y36.322 I-3.0875 J0.0
G1 F200.0 Z-2.4
G3 F800.0 X-86.9 Y38.5875 I-2.9761 J-0.822
G1 X-115.5
G3 X-118.5875 Y35.5 I0.0 J-3.0875
G1 Y12.5
G3 X-115.5 Y9.4125 I3.0875 J0.0
G1 X-86.9
G3 X-83.8125 Y12.5 I0.0 J3.0875
G1 Y35.5
G3 X-83.9239 Y36.322 I-3.0875 J0.0
G1 F200.0 Z-2.8
G3 F800.0 X-86.9 Y38.5875 I-2.9761 J-0.822
G1 X-115.5
G3 X-118.5875 Y35.5 I0.0 J-3.0875
G1 Y12.5
G3 X-115.5 Y9.4125 I3.0875 J0.0
G1 X-86.9
G3 X-83.8125 Y12.5 I0.0 J3.0875
G1 Y35.5
G3 X-83.9239 Y36.322 I-3.0875 J0.0
G1 F200.0 Z-3.2
G3 F800.0 X-86.9 Y38.5875 I-2.9761 J-0.822
G1 X-115.5
G3 X-118.5875 Y35.5 I0.0 J-3.0875
G1 Y12.5
G3 X-115.5 Y9.4125 I3.0875 J0.0
G1 X-86.9
G3 X-83.8125 Y12.5 I0.0 J3.0875
G1 Y35.5
G3 X-83.9239 Y36.322 I-3.0875 J0.0
G0 Z2.0
G0 X-123.8131 Y35.559
G1 F200.0 Z-0.4
G3 F800.0 X-126.9 Y38.5875 I-3.0869 J-0.059
G1 X-155.5
G3 X-158.5875 Y35.5 I0.0 J-3.0875
G1 Y12.5
G3 X-155.5 Y9.4125 I3.0875 J0.0
G1 X-126.9
G3 X-123.8125 Y12.5 I0.0 J3.0875
G1 Y35.5
G3 X-123.8131 Y35.559 I-3.0875 J0.0
G1 F200.0 Z-0.8
G3 F800.0 X-126.9 Y38.5875 I-3.0869 J-0.059
G1 X-155.5
G3 X-158.5875 Y35.5 I0.0 J-3.0875
G1 Y12.5
G3 X-155.5 Y9.4125 I3.0875 J0.0
G1 X-126.9
G3 X-123.8125 Y12.5 I0.0 J3.0875
G1 Y35.5
G3 X-123.8131 Y35.559 I-3.0875 J0.0
G1 F200.0 Z-1.2
G3 F800.0 X-126.9 Y38.5875 I-3.0869 J-0.059
G1 X-155.5
G3 X-158.5875 Y35.5 I0.0 J-3.0875
G1 Y12.5
G3 X-155.5 Y9.4125 I3.0875 J0.0
G1 X-126.9
G3 X-123.8125 Y12.5 I0.0 J3.0875
G1 Y35.5
G3 X-123.8131 Y35.559 I-3.0875 J0.0
G1 F200.0 Z-1.6
G3 F800.0 X-126.9 Y38.5875 I-3.0869 J-0.059
G1 X-155.5
G3 X-158.5875 Y35.5 I0.0 J-3.0875
G1 Y12.5
G3 X-155.5 Y9.4125 I3.0875 J0.0
G1 X-126.9
G3 X-123.8125 Y12.5 I0.0 J3.0875
G1 Y35.5
G3 X-123.8131 Y35.559 I-3.0875 J0.0
G1 F200.0 Z-2.0
G3 F800.0 X-126.9 Y38.5875 I-3.0869 J-0.059
G1 X-155.5
G3 X-158.5875 Y35.5 I0.0 J-3.0875
G1 Y12.5
G3 X-155.5 Y9.4125 I3.0875 J0.0
G1 X-126.9
G3 X-123.8125 Y12.5 I0.0 J3.0875
G1 Y35.5
G3 X-123.8131 Y35.559 I-3.0875 J0.0
G1 F200.0 Z-2.4
G3 F800.0 X-126.9 Y38.5875 I-3.0869 J-0.059
G1 X-155.5
G3 X-158.5875 Y35.5 I0.0 J-3.0875
G1 Y12.5
G3 X-155.5 Y9.4125 I3.0875 J0.0
G1 X-126.9
G3 X-123.8125 Y12.5 I0.0 J3.0875
G1 Y35.5
G3 X-123.8131 Y35.559 I-3.0875 J0.0
G1 F200.0 Z-2.8
G3 F800.0 X-126.9 Y38.5875 I-3.0869 J-0.059
G1 X-155.5
G3 X-158.5875 Y35.5 I0.0 J-3.0875
G1 Y12.5
G3 X-155.5 Y9.4125 I3.0875 J0.0
G1 X-126.9
G3 X-123.8125 Y12.5 I0.0 J3.0875
G1 Y35.5
G3 X-123.8131 Y35.559 I-3.0875 J0.0
G1 F200.0 Z-3.2
G3 F800.0 X-126.9 Y38.5875 I-3.0869 J-0.059
G1 X-155.5
G3 X-158.5875 Y35.5 I0.0 J-3.0875
G1 Y12.5
G3 X-155.5 Y9.4125 I3.0875 J0.0
G1 X-126.9
G3 X-123.8125 Y12.5 I0.0 J3.0875
G1 Y35.5
G3 X-123.8131 Y35.559 I-3.0875 J0.0
G0 Z2.0
G0 X-126.0616 Y43.5285
G1 F200.0 Z-0.4
G3 F800.0 X-123.8125 Y46.5 I-0.8384 J2.9715
G1 Y69.5
G3 X-126.9 Y72.5875 I-3.0875 J0.0
G1 X-155.5
G3 X-158.5875 Y69.5 I0.0 J-3.0875
G1 Y46.5
G3 X-155.5 Y43.4125 I3.0875 J0.0
G1 X-126.9
G3 X-126.0616 Y43.5285 I0.0 J3.0875
G1 F200.0 Z-0.8
G3 F800.0 X-123.8125 Y46.5 I-0.8384 J2.9715
G1 Y69.5
G3 X-126.9 Y72.5875 I-3.0875 J0.0
G1 X-155.5
G3 X-158.5875 Y69.5 I0.0 J-3.0875
G1 Y46.5
G3 X-155.5 Y43.4125 I3.0875 J0.0
G1 X-126.9
G3 X-126.0616 Y43.5285 I0.0 J3.0875
G1 F200.0 Z-1.2
G3 F800.0 X-123.8125 Y46.5 I-0.8384 J2.9715
G1 Y69.5
G3 X-126.9 Y72.5875 I-3.0875 J0.0
G1 X-155.5
G3 X-158.5875 Y69.5 I0.0 J-3.0875
G1 Y46.5
G3 X-155.5 Y43.4125 I3.0875 J0.0
G1 X-126.9
G3 X-126.0616 Y43.5285 I0.0 J3.0875
G1 F200.0 Z-1.6
G3 F800.0 X-123.8125 Y46.5 I-0.8384 J2.9715
G1 Y69.5
G3 X-126.9 Y72.5875 I-3.0875 J0.0
G1 X-155.5
G3 X-158.5875 Y69.5 I0.0 J-3.0875
G1 Y46.5
G3 X-155.5 Y43.4125 I3.0875 J0.0
G1 X-126.9
G3 X-126.0616 Y43.5285 I0.0 J3.0875
G1 F200.0 Z-2.0
G3 F800.0 X-123.8125 Y46.5 I-0.8384 J2.9715
G1 Y69.5
G3 X-126.9 Y72.5875 I-3.0875 J0.0
G1 X-155.5
G3 X-158.5875 Y69.5 I0.0 J-3.0875
G1 Y46.5
G3 X-155.5 Y43.4125 I3.0875 J0.0
G1 X-126.9
G3 X-126.0616 Y43.5285 I0.0 J3.0875
G1 F200.0 Z-2.4
G3 F800.0 X-123.8125 Y46.5 I-0.8384 J2.9715
G1 Y69.5
G3 X-126.9 Y72.5875 I-3.0875 J0.0
G1 X-155.5
G3 X-158.5875 Y69.5 I0.0 J-3.0875
G1 Y46.5
G3 X-155.5 Y43.4125 I3.0875 J0.0
G1 X-126.9
G3 X-126.0616 Y43.5285 I0.0 J3.0875
G1 F200.0 Z-2.8
G3 F800.0 X-123.8125 Y46.5 I-0.8384 J2.9715
G1 Y69.5
G3 X-126.9 Y72.5875 I-3.0875 J0.0
G1 X-155.5
G3 X-158.5875 Y69.5 I0.0 J-3.0875
G1 Y46.5
G3 X-155.5 Y43.4125 I3.0875 J0.0
G1 X-126.9
G3 X-126.0616 Y43.5285 I0.0 J3.0875
G1 F200.0 Z-3.2
G3 F800.0 X-123.8125 Y46.5 I-0.8384 J2.9715
G1 Y69.5
G3 X-126.9 Y72.5875 I-3.0875 J0.0
G1 X-155.5
G3 X-158.5875 Y69.5 I0.0 J-3.0875
G1 Y46.5
G3 X-155.5 Y43.4125 I3.0875 J0.0
G1 X-126.9
G3 X-126.0616 Y43.5285 I0.0 J3.0875
G0 Z2.0
G0 X-126.83 Y77.4133
G1 F200.0 Z-0.4
G3 F800.0 X-123.8125 Y80.5 I-0.07 J3.0867
G1 Y103.5
G3 X-126.9 Y106.5875 I-3.0875 J0.0
G1 X-155.5
G3 X-158.5875 Y103.5 I0.0 J-3.0875
G1 Y80.5
G3 X-155.5 Y77.4125 I3.0875 J0.0
G1 X-126.9
G3 X-126.83 Y77.4133 I0.0 J3.0875
G1 F200.0 Z-0.8
G3 F800.0 X-123.8125 Y80.5 I-0.07 J3.0867
G1 Y103.5
G3 X-126.9 Y106.5875 I-3.0875 J0.0
G1 X-155.5
G3 X-158.5875 Y103.5 I0.0 J-3.0875
G1 Y80.5
G3 X-155.5 Y77.4125 I3.0875 J0.0
G1 X-126.9
G3 X-126.83 Y77.4133 I0.0 J3.0875
G1 F200.0 Z-1.2
G3 F800.0 X-123.8125 Y80.5 I-0.07 J3.0867
G1 Y103.5
G3 X-126.9 Y106.5875 I-3.0875 J0.0
G1 X-155.5
G3 X-158.5875 Y103.5 I0.0 J-3.0875
G1 Y80.5
G3 X-155.5 Y77.4125 I3.0875 J0.0
G1 X-126.9
G3 X-126.83 Y77.4133 I0.0 J3.0875
G1 F200.0 Z-1.6
G3 F800.0 X-123.8125 Y80.5 I-0.07 J3.0867
G1 Y103.5
G3 X-126.9 Y106.5875 I-3.0875 J0.0
G1 X-155.5
G3 X-158.5875 Y103.5 I0.0 J-3.0875
G1 Y80.5
G3 X-155.5 Y77.4125 I3.0875 J0.0
G1 X-126.9
G3 X-126.83 Y77.4133 I0.0 J3.0875
G1 F200.0 Z-2.0
G3 F800.0 X-123.8125 Y80.5 I-0.07 J3.0867
G1 Y103.5
G3 X-126.9 Y106.5875 I-3.0875 J0.0
G1 X-155.5
G3 X-158.5875 Y103.5 I0.0 J-3.0875
G1 Y80.5
G3 X-155.5 Y77.4125 I3.0875 J0.0
G1 X-126.9
G3 X-126.83 Y77.4133 I0.0 J3.0875
G1 F200.0 Z-2.4
G3 F800.0 X-123.8125 Y80.5 I-0.07 J3.0867
G1 Y103.5
G3 X-126.9 Y106.5875 I-3.0875 J0.0
G1 X-155.5
G3 X-158.5875 Y103.5 I0.0 J-3.0875
G1 Y80.5
G3 X-155.5 Y77.4125 I3.0875 J0.0
G1 X-126.9
G3 X-126.83 Y77.4133 I0.0 J3.0875
G1 F200.0 Z-2.8
G3 F800.0 X-123.8125 Y80.5 I-0.07 J3.0867
G1 Y103.5
G3 X-126.9 Y106.5875 I-3.0875 J0.0
G1 X-155.5
G3 X-158.5875 Y103.5 I0.0 J-3.0875
G1 Y80.5
G3 X-155.5 Y77.4125 I3.0875 J0.0
G1 X-126.9
G3 X-126.83 Y77.4133 I0.0 J3.0875
G1 F200.0 Z-3.2
G3 F800.0 X-123.8125 Y80.5 I-0.07 J3.0867
G1 Y103.5
G3 X-126.9 Y106.5875 I-3.0875 J0.0
G1 X-155.5
G3 X-158.5875 Y103.5 I0.0 J-3.0875
G1 Y80.5
G3 X-155.5 Y77.4125 I3.0875 J0.0
G1 X-126.9
G3 X-126.83 Y77.4133 I0.0 J3.0875
G0 Z2.0
G0 X-126.8942 Y111.4125
G1 F200.0 Z-0.4
G3 F800.0 X-123.8125 Y114.5 I-0.0058 J3.0875
G1 Y137.5
G3 X-126.9 Y140.5875 I-3.0875 J0.0
G1 X-155.5
G3 X-158.5875 Y137.5 I0.0 J-3.0875
G1 Y114.5
G3 X-155.5 Y111.4125 I3.0875 J0.0
G1 X-126.9
G3 X-126.8942 I0.0 J3.0875
G1 F200.0 Z-0.8
G3 F800.0 X-123.8125 Y114.5 I-0.0058 J3.0875
G1 Y137.5
G3 X-126.9 Y140.5875 I-3.0875 J0.0
G1 X-155.5
G3 X-158.5875 Y137.5 I0.0 J-3.0875
G1 Y114.5
G3 X-155.5 Y111.4125 I3.0875 J0.0
G1 X-126.9
G3 X-126.8942 I0.0 J3.0875
G1 F200.0 Z-1.2
G3 F800.0 X-123.8125 Y114.5 I-0.0058 J3.0875
G1 Y137.5
G3 X-126.9 Y140.5875 I-3.0875 J0.0
G1 X-155.5
G3 X-158.5875 Y137.5 I0.0 J-3.0875
G1 Y114.5
G3 X-155.5 Y111.4125 I3.0875 J0.0
G1 X-126.9
G3 X-126.8942 I0.0 J3.0875
G1 F200.0 Z-1.6
G3 F800.0 X-123.8125 Y114.5 I-0.0058 J3.0875
G1 Y137.5
G3 X-126.9 Y140.5875 I-3.0875 J0.0
G1 X-155.5
G3 X-158.5875 Y137.5 I0.0 J-3.0875
G1 Y114.5
G3 X-155.5 Y111.4125 I3.0875 J0.0
G1 X-126.9
G3 X-126.8942 I0.0 J3.0875
G1 F200.0 Z-2.0
G3 F800.0 X-123.8125 Y114.5 I-0.0058 J3.0875
G1 Y137.5
G3 X-126.9 Y140.5875 I-3.0875 J0.0
G1 X-155.5
G3 X-158.5875 Y137.5 I0.0 J-3.0875
G1 Y114.5
G3 X-155.5 Y111.4125 I3.0875 J0.0
G1 X-126.9
G3 X-126.8942 I0.0 J3.0875
G1 F200.0 Z-2.4
G3 F800.0 X-123.8125 Y114.5 I-0.0058 J3.0875
G1 Y137.5
G3 X-126.9 Y140.5875 I-3.0875 J0.0
G1 X-155.5
G3 X-158.5875 Y137.5 I0.0 J-3.0875
G1 Y114.5
G3 X-155.5 Y111.4125 I3.0875 J0.0
G1 X-126.9
G3 X-126.8942 I0.0 J3.0875
G1 F200.0 Z-2.8
G3 F800.0 X-123.8125 Y114.5 I-0.0058 J3.0875
G1 Y137.5
G3 X-126.9 Y140.5875 I-3.0875 J0.0
G1 X-155.5
G3 X-158.5875 Y137.5 I0.0 J-3.0875
G1 Y114.5
G3 X-155.5 Y111.4125 I3.0875 J0.0
G1 X-126.9
G3 X-126.8942 I0.0 J3.0875
G1 F200.0 Z-3.2
G3 F800.0 X-123.8125 Y114.5 I-0.0058 J3.0875
G1 Y137.5
G3 X-126.9 Y140.5875 I-3.0875 J0.0
G1 X-155.5
G3 X-158.5875 Y137.5 I0.0 J-3.0875
G1 Y114.5
G3 X-155.5 Y111.4125 I3.0875 J0.0
G1 X-126.9
G3 X-126.8942 I0.0 J3.0875
G0 Z2.0
G0 X-38.5857 Y114.3958
G1 F200.0 Z-0.4
G3 F800.0 X-35.5 Y111.4125 I3.0857 J0.1042
G1 X-6.9
G3 X-3.8125 Y114.5 I0.0 J3.0875
G1 Y137.5
G3 X-6.9 Y140.5875 I-3.0875 J0.0
G1 X-35.5
G3 X-38.5875 Y137.5 I0.0 J-3.0875
G1 Y114.5
G3 X-38.5857 Y114.3958 I3.0875 J0.0
G1 F200.0 Z-0.8
G3 F800.0 X-35.5 Y111.4125 I3.0857 J0.1042
G1 X-6.9
G3 X-3.8125 Y114.5 I0.0 J3.0875
G1 Y137.5
G3 X-6.9 Y140.5875 I-3.0875 J0.0
G1 X-35.5
G3 X-38.5875 Y137.5 I0.0 J-3.0875
G1 Y114.5
G3 X-38.5857 Y114.3958 I3.0875 J0.0
G1 F200.0 Z-1.2
G3 F800.0 X-35.5 Y111.4125 I3.0857 J0.1042
G1 X-6.9
G3 X-3.8125 Y114.5 I0.0 J3.0875
G1 Y137.5
G3 X-6.9 Y140.5875 I-3.0875 J0.0
G1 X-35.5
G3 X-38.5875 Y137.5 I0.0 J-3.0875
G1 Y114.5
G3 X-38.5857 Y114.3958 I3.0875 J0.0
G1 F200.0 Z-1.6
G3 F800.0 X-35.5 Y111.4125 I3.0857 J0.1042
G1 X-6.9
G3 X-3.8125 Y114.5 I0.0 J3.0875
G1 Y137.5
G3 X-6.9 Y140.5875 I-3.0875 J0.0
G1 X-35.5
G3 X-38.5875 Y137.5 I0.0 J-3.0875
G1 Y114.5
G3 X-38.5857 Y114.3958 I3.0875 J0.0
G1 F200.0 Z-2.0
G3 F800.0 X-35.5 Y111.4125 I3.0857 J0.1042
G1 X-6.9
G3 X-3.8125 Y114.5 I0.0 J3.0875
G1 Y137.5
G3 X-6.9 Y140.5875 I-3.0875 J0.0
G1 X-35.5
G3 X-38.5875 Y137.5 I0.0 J-3.0875
G1 Y114.5
G3 X-38.5857 Y114.3958 I3.0875 J0.0
G1 F200.0 Z-2.4
G3 F800.0 X-35.5 Y111.4125 I3.0857 J0.1042
G1 X-6.9
G3 X-3.8125 Y114.5 I0.0 J3.0875
G1 Y137.5
G3 X-6.9 Y140.5875 I-3.0875 J0.0
G1 X-35.5
G3 X-38.5875 Y137.5 I0.0 J-3.0875
G1 Y114.5
G3 X-38.5857 Y114.3958 I3.0875 J0.0
G1 F200.0 Z-2.8
G3 F800.0 X-35.5 Y111.4125 I3.0857 J0.1042
G1 X-6.9
G3 X-3.8125 Y114.5 I0.0 J3.0875
G1 Y137.5
G3 X-6.9 Y140.5875 I-3.0875 J0.0
G1 X-35.5
G3 X-38.5875 Y137.5 I0.0 J-3.0875
G1 Y114.5
G3 X-38.5857 Y114.3958 I3.0875 J0.0
G1 F200.0 Z-3.2
G3 F800.0 X-35.5 Y111.4125 I3.0857 J0.1042
G1 X-6.9
G3 X-3.8125 Y114.5 I0.0 J3.0875
G1 Y137.5
G3 X-6.9 Y140.5875 I-3.0875 J0.0
G1 X-35.5
G3 X-38.5875 Y137.5 I0.0 J-3.0875
G1 Y114.5
G3 X-38.5857 Y114.3958 I3.0875 J0.0
G0 Z2.0
G0 X-36.3413 Y106.4707
G1 F200.0 Z-0.4
G3 F800.0 X-38.5875 Y103.5 I0.8413 J-2.9707
G1 Y80.5
G3 X-35.5 Y77.4125 I3.0875 J0.0
G1 X-6.9
G3 X-3.8125 Y80.5 I0.0 J3.0875
G1 Y103.5
G3 X-6.9 Y106.5875 I-3.0875 J0.0
G1 X-35.5
G3 X-36.3413 Y106.4707 I0.0 J-3.0875
G1 F200.0 Z-0.8
G3 F800.0 X-38.5875 Y103.5 I0.8413 J-2.9707
G1 Y80.5
G3 X-35.5 Y77.4125 I3.0875 J0.0
G1 X-6.9
G3 X-3.8125 Y80.5 I0.0 J3.0875
G1 Y103.5
G3 X-6.9 Y106.5875 I-3.0875 J0.0
G1 X-35.5
G3 X-36.3413 Y106.4707 I0.0 J-3.0875
G1 F200.0 Z-1.2
G3 F800.0 X-38.5875 Y103.5 I0.8413 J-2.9707
G1 Y80.5
G3 X-35.5 Y77.4125 I3.0875 J0.0
G1 X-6.9
G3 X-3.8125 Y80.5 I0.0 J3.0875
G1 Y103.5
G3 X-6.9 Y106.5875 I-3.0875 J0.0
G1 X-35.5
G3 X-36.3413 Y106.4707 I0.0 J-3.0875
G1 F200.0 Z-1.6
G3 F800.0 X-38.5875 Y103.5 I0.8413 J-2.9707
G1 Y80.5
G3 X-35.5 Y77.4125 I3.0875 J0.0
G1 X-6.9
G3 X-3.8125 Y80.5 I0.0 J3.0875
G1 Y103.5
G3 X-6.9 Y106.5875 I-3.0875 J0.0
G1 X-35.5
G3 X-36.3413 Y106.4707 I0.0 J-3.0875
G1 F200.0 Z-2.0
G3 F800.0 X-38.5875 Y103.5 I0.8413 J-2.9707
G1 Y80.5
G3 X-35.5 Y77.4125 I3.0875 J0.0
G1 X-6.9
G3 X-3.8125 Y80.5 I0.0 J3.0875
G1 Y103.5
G3 X-6.9 Y106.5875 I-3.0875 J0.0
G1 X-35.5
G3 X-36.3413 Y106.4707 I0.0 J-3.0875
G1 F200.0 Z-2.4
G3 F800.0 X-38.5875 Y103.5 I0.8413 J-2.9707
G1 Y80.5
G3 X-35.5 Y77.4125 I3.0875 J0.0
G1 X-6.9
G3 X-3.8125 Y80.5 I0.0 J3.0875
G1 Y103.5
G3 X-6.9 Y106.5875 I-3.0875 J0.0
G1 X-35.5
G3 X-36.3413 Y106.4707 I0.0 J-3.0875
G1 F200.0 Z-2.8
G3 F800.0 X-38.5875 Y103.5 I0.8413 J-2.9707
G1 Y80.5
G3 X-35.5 Y77.4125 I3.0875 J0.0
G1 X-6.9
G3 X-3.8125 Y80.5 I0.0 J3.0875
G1 Y103.5
G3 X-6.9 Y106.5875 I-3.0875 J0.0
G1 X-35.5
G3 X-36.3413 Y106.4707 I0.0 J-3.0875
G1 F200.0 Z-3.2
G3 F800.0 X-38.5875 Y103.5 I0.8413 J-2.9707
G1 Y80.5
G3 X-35.5 Y77.4125 I3.0875 J0.0
G1 X-6.9
G3 X-3.8125 Y80.5 I0.0 J3.0875
G1 Y103.5
G3 X-6.9 Y106.5875 I-3.0875 J0.0
G1 X-35.5
G3 X-36.3413 Y106.4707 I0.0 J-3.0875
G0 Z2.0
G0 X-35.5702 Y72.5867
G1 F200.0 Z-0.4
G3 F800.0 X-38.5875 Y69.5 I0.0702 J-3.0867
G1 Y46.5
G3 X-35.5 Y43.4125 I3.0875 J0.0
G1 X-6.9
G3 X-3.8125 Y46.5 I0.0 J3.0875
G1 Y69.5
G3 X-6.9 Y72.5875 I-3.0875 J0.0
G1 X-35.5
G3 X-35.5702 Y72.5867 I0.0 J-3.0875
G1 F200.0 Z-0.8
G3 F800.0 X-38.5875 Y69.5 I0.0702 J-3.0867
G1 Y46.5
G3 X-35.5 Y43.4125 I3.0875 J0.0
G1 X-6.9
G3 X-3.8125 Y46.5 I0.0 J3.0875
G1 Y69.5
G3 X-6.9 Y72.5875 I-3.0875 J0.0
G1 X-35.5
G3 X-35.5702 Y72.5867 I0.0 J-3.0875
G1 F200.0 Z-1.2
G3 F800.0 X-38.5875 Y69.5 I0.0702 J-3.0867
G1 Y46.5
G3 X-35.5 Y43.4125 I3.0875 J0.0
G1 X-6.9
G3 X-3.8125 Y46.5 I0.0 J3.0875
G1 Y69.5
G3 X-6.9 Y72.5875 I-3.0875 J0.0
G1 X-35.5
G3 X-35.5702 Y72.5867 I0.0 J-3.0875
G1 F200.0 Z-1.6
G3 F800.0 X-38.5875 Y69.5 I0.0702 J-3.0867
G1 Y46.5
G3 X-35.5 Y43.4125 I3.0875 J0.0
G1 X-6.9
G3 X-3.8125 Y46.5 I0.0 J3.0875
G1 Y69.5
G3 X-6.9 Y72.5875 I-3.0875 J0.0
G1 X-35.5
G3 X-35.5702 Y72.5867 I0.0 J-3.0875
G1 F200.0 Z-2.0
G3 F800.0 X-38.5875 Y69.5 I0.0702 J-3.0867
G1 Y46.5
G3 X-35.5 Y43.4125 I3.0875 J0.0
G1 X-6.9
G3 X-3.8125 Y46.5 I0.0 J3.0875
G1 Y69.5
G3 X-6.9 Y72.5875 I-3.0875 J0.0
G1 X-35.5
G3 X-35.5702 Y72.5867 I0.0 J-3.0875
G1 F200.0 Z-2.4
G3 F800.0 X-38.5875 Y69.5 I0.0702 J-3.0867
G1 Y46.5
G3 X-35.5 Y43.4125 I3.0875 J0.0
G1 X-6.9
G3 X-3.8125 Y46.5 I0.0 J3.0875
G1 Y69.5
G3 X-6.9 Y72.5875 I-3.0875 J0.0
G1 X-35.5
G3 X-35.5702 Y72.5867 I0.0 J-3.0875
G1 F200.0 Z-2.8
G3 F800.0 X-38.5875 Y69.5 I0.0702 J-3.0867
G1 Y46.5
G3 X-35.5 Y43.4125 I3.0875 J0.0
G1 X-6.9
G3 X-3.8125 Y46.5 I0.0 J3.0875
G1 Y69.5
G3 X-6.9 Y72.5875 I-3.0875 J0.0
G1 X-35.5
G3 X-35.5702 Y72.5867 I0.0 J-3.0875
G1 F200.0 Z-3.2
G3 F800.0 X-38.5875 Y69.5 I0.0702 J-3.0867
G1 Y46.5
G3 X-35.5 Y43.4125 I3.0875 J0.0
G1 X-6.9
G3 X-3.8125 Y46.5 I0.0 J3.0875
G1 Y69.5
G3 X-6.9 Y72.5875 I-3.0875 J0.0
G1 X-35.5
G3 X-35.5702 Y72.5867 I0.0 J-3.0875
G0 Z2.0
G0 X-35.5058 Y38.5875
G1 F200.0 Z-0.4
G3 F800.0 X-38.5875 Y35.5 I0.0058 J-3.0875
G1 Y12.5
G3 X-35.5 Y9.4125 I3.0875 J0.0
G1 X-6.9
G3 X-3.8125 Y12.5 I0.0 J3.0875
G1 Y35.5
G3 X-6.9 Y38.5875 I-3.0875 J0.0
G1 X-35.5
G3 X-35.5058 I0.0 J-3.0875
G1 F200.0 Z-0.8
G3 F800.0 X-38.5875 Y35.5 I0.0058 J-3.0875
G1 Y12.5
G3 X-35.5 Y9.4125 I3.0875 J0.0
G1 X-6.9
G3 X-3.8125 Y12.5 I0.0 J3.0875
G1 Y35.5
G3 X-6.9 Y38.5875 I-3.0875 J0.0
G1 X-35.5
G3 X-35.5058 I0.0 J-3.0875
G1 F200.0 Z-1.2
G3 F800.0 X-38.5875 Y35.5 I0.0058 J-3.0875
G1 Y12.5
G3 X-35.5 Y9.4125 I3.0875 J0.0
G1 X-6.9
G3 X-3.8125 Y12.5 I0.0 J3.0875
G1 Y35.5
G3 X-6.9 Y38.5875 I-3.0875 J0.0
G1 X-35.5
G3 X-35.5058 I0.0 J-3.0875
G1 F200.0 Z-1.6
G3 F800.0 X-38.5875 Y35.5 I0.0058 J-3.0875
G1 Y12.5
G3 X-35.5 Y9.4125 I3.0875 J0.0
G1 X-6.9
G3 X-3.8125 Y12.5 I0.0 J3.0875
G1 Y35.5
G3 X-6.9 Y38.5875 I-3.0875 J0.0
G1 X-35.5
G3 X-35.5058 I0.0 J-3.0875
G1 F200.0 Z-2.0
G3 F800.0 X-38.5875 Y35.5 I0.0058 J-3.0875
G1 Y12.5
G3 X-35.5 Y9.4125 I3.0875 J0.0
G1 X-6.9
G3 X-3.8125 Y12.5 I0.0 J3.0875
G1 Y35.5
G3 X-6.9 Y38.5875 I-3.0875 J0.0
G1 X-35.5
G3 X-35.5058 I0.0 J-3.0875
G1 F200.0 Z-2.4
G3 F800.0 X-38.5875 Y35.5 I0.0058 J-3.0875
G1 Y12.5
G3 X-35.5 Y9.4125 I3.0875 J0.0
G1 X-6.9
G3 X-3.8125 Y12.5 I0.0 J3.0875
G1 Y35.5
G3 X-6.9 Y38.5875 I-3.0875 J0.0
G1 X-35.5
G3 X-35.5058 I0.0 J-3.0875
G1 F200.0 Z-2.8
G3 F800.0 X-38.5875 Y35.5 I0.0058 J-3.0875
G1 Y12.5
G3 X-35.5 Y9.4125 I3.0875 J0.0
G1 X-6.9
G3 X-3.8125 Y12.5 I0.0 J3.0875
G1 Y35.5
G3 X-6.9 Y38.5875 I-3.0875 J0.0
G1 X-35.5
G3 X-35.5058 I0.0 J-3.0875
G1 F200.0 Z-3.2
G3 F800.0 X-38.5875 Y35.5 I0.0058 J-3.0875
G1 Y12.5
G3 X-35.5 Y9.4125 I3.0875 J0.0
G1 X-6.9
G3 X-3.8125 Y12.5 I0.0 J3.0875
G1 Y35.5
G3 X-6.9 Y38.5875 I-3.0875 J0.0
G1 X-35.5
G3 X-35.5058 I0.0 J-3.0875
G0 Z2.0
M5
M30
