( Made using CamBam - http://www.cambam.co.uk )
( sheet3 3/19/2022 10:35:16 AM )
( T0 : 1.6 )
G21 G90 G40
G0 Z2.0
( T0 : 1.6 )
T0 M6
( 1_slit )
G17
M3 S1000
G0 X-150.3311 Y32.7504
G1 F200.0 Z-0.4
G1 F450.0 X-155.2809 Y27.8006
G1 F200.0 Z-0.8
G1 F450.0 X-150.3311 Y32.7504
G1 F200.0 Z-1.2
G1 F450.0 X-155.2809 Y27.8006
G1 F200.0 Z-1.6
G1 F450.0 X-150.3311 Y32.7504
G1 F200.0 Z-2.0
G1 F450.0 X-155.2809 Y27.8006
G1 F200.0 Z-2.4
G1 F450.0 X-150.3311 Y32.7504
G0 Z2.0
G0 X-137.2496 Y19.6689
G1 F200.0 Z-0.4
G1 F450.0 X-142.1994 Y14.7191
G1 F200.0 Z-0.8
G1 F450.0 X-137.2496 Y19.6689
G1 F200.0 Z-1.2
G1 F450.0 X-142.1994 Y14.7191
G1 F200.0 Z-1.6
G1 F450.0 X-137.2496 Y19.6689
G1 F200.0 Z-2.0
G1 F450.0 X-142.1994 Y14.7191
G1 F200.0 Z-2.4
G1 F450.0 X-137.2496 Y19.6689
G0 Z2.0
G0 X-189.6689 Y117.2496
G1 F200.0 Z-0.4
G1 F450.0 X-184.7191 Y122.1994
G1 F200.0 Z-0.8
G1 F450.0 X-189.6689 Y117.2496
G1 F200.0 Z-1.2
G1 F450.0 X-184.7191 Y122.1994
G1 F200.0 Z-1.6
G1 F450.0 X-189.6689 Y117.2496
G1 F200.0 Z-2.0
G1 F450.0 X-184.7191 Y122.1994
G1 F200.0 Z-2.4
G1 F450.0 X-189.6689 Y117.2496
G0 Z2.0
G0 X-202.7504 Y130.3311
G1 F200.0 Z-0.4
G1 F450.0 X-197.8006 Y135.2809
G1 F200.0 Z-0.8
G1 F450.0 X-202.7504 Y130.3311
G1 F200.0 Z-1.2
G1 F450.0 X-197.8006 Y135.2809
G1 F200.0 Z-1.6
G1 F450.0 X-202.7504 Y130.3311
G1 F200.0 Z-2.0
G1 F450.0 X-197.8006 Y135.2809
G1 F200.0 Z-2.4
G1 F450.0 X-202.7504 Y130.3311
G0 Z2.0
G0 X-308.3311 Y32.7504
G1 F200.0 Z-0.4
G1 F450.0 X-313.2809 Y27.8006
G1 F200.0 Z-0.8
G1 F450.0 X-308.3311 Y32.7504
G1 F200.0 Z-1.2
G1 F450.0 X-313.2809 Y27.8006
G1 F200.0 Z-1.6
G1 F450.0 X-308.3311 Y32.7504
G1 F200.0 Z-2.0
G1 F450.0 X-313.2809 Y27.8006
G1 F200.0 Z-2.4
G1 F450.0 X-308.3311 Y32.7504
G0 Z2.0
G0 X-295.2496 Y19.6689
G1 F200.0 Z-0.4
G1 F450.0 X-300.1994 Y14.7191
G1 F200.0 Z-0.8
G1 F450.0 X-295.2496 Y19.6689
G1 F200.0 Z-1.2
G1 F450.0 X-300.1994 Y14.7191
G1 F200.0 Z-1.6
G1 F450.0 X-295.2496 Y19.6689
G1 F200.0 Z-2.0
G1 F450.0 X-300.1994 Y14.7191
G1 F200.0 Z-2.4
G1 F450.0 X-295.2496 Y19.6689
G0 Z2.0
G0 X-44.7504 Y130.3311
G1 F200.0 Z-0.4
G1 F450.0 X-39.8006 Y135.2809
G1 F200.0 Z-0.8
G1 F450.0 X-44.7504 Y130.3311
G1 F200.0 Z-1.2
G1 F450.0 X-39.8006 Y135.2809
G1 F200.0 Z-1.6
G1 F450.0 X-44.7504 Y130.3311
G1 F200.0 Z-2.0
G1 F450.0 X-39.8006 Y135.2809
G1 F200.0 Z-2.4
G1 F450.0 X-44.7504 Y130.3311
G0 Z2.0
G0 X-31.6689 Y117.2496
G1 F200.0 Z-0.4
G1 F450.0 X-26.7191 Y122.1994
G1 F200.0 Z-0.8
G1 F450.0 X-31.6689 Y117.2496
G1 F200.0 Z-1.2
G1 F450.0 X-26.7191 Y122.1994
G1 F200.0 Z-1.6
G1 F450.0 X-31.6689 Y117.2496
G1 F200.0 Z-2.0
G1 F450.0 X-26.7191 Y122.1994
G1 F200.0 Z-2.4
G1 F450.0 X-31.6689 Y117.2496
G0 Z2.0
M5
M30
