( Made using CamBam - http://www.cambam.co.uk )
( sheet1 3/19/2022 7:39:21 AM )
( T0 : 3.175 )
G21 G90 G40
G0 Z2.0
( T0 : 3.175 )
T0 M6
( 3_inside )
G17
M3 S1000
G0 X-40.4125 Y66.5
G1 F200.0 Z-0.4
G1 F450.0 Y70.4
G2 X-37.0 Y73.8125 I3.4125 J0.0
G1 X-33.0
G2 X-29.5875 Y70.4 I0.0 J-3.4125
G1 Y66.5
G2 X-33.0 Y63.0875 I-3.4125 J0.0
G1 X-37.0
G2 X-40.4125 Y66.5 I0.0 J3.4125
G1 F200.0 Z-0.8
G1 F450.0 Y70.4
G2 X-37.0 Y73.8125 I3.4125 J0.0
G1 X-33.0
G2 X-29.5875 Y70.4 I0.0 J-3.4125
G1 Y66.5
G2 X-33.0 Y63.0875 I-3.4125 J0.0
G1 X-37.0
G2 X-40.4125 Y66.5 I0.0 J3.4125
G1 F200.0 Z-1.2
G1 F450.0 Y70.4
G2 X-37.0 Y73.8125 I3.4125 J0.0
G1 X-33.0
G2 X-29.5875 Y70.4 I0.0 J-3.4125
G1 Y66.5
G2 X-33.0 Y63.0875 I-3.4125 J0.0
G1 X-37.0
G2 X-40.4125 Y66.5 I0.0 J3.4125
G1 F200.0 Z-1.6
G1 F450.0 Y70.4
G2 X-37.0 Y73.8125 I3.4125 J0.0
G1 X-33.0
G2 X-29.5875 Y70.4 I0.0 J-3.4125
G1 Y66.5
G2 X-33.0 Y63.0875 I-3.4125 J0.0
G1 X-37.0
G2 X-40.4125 Y66.5 I0.0 J3.4125
G1 F200.0 Z-2.0
G1 F450.0 Y70.4
G2 X-37.0 Y73.8125 I3.4125 J0.0
G1 X-33.0
G2 X-29.5875 Y70.4 I0.0 J-3.4125
G1 Y66.5
G2 X-33.0 Y63.0875 I-3.4125 J0.0
G1 X-37.0
G2 X-40.4125 Y66.5 I0.0 J3.4125
G1 F200.0 Z-2.4
G1 F450.0 Y70.4
G2 X-37.0 Y73.8125 I3.4125 J0.0
G1 X-33.0
G2 X-29.5875 Y70.4 I0.0 J-3.4125
G1 Y66.5
G2 X-33.0 Y63.0875 I-3.4125 J0.0
G1 X-37.0
G2 X-40.4125 Y66.5 I0.0 J3.4125
G0 Z2.0
G0 X-59.5875
G1 F200.0 Z-0.4
G2 F450.0 X-63.0 Y63.0875 I-3.4125 J0.0
G1 X-67.0
G2 X-70.4125 Y66.5 I0.0 J3.4125
G1 Y70.4
G2 X-67.0 Y73.8125 I3.4125 J0.0
G1 X-63.0
G2 X-59.5875 Y70.4 I0.0 J-3.4125
G1 Y66.5
G1 F200.0 Z-0.8
G2 F450.0 X-63.0 Y63.0875 I-3.4125 J0.0
G1 X-67.0
G2 X-70.4125 Y66.5 I0.0 J3.4125
G1 Y70.4
G2 X-67.0 Y73.8125 I3.4125 J0.0
G1 X-63.0
G2 X-59.5875 Y70.4 I0.0 J-3.4125
G1 Y66.5
G1 F200.0 Z-1.2
G2 F450.0 X-63.0 Y63.0875 I-3.4125 J0.0
G1 X-67.0
G2 X-70.4125 Y66.5 I0.0 J3.4125
G1 Y70.4
G2 X-67.0 Y73.8125 I3.4125 J0.0
G1 X-63.0
G2 X-59.5875 Y70.4 I0.0 J-3.4125
G1 Y66.5
G1 F200.0 Z-1.6
G2 F450.0 X-63.0 Y63.0875 I-3.4125 J0.0
G1 X-67.0
G2 X-70.4125 Y66.5 I0.0 J3.4125
G1 Y70.4
G2 X-67.0 Y73.8125 I3.4125 J0.0
G1 X-63.0
G2 X-59.5875 Y70.4 I0.0 J-3.4125
G1 Y66.5
G1 F200.0 Z-2.0
G2 F450.0 X-63.0 Y63.0875 I-3.4125 J0.0
G1 X-67.0
G2 X-70.4125 Y66.5 I0.0 J3.4125
G1 Y70.4
G2 X-67.0 Y73.8125 I3.4125 J0.0
G1 X-63.0
G2 X-59.5875 Y70.4 I0.0 J-3.4125
G1 Y66.5
G1 F200.0 Z-2.4
G2 F450.0 X-63.0 Y63.0875 I-3.4125 J0.0
G1 X-67.0
G2 X-70.4125 Y66.5 I0.0 J3.4125
G1 Y70.4
G2 X-67.0 Y73.8125 I3.4125 J0.0
G1 X-63.0
G2 X-59.5875 Y70.4 I0.0 J-3.4125
G1 Y66.5
G0 Z2.0
G0 X-89.5875
G1 F200.0 Z-0.4
G2 F450.0 X-93.0 Y63.0875 I-3.4125 J0.0
G1 X-97.0
G2 X-100.4125 Y66.5 I0.0 J3.4125
G1 Y70.4
G2 X-97.0 Y73.8125 I3.4125 J0.0
G1 X-93.0
G2 X-89.5875 Y70.4 I0.0 J-3.4125
G1 Y66.5
G1 F200.0 Z-0.8
G2 F450.0 X-93.0 Y63.0875 I-3.4125 J0.0
G1 X-97.0
G2 X-100.4125 Y66.5 I0.0 J3.4125
G1 Y70.4
G2 X-97.0 Y73.8125 I3.4125 J0.0
G1 X-93.0
G2 X-89.5875 Y70.4 I0.0 J-3.4125
G1 Y66.5
G1 F200.0 Z-1.2
G2 F450.0 X-93.0 Y63.0875 I-3.4125 J0.0
G1 X-97.0
G2 X-100.4125 Y66.5 I0.0 J3.4125
G1 Y70.4
G2 X-97.0 Y73.8125 I3.4125 J0.0
G1 X-93.0
G2 X-89.5875 Y70.4 I0.0 J-3.4125
G1 Y66.5
G1 F200.0 Z-1.6
G2 F450.0 X-93.0 Y63.0875 I-3.4125 J0.0
G1 X-97.0
G2 X-100.4125 Y66.5 I0.0 J3.4125
G1 Y70.4
G2 X-97.0 Y73.8125 I3.4125 J0.0
G1 X-93.0
G2 X-89.5875 Y70.4 I0.0 J-3.4125
G1 Y66.5
G1 F200.0 Z-2.0
G2 F450.0 X-93.0 Y63.0875 I-3.4125 J0.0
G1 X-97.0
G2 X-100.4125 Y66.5 I0.0 J3.4125
G1 Y70.4
G2 X-97.0 Y73.8125 I3.4125 J0.0
G1 X-93.0
G2 X-89.5875 Y70.4 I0.0 J-3.4125
G1 Y66.5
G1 F200.0 Z-2.4
G2 F450.0 X-93.0 Y63.0875 I-3.4125 J0.0
G1 X-97.0
G2 X-100.4125 Y66.5 I0.0 J3.4125
G1 Y70.4
G2 X-97.0 Y73.8125 I3.4125 J0.0
G1 X-93.0
G2 X-89.5875 Y70.4 I0.0 J-3.4125
G1 Y66.5
G0 Z2.0
G0 X-119.5875
G1 F200.0 Z-0.4
G2 F450.0 X-123.0 Y63.0875 I-3.4125 J0.0
G1 X-127.0
G2 X-130.4125 Y66.5 I0.0 J3.4125
G1 Y70.4
G2 X-127.0 Y73.8125 I3.4125 J0.0
G1 X-123.0
G2 X-119.5875 Y70.4 I0.0 J-3.4125
G1 Y66.5
G1 F200.0 Z-0.8
G2 F450.0 X-123.0 Y63.0875 I-3.4125 J0.0
G1 X-127.0
G2 X-130.4125 Y66.5 I0.0 J3.4125
G1 Y70.4
G2 X-127.0 Y73.8125 I3.4125 J0.0
G1 X-123.0
G2 X-119.5875 Y70.4 I0.0 J-3.4125
G1 Y66.5
G1 F200.0 Z-1.2
G2 F450.0 X-123.0 Y63.0875 I-3.4125 J0.0
G1 X-127.0
G2 X-130.4125 Y66.5 I0.0 J3.4125
G1 Y70.4
G2 X-127.0 Y73.8125 I3.4125 J0.0
G1 X-123.0
G2 X-119.5875 Y70.4 I0.0 J-3.4125
G1 Y66.5
G1 F200.0 Z-1.6
G2 F450.0 X-123.0 Y63.0875 I-3.4125 J0.0
G1 X-127.0
G2 X-130.4125 Y66.5 I0.0 J3.4125
G1 Y70.4
G2 X-127.0 Y73.8125 I3.4125 J0.0
G1 X-123.0
G2 X-119.5875 Y70.4 I0.0 J-3.4125
G1 Y66.5
G1 F200.0 Z-2.0
G2 F450.0 X-123.0 Y63.0875 I-3.4125 J0.0
G1 X-127.0
G2 X-130.4125 Y66.5 I0.0 J3.4125
G1 Y70.4
G2 X-127.0 Y73.8125 I3.4125 J0.0
G1 X-123.0
G2 X-119.5875 Y70.4 I0.0 J-3.4125
G1 Y66.5
G1 F200.0 Z-2.4
G2 F450.0 X-123.0 Y63.0875 I-3.4125 J0.0
G1 X-127.0
G2 X-130.4125 Y66.5 I0.0 J3.4125
G1 Y70.4
G2 X-127.0 Y73.8125 I3.4125 J0.0
G1 X-123.0
G2 X-119.5875 Y70.4 I0.0 J-3.4125
G1 Y66.5
G0 Z2.0
G0 X-149.5875
G1 F200.0 Z-0.4
G2 F450.0 X-153.0 Y63.0875 I-3.4125 J0.0
G1 X-157.0
G2 X-160.4125 Y66.5 I0.0 J3.4125
G1 Y70.4
G2 X-157.0 Y73.8125 I3.4125 J0.0
G1 X-153.0
G2 X-149.5875 Y70.4 I0.0 J-3.4125
G1 Y66.5
G1 F200.0 Z-0.8
G2 F450.0 X-153.0 Y63.0875 I-3.4125 J0.0
G1 X-157.0
G2 X-160.4125 Y66.5 I0.0 J3.4125
G1 Y70.4
G2 X-157.0 Y73.8125 I3.4125 J0.0
G1 X-153.0
G2 X-149.5875 Y70.4 I0.0 J-3.4125
G1 Y66.5
G1 F200.0 Z-1.2
G2 F450.0 X-153.0 Y63.0875 I-3.4125 J0.0
G1 X-157.0
G2 X-160.4125 Y66.5 I0.0 J3.4125
G1 Y70.4
G2 X-157.0 Y73.8125 I3.4125 J0.0
G1 X-153.0
G2 X-149.5875 Y70.4 I0.0 J-3.4125
G1 Y66.5
G1 F200.0 Z-1.6
G2 F450.0 X-153.0 Y63.0875 I-3.4125 J0.0
G1 X-157.0
G2 X-160.4125 Y66.5 I0.0 J3.4125
G1 Y70.4
G2 X-157.0 Y73.8125 I3.4125 J0.0
G1 X-153.0
G2 X-149.5875 Y70.4 I0.0 J-3.4125
G1 Y66.5
G1 F200.0 Z-2.0
G2 F450.0 X-153.0 Y63.0875 I-3.4125 J0.0
G1 X-157.0
G2 X-160.4125 Y66.5 I0.0 J3.4125
G1 Y70.4
G2 X-157.0 Y73.8125 I3.4125 J0.0
G1 X-153.0
G2 X-149.5875 Y70.4 I0.0 J-3.4125
G1 Y66.5
G1 F200.0 Z-2.4
G2 F450.0 X-153.0 Y63.0875 I-3.4125 J0.0
G1 X-157.0
G2 X-160.4125 Y66.5 I0.0 J3.4125
G1 Y70.4
G2 X-157.0 Y73.8125 I3.4125 J0.0
G1 X-153.0
G2 X-149.5875 Y70.4 I0.0 J-3.4125
G1 Y66.5
G0 Z2.0
G0 X-179.5875
G1 F200.0 Z-0.4
G2 F450.0 X-183.0 Y63.0875 I-3.4125 J0.0
G1 X-187.0
G2 X-190.4125 Y66.5 I0.0 J3.4125
G1 Y70.4
G2 X-187.0 Y73.8125 I3.4125 J0.0
G1 X-183.0
G2 X-179.5875 Y70.4 I0.0 J-3.4125
G1 Y66.5
G1 F200.0 Z-0.8
G2 F450.0 X-183.0 Y63.0875 I-3.4125 J0.0
G1 X-187.0
G2 X-190.4125 Y66.5 I0.0 J3.4125
G1 Y70.4
G2 X-187.0 Y73.8125 I3.4125 J0.0
G1 X-183.0
G2 X-179.5875 Y70.4 I0.0 J-3.4125
G1 Y66.5
G1 F200.0 Z-1.2
G2 F450.0 X-183.0 Y63.0875 I-3.4125 J0.0
G1 X-187.0
G2 X-190.4125 Y66.5 I0.0 J3.4125
G1 Y70.4
G2 X-187.0 Y73.8125 I3.4125 J0.0
G1 X-183.0
G2 X-179.5875 Y70.4 I0.0 J-3.4125
G1 Y66.5
G1 F200.0 Z-1.6
G2 F450.0 X-183.0 Y63.0875 I-3.4125 J0.0
G1 X-187.0
G2 X-190.4125 Y66.5 I0.0 J3.4125
G1 Y70.4
G2 X-187.0 Y73.8125 I3.4125 J0.0
G1 X-183.0
G2 X-179.5875 Y70.4 I0.0 J-3.4125
G1 Y66.5
G1 F200.0 Z-2.0
G2 F450.0 X-183.0 Y63.0875 I-3.4125 J0.0
G1 X-187.0
G2 X-190.4125 Y66.5 I0.0 J3.4125
G1 Y70.4
G2 X-187.0 Y73.8125 I3.4125 J0.0
G1 X-183.0
G2 X-179.5875 Y70.4 I0.0 J-3.4125
G1 Y66.5
G1 F200.0 Z-2.4
G2 F450.0 X-183.0 Y63.0875 I-3.4125 J0.0
G1 X-187.0
G2 X-190.4125 Y66.5 I0.0 J3.4125
G1 Y70.4
G2 X-187.0 Y73.8125 I3.4125 J0.0
G1 X-183.0
G2 X-179.5875 Y70.4 I0.0 J-3.4125
G1 Y66.5
G0 Z2.0
G0 X-209.5875
G1 F200.0 Z-0.4
G2 F450.0 X-213.0 Y63.0875 I-3.4125 J0.0
G1 X-217.0
G2 X-220.4125 Y66.5 I0.0 J3.4125
G1 Y70.4
G2 X-217.0 Y73.8125 I3.4125 J0.0
G1 X-213.0
G2 X-209.5875 Y70.4 I0.0 J-3.4125
G1 Y66.5
G1 F200.0 Z-0.8
G2 F450.0 X-213.0 Y63.0875 I-3.4125 J0.0
G1 X-217.0
G2 X-220.4125 Y66.5 I0.0 J3.4125
G1 Y70.4
G2 X-217.0 Y73.8125 I3.4125 J0.0
G1 X-213.0
G2 X-209.5875 Y70.4 I0.0 J-3.4125
G1 Y66.5
G1 F200.0 Z-1.2
G2 F450.0 X-213.0 Y63.0875 I-3.4125 J0.0
G1 X-217.0
G2 X-220.4125 Y66.5 I0.0 J3.4125
G1 Y70.4
G2 X-217.0 Y73.8125 I3.4125 J0.0
G1 X-213.0
G2 X-209.5875 Y70.4 I0.0 J-3.4125
G1 Y66.5
G1 F200.0 Z-1.6
G2 F450.0 X-213.0 Y63.0875 I-3.4125 J0.0
G1 X-217.0
G2 X-220.4125 Y66.5 I0.0 J3.4125
G1 Y70.4
G2 X-217.0 Y73.8125 I3.4125 J0.0
G1 X-213.0
G2 X-209.5875 Y70.4 I0.0 J-3.4125
G1 Y66.5
G1 F200.0 Z-2.0
G2 F450.0 X-213.0 Y63.0875 I-3.4125 J0.0
G1 X-217.0
G2 X-220.4125 Y66.5 I0.0 J3.4125
G1 Y70.4
G2 X-217.0 Y73.8125 I3.4125 J0.0
G1 X-213.0
G2 X-209.5875 Y70.4 I0.0 J-3.4125
G1 Y66.5
G1 F200.0 Z-2.4
G2 F450.0 X-213.0 Y63.0875 I-3.4125 J0.0
G1 X-217.0
G2 X-220.4125 Y66.5 I0.0 J3.4125
G1 Y70.4
G2 X-217.0 Y73.8125 I3.4125 J0.0
G1 X-213.0
G2 X-209.5875 Y70.4 I0.0 J-3.4125
G1 Y66.5
G0 Z2.0
G0 X-239.5875
G1 F200.0 Z-0.4
G2 F450.0 X-243.0 Y63.0875 I-3.4125 J0.0
G1 X-247.0
G2 X-250.4125 Y66.5 I0.0 J3.4125
G1 Y70.4
G2 X-247.0 Y73.8125 I3.4125 J0.0
G1 X-243.0
G2 X-239.5875 Y70.4 I0.0 J-3.4125
G1 Y66.5
G1 F200.0 Z-0.8
G2 F450.0 X-243.0 Y63.0875 I-3.4125 J0.0
G1 X-247.0
G2 X-250.4125 Y66.5 I0.0 J3.4125
G1 Y70.4
G2 X-247.0 Y73.8125 I3.4125 J0.0
G1 X-243.0
G2 X-239.5875 Y70.4 I0.0 J-3.4125
G1 Y66.5
G1 F200.0 Z-1.2
G2 F450.0 X-243.0 Y63.0875 I-3.4125 J0.0
G1 X-247.0
G2 X-250.4125 Y66.5 I0.0 J3.4125
G1 Y70.4
G2 X-247.0 Y73.8125 I3.4125 J0.0
G1 X-243.0
G2 X-239.5875 Y70.4 I0.0 J-3.4125
G1 Y66.5
G1 F200.0 Z-1.6
G2 F450.0 X-243.0 Y63.0875 I-3.4125 J0.0
G1 X-247.0
G2 X-250.4125 Y66.5 I0.0 J3.4125
G1 Y70.4
G2 X-247.0 Y73.8125 I3.4125 J0.0
G1 X-243.0
G2 X-239.5875 Y70.4 I0.0 J-3.4125
G1 Y66.5
G1 F200.0 Z-2.0
G2 F450.0 X-243.0 Y63.0875 I-3.4125 J0.0
G1 X-247.0
G2 X-250.4125 Y66.5 I0.0 J3.4125
G1 Y70.4
G2 X-247.0 Y73.8125 I3.4125 J0.0
G1 X-243.0
G2 X-239.5875 Y70.4 I0.0 J-3.4125
G1 Y66.5
G1 F200.0 Z-2.4
G2 F450.0 X-243.0 Y63.0875 I-3.4125 J0.0
G1 X-247.0
G2 X-250.4125 Y66.5 I0.0 J3.4125
G1 Y70.4
G2 X-247.0 Y73.8125 I3.4125 J0.0
G1 X-243.0
G2 X-239.5875 Y70.4 I0.0 J-3.4125
G1 Y66.5
G0 Z2.0
G0 X-269.5875
G1 F200.0 Z-0.4
G2 F450.0 X-273.0 Y63.0875 I-3.4125 J0.0
G1 X-277.0
G2 X-280.4125 Y66.5 I0.0 J3.4125
G1 Y70.4
G2 X-277.0 Y73.8125 I3.4125 J0.0
G1 X-273.0
G2 X-269.5875 Y70.4 I0.0 J-3.4125
G1 Y66.5
G1 F200.0 Z-0.8
G2 F450.0 X-273.0 Y63.0875 I-3.4125 J0.0
G1 X-277.0
G2 X-280.4125 Y66.5 I0.0 J3.4125
G1 Y70.4
G2 X-277.0 Y73.8125 I3.4125 J0.0
G1 X-273.0
G2 X-269.5875 Y70.4 I0.0 J-3.4125
G1 Y66.5
G1 F200.0 Z-1.2
G2 F450.0 X-273.0 Y63.0875 I-3.4125 J0.0
G1 X-277.0
G2 X-280.4125 Y66.5 I0.0 J3.4125
G1 Y70.4
G2 X-277.0 Y73.8125 I3.4125 J0.0
G1 X-273.0
G2 X-269.5875 Y70.4 I0.0 J-3.4125
G1 Y66.5
G1 F200.0 Z-1.6
G2 F450.0 X-273.0 Y63.0875 I-3.4125 J0.0
G1 X-277.0
G2 X-280.4125 Y66.5 I0.0 J3.4125
G1 Y70.4
G2 X-277.0 Y73.8125 I3.4125 J0.0
G1 X-273.0
G2 X-269.5875 Y70.4 I0.0 J-3.4125
G1 Y66.5
G1 F200.0 Z-2.0
G2 F450.0 X-273.0 Y63.0875 I-3.4125 J0.0
G1 X-277.0
G2 X-280.4125 Y66.5 I0.0 J3.4125
G1 Y70.4
G2 X-277.0 Y73.8125 I3.4125 J0.0
G1 X-273.0
G2 X-269.5875 Y70.4 I0.0 J-3.4125
G1 Y66.5
G1 F200.0 Z-2.4
G2 F450.0 X-273.0 Y63.0875 I-3.4125 J0.0
G1 X-277.0
G2 X-280.4125 Y66.5 I0.0 J3.4125
G1 Y70.4
G2 X-277.0 Y73.8125 I3.4125 J0.0
G1 X-273.0
G2 X-269.5875 Y70.4 I0.0 J-3.4125
G1 Y66.5
G0 Z2.0
G0 X-299.5875
G1 F200.0 Z-0.4
G2 F450.0 X-303.0 Y63.0875 I-3.4125 J0.0
G1 X-307.0
G2 X-310.4125 Y66.5 I0.0 J3.4125
G1 Y70.4
G2 X-307.0 Y73.8125 I3.4125 J0.0
G1 X-303.0
G2 X-299.5875 Y70.4 I0.0 J-3.4125
G1 Y66.5
G1 F200.0 Z-0.8
G2 F450.0 X-303.0 Y63.0875 I-3.4125 J0.0
G1 X-307.0
G2 X-310.4125 Y66.5 I0.0 J3.4125
G1 Y70.4
G2 X-307.0 Y73.8125 I3.4125 J0.0
G1 X-303.0
G2 X-299.5875 Y70.4 I0.0 J-3.4125
G1 Y66.5
G1 F200.0 Z-1.2
G2 F450.0 X-303.0 Y63.0875 I-3.4125 J0.0
G1 X-307.0
G2 X-310.4125 Y66.5 I0.0 J3.4125
G1 Y70.4
G2 X-307.0 Y73.8125 I3.4125 J0.0
G1 X-303.0
G2 X-299.5875 Y70.4 I0.0 J-3.4125
G1 Y66.5
G1 F200.0 Z-1.6
G2 F450.0 X-303.0 Y63.0875 I-3.4125 J0.0
G1 X-307.0
G2 X-310.4125 Y66.5 I0.0 J3.4125
G1 Y70.4
G2 X-307.0 Y73.8125 I3.4125 J0.0
G1 X-303.0
G2 X-299.5875 Y70.4 I0.0 J-3.4125
G1 Y66.5
G1 F200.0 Z-2.0
G2 F450.0 X-303.0 Y63.0875 I-3.4125 J0.0
G1 X-307.0
G2 X-310.4125 Y66.5 I0.0 J3.4125
G1 Y70.4
G2 X-307.0 Y73.8125 I3.4125 J0.0
G1 X-303.0
G2 X-299.5875 Y70.4 I0.0 J-3.4125
G1 Y66.5
G1 F200.0 Z-2.4
G2 F450.0 X-303.0 Y63.0875 I-3.4125 J0.0
G1 X-307.0
G2 X-310.4125 Y66.5 I0.0 J3.4125
G1 Y70.4
G2 X-307.0 Y73.8125 I3.4125 J0.0
G1 X-303.0
G2 X-299.5875 Y70.4 I0.0 J-3.4125
G1 Y66.5
G0 Z2.0
M5
M30
