( Made using CamBam - http://www.cambam.co.uk )
( sheet2 3/19/2022 9:16:58 AM )
( T0 : 3.175 )
G21 G90 G40
G0 Z2.0
( T0 : 3.175 )
T0 M6
( 3_inside )
G17
M3 S1000
G0 X-25.4125 Y66.5
G1 F200.0 Z-0.4
G1 F450.0 Y70.4
G2 X-22.0 Y73.8125 I3.4125 J0.0
G1 X-18.0
G2 X-14.5875 Y70.4 I0.0 J-3.4125
G1 Y66.5
G2 X-18.0 Y63.0875 I-3.4125 J0.0
G1 X-22.0
G2 X-25.4125 Y66.5 I0.0 J3.4125
G1 F200.0 Z-0.8
G1 F450.0 Y70.4
G2 X-22.0 Y73.8125 I3.4125 J0.0
G1 X-18.0
G2 X-14.5875 Y70.4 I0.0 J-3.4125
G1 Y66.5
G2 X-18.0 Y63.0875 I-3.4125 J0.0
G1 X-22.0
G2 X-25.4125 Y66.5 I0.0 J3.4125
G1 F200.0 Z-1.2
G1 F450.0 Y70.4
G2 X-22.0 Y73.8125 I3.4125 J0.0
G1 X-18.0
G2 X-14.5875 Y70.4 I0.0 J-3.4125
G1 Y66.5
G2 X-18.0 Y63.0875 I-3.4125 J0.0
G1 X-22.0
G2 X-25.4125 Y66.5 I0.0 J3.4125
G1 F200.0 Z-1.6
G1 F450.0 Y70.4
G2 X-22.0 Y73.8125 I3.4125 J0.0
G1 X-18.0
G2 X-14.5875 Y70.4 I0.0 J-3.4125
G1 Y66.5
G2 X-18.0 Y63.0875 I-3.4125 J0.0
G1 X-22.0
G2 X-25.4125 Y66.5 I0.0 J3.4125
G1 F200.0 Z-2.0
G1 F450.0 Y70.4
G2 X-22.0 Y73.8125 I3.4125 J0.0
G1 X-18.0
G2 X-14.5875 Y70.4 I0.0 J-3.4125
G1 Y66.5
G2 X-18.0 Y63.0875 I-3.4125 J0.0
G1 X-22.0
G2 X-25.4125 Y66.5 I0.0 J3.4125
G1 F200.0 Z-2.4
G1 F450.0 Y70.4
G2 X-22.0 Y73.8125 I3.4125 J0.0
G1 X-18.0
G2 X-14.5875 Y70.4 I0.0 J-3.4125
G1 Y66.5
G2 X-18.0 Y63.0875 I-3.4125 J0.0
G1 X-22.0
G2 X-25.4125 Y66.5 I0.0 J3.4125
G0 Z2.0
G0 X-44.5875
G1 F200.0 Z-0.4
G2 F450.0 X-48.0 Y63.0875 I-3.4125 J0.0
G1 X-52.0
G2 X-55.4125 Y66.5 I0.0 J3.4125
G1 Y70.4
G2 X-52.0 Y73.8125 I3.4125 J0.0
G1 X-48.0
G2 X-44.5875 Y70.4 I0.0 J-3.4125
G1 Y66.5
G1 F200.0 Z-0.8
G2 F450.0 X-48.0 Y63.0875 I-3.4125 J0.0
G1 X-52.0
G2 X-55.4125 Y66.5 I0.0 J3.4125
G1 Y70.4
G2 X-52.0 Y73.8125 I3.4125 J0.0
G1 X-48.0
G2 X-44.5875 Y70.4 I0.0 J-3.4125
G1 Y66.5
G1 F200.0 Z-1.2
G2 F450.0 X-48.0 Y63.0875 I-3.4125 J0.0
G1 X-52.0
G2 X-55.4125 Y66.5 I0.0 J3.4125
G1 Y70.4
G2 X-52.0 Y73.8125 I3.4125 J0.0
G1 X-48.0
G2 X-44.5875 Y70.4 I0.0 J-3.4125
G1 Y66.5
G1 F200.0 Z-1.6
G2 F450.0 X-48.0 Y63.0875 I-3.4125 J0.0
G1 X-52.0
G2 X-55.4125 Y66.5 I0.0 J3.4125
G1 Y70.4
G2 X-52.0 Y73.8125 I3.4125 J0.0
G1 X-48.0
G2 X-44.5875 Y70.4 I0.0 J-3.4125
G1 Y66.5
G1 F200.0 Z-2.0
G2 F450.0 X-48.0 Y63.0875 I-3.4125 J0.0
G1 X-52.0
G2 X-55.4125 Y66.5 I0.0 J3.4125
G1 Y70.4
G2 X-52.0 Y73.8125 I3.4125 J0.0
G1 X-48.0
G2 X-44.5875 Y70.4 I0.0 J-3.4125
G1 Y66.5
G1 F200.0 Z-2.4
G2 F450.0 X-48.0 Y63.0875 I-3.4125 J0.0
G1 X-52.0
G2 X-55.4125 Y66.5 I0.0 J3.4125
G1 Y70.4
G2 X-52.0 Y73.8125 I3.4125 J0.0
G1 X-48.0
G2 X-44.5875 Y70.4 I0.0 J-3.4125
G1 Y66.5
G0 Z2.0
G0 X-74.5875
G1 F200.0 Z-0.4
G2 F450.0 X-78.0 Y63.0875 I-3.4125 J0.0
G1 X-82.0
G2 X-85.4125 Y66.5 I0.0 J3.4125
G1 Y70.4
G2 X-82.0 Y73.8125 I3.4125 J0.0
G1 X-78.0
G2 X-74.5875 Y70.4 I0.0 J-3.4125
G1 Y66.5
G1 F200.0 Z-0.8
G2 F450.0 X-78.0 Y63.0875 I-3.4125 J0.0
G1 X-82.0
G2 X-85.4125 Y66.5 I0.0 J3.4125
G1 Y70.4
G2 X-82.0 Y73.8125 I3.4125 J0.0
G1 X-78.0
G2 X-74.5875 Y70.4 I0.0 J-3.4125
G1 Y66.5
G1 F200.0 Z-1.2
G2 F450.0 X-78.0 Y63.0875 I-3.4125 J0.0
G1 X-82.0
G2 X-85.4125 Y66.5 I0.0 J3.4125
G1 Y70.4
G2 X-82.0 Y73.8125 I3.4125 J0.0
G1 X-78.0
G2 X-74.5875 Y70.4 I0.0 J-3.4125
G1 Y66.5
G1 F200.0 Z-1.6
G2 F450.0 X-78.0 Y63.0875 I-3.4125 J0.0
G1 X-82.0
G2 X-85.4125 Y66.5 I0.0 J3.4125
G1 Y70.4
G2 X-82.0 Y73.8125 I3.4125 J0.0
G1 X-78.0
G2 X-74.5875 Y70.4 I0.0 J-3.4125
G1 Y66.5
G1 F200.0 Z-2.0
G2 F450.0 X-78.0 Y63.0875 I-3.4125 J0.0
G1 X-82.0
G2 X-85.4125 Y66.5 I0.0 J3.4125
G1 Y70.4
G2 X-82.0 Y73.8125 I3.4125 J0.0
G1 X-78.0
G2 X-74.5875 Y70.4 I0.0 J-3.4125
G1 Y66.5
G1 F200.0 Z-2.4
G2 F450.0 X-78.0 Y63.0875 I-3.4125 J0.0
G1 X-82.0
G2 X-85.4125 Y66.5 I0.0 J3.4125
G1 Y70.4
G2 X-82.0 Y73.8125 I3.4125 J0.0
G1 X-78.0
G2 X-74.5875 Y70.4 I0.0 J-3.4125
G1 Y66.5
G0 Z2.0
G0 X-104.5875
G1 F200.0 Z-0.4
G2 F450.0 X-108.0 Y63.0875 I-3.4125 J0.0
G1 X-112.0
G2 X-115.4125 Y66.5 I0.0 J3.4125
G1 Y70.4
G2 X-112.0 Y73.8125 I3.4125 J0.0
G1 X-108.0
G2 X-104.5875 Y70.4 I0.0 J-3.4125
G1 Y66.5
G1 F200.0 Z-0.8
G2 F450.0 X-108.0 Y63.0875 I-3.4125 J0.0
G1 X-112.0
G2 X-115.4125 Y66.5 I0.0 J3.4125
G1 Y70.4
G2 X-112.0 Y73.8125 I3.4125 J0.0
G1 X-108.0
G2 X-104.5875 Y70.4 I0.0 J-3.4125
G1 Y66.5
G1 F200.0 Z-1.2
G2 F450.0 X-108.0 Y63.0875 I-3.4125 J0.0
G1 X-112.0
G2 X-115.4125 Y66.5 I0.0 J3.4125
G1 Y70.4
G2 X-112.0 Y73.8125 I3.4125 J0.0
G1 X-108.0
G2 X-104.5875 Y70.4 I0.0 J-3.4125
G1 Y66.5
G1 F200.0 Z-1.6
G2 F450.0 X-108.0 Y63.0875 I-3.4125 J0.0
G1 X-112.0
G2 X-115.4125 Y66.5 I0.0 J3.4125
G1 Y70.4
G2 X-112.0 Y73.8125 I3.4125 J0.0
G1 X-108.0
G2 X-104.5875 Y70.4 I0.0 J-3.4125
G1 Y66.5
G1 F200.0 Z-2.0
G2 F450.0 X-108.0 Y63.0875 I-3.4125 J0.0
G1 X-112.0
G2 X-115.4125 Y66.5 I0.0 J3.4125
G1 Y70.4
G2 X-112.0 Y73.8125 I3.4125 J0.0
G1 X-108.0
G2 X-104.5875 Y70.4 I0.0 J-3.4125
G1 Y66.5
G1 F200.0 Z-2.4
G2 F450.0 X-108.0 Y63.0875 I-3.4125 J0.0
G1 X-112.0
G2 X-115.4125 Y66.5 I0.0 J3.4125
G1 Y70.4
G2 X-112.0 Y73.8125 I3.4125 J0.0
G1 X-108.0
G2 X-104.5875 Y70.4 I0.0 J-3.4125
G1 Y66.5
G0 Z2.0
G0 X-134.5875
G1 F200.0 Z-0.4
G2 F450.0 X-138.0 Y63.0875 I-3.4125 J0.0
G1 X-142.0
G2 X-145.4125 Y66.5 I0.0 J3.4125
G1 Y70.4
G2 X-142.0 Y73.8125 I3.4125 J0.0
G1 X-138.0
G2 X-134.5875 Y70.4 I0.0 J-3.4125
G1 Y66.5
G1 F200.0 Z-0.8
G2 F450.0 X-138.0 Y63.0875 I-3.4125 J0.0
G1 X-142.0
G2 X-145.4125 Y66.5 I0.0 J3.4125
G1 Y70.4
G2 X-142.0 Y73.8125 I3.4125 J0.0
G1 X-138.0
G2 X-134.5875 Y70.4 I0.0 J-3.4125
G1 Y66.5
G1 F200.0 Z-1.2
G2 F450.0 X-138.0 Y63.0875 I-3.4125 J0.0
G1 X-142.0
G2 X-145.4125 Y66.5 I0.0 J3.4125
G1 Y70.4
G2 X-142.0 Y73.8125 I3.4125 J0.0
G1 X-138.0
G2 X-134.5875 Y70.4 I0.0 J-3.4125
G1 Y66.5
G1 F200.0 Z-1.6
G2 F450.0 X-138.0 Y63.0875 I-3.4125 J0.0
G1 X-142.0
G2 X-145.4125 Y66.5 I0.0 J3.4125
G1 Y70.4
G2 X-142.0 Y73.8125 I3.4125 J0.0
G1 X-138.0
G2 X-134.5875 Y70.4 I0.0 J-3.4125
G1 Y66.5
G1 F200.0 Z-2.0
G2 F450.0 X-138.0 Y63.0875 I-3.4125 J0.0
G1 X-142.0
G2 X-145.4125 Y66.5 I0.0 J3.4125
G1 Y70.4
G2 X-142.0 Y73.8125 I3.4125 J0.0
G1 X-138.0
G2 X-134.5875 Y70.4 I0.0 J-3.4125
G1 Y66.5
G1 F200.0 Z-2.4
G2 F450.0 X-138.0 Y63.0875 I-3.4125 J0.0
G1 X-142.0
G2 X-145.4125 Y66.5 I0.0 J3.4125
G1 Y70.4
G2 X-142.0 Y73.8125 I3.4125 J0.0
G1 X-138.0
G2 X-134.5875 Y70.4 I0.0 J-3.4125
G1 Y66.5
G0 Z2.0
G0 X-164.5875
G1 F200.0 Z-0.4
G2 F450.0 X-168.0 Y63.0875 I-3.4125 J0.0
G1 X-172.0
G2 X-175.4125 Y66.5 I0.0 J3.4125
G1 Y70.4
G2 X-172.0 Y73.8125 I3.4125 J0.0
G1 X-168.0
G2 X-164.5875 Y70.4 I0.0 J-3.4125
G1 Y66.5
G1 F200.0 Z-0.8
G2 F450.0 X-168.0 Y63.0875 I-3.4125 J0.0
G1 X-172.0
G2 X-175.4125 Y66.5 I0.0 J3.4125
G1 Y70.4
G2 X-172.0 Y73.8125 I3.4125 J0.0
G1 X-168.0
G2 X-164.5875 Y70.4 I0.0 J-3.4125
G1 Y66.5
G1 F200.0 Z-1.2
G2 F450.0 X-168.0 Y63.0875 I-3.4125 J0.0
G1 X-172.0
G2 X-175.4125 Y66.5 I0.0 J3.4125
G1 Y70.4
G2 X-172.0 Y73.8125 I3.4125 J0.0
G1 X-168.0
G2 X-164.5875 Y70.4 I0.0 J-3.4125
G1 Y66.5
G1 F200.0 Z-1.6
G2 F450.0 X-168.0 Y63.0875 I-3.4125 J0.0
G1 X-172.0
G2 X-175.4125 Y66.5 I0.0 J3.4125
G1 Y70.4
G2 X-172.0 Y73.8125 I3.4125 J0.0
G1 X-168.0
G2 X-164.5875 Y70.4 I0.0 J-3.4125
G1 Y66.5
G1 F200.0 Z-2.0
G2 F450.0 X-168.0 Y63.0875 I-3.4125 J0.0
G1 X-172.0
G2 X-175.4125 Y66.5 I0.0 J3.4125
G1 Y70.4
G2 X-172.0 Y73.8125 I3.4125 J0.0
G1 X-168.0
G2 X-164.5875 Y70.4 I0.0 J-3.4125
G1 Y66.5
G1 F200.0 Z-2.4
G2 F450.0 X-168.0 Y63.0875 I-3.4125 J0.0
G1 X-172.0
G2 X-175.4125 Y66.5 I0.0 J3.4125
G1 Y70.4
G2 X-172.0 Y73.8125 I3.4125 J0.0
G1 X-168.0
G2 X-164.5875 Y70.4 I0.0 J-3.4125
G1 Y66.5
G0 Z2.0
G0 X-207.5875
G1 F200.0 Z-0.4
G1 F450.0 Y53.4609
G2 X-208.0012 Y52.4621 I-1.4125 J0.0
G1 X-212.4621 Y48.0012
G2 X-213.4609 Y47.5875 I-0.9988 J0.9988
G1 X-235.5
G2 X-236.9125 Y49.0 I0.0 J1.4125
G1 Y51.0
G3 X-241.5 Y55.5875 I-4.5875 J0.0
G1 X-242.5
G3 X-247.0875 Y51.0 I0.0 J-4.5875
G1 Y49.0
G2 X-248.5 Y47.5875 I-1.4125 J0.0
G1 X-293.5
G2 X-294.9125 Y49.0 I0.0 J1.4125
G1 Y51.0
G3 X-299.5 Y55.5875 I-4.5875 J0.0
G1 X-300.5
G3 X-305.0875 Y51.0 I0.0 J-4.5875
G1 Y49.0
G2 X-306.5 Y47.5875 I-1.4125 J0.0
G1 X-308.5391
G2 X-309.5379 Y48.0012 I0.0 J1.4125
G1 X-313.9988 Y52.4621
G2 X-314.4125 Y53.4609 I0.9988 J0.9988
G1 Y96.5391
G2 X-313.9988 Y97.5379 I1.4125 J0.0
G1 X-309.5379 Y101.9988
G2 X-308.5391 Y102.4125 I0.9988 J-0.9988
G1 X-306.5
G2 X-305.0875 Y101.0 I0.0 J-1.4125
G1 Y99.0
G3 X-300.5 Y94.4125 I4.5875 J0.0
G1 X-299.5
G3 X-294.9125 Y99.0 I0.0 J4.5875
G1 Y101.0
G2 X-293.5 Y102.4125 I1.4125 J0.0
G1 X-248.5
G2 X-247.0875 Y101.0 I0.0 J-1.4125
G1 Y99.0
G3 X-242.5 Y94.4125 I4.5875 J0.0
G1 X-241.5
G3 X-236.9125 Y99.0 I0.0 J4.5875
G1 Y101.0
G2 X-235.5 Y102.4125 I1.4125 J0.0
G1 X-213.4609
G2 X-212.4621 Y101.9988 I0.0 J-1.4125
G1 X-208.0012 Y97.5379
G2 X-207.5875 Y96.5391 I-0.9988 J-0.9988
G1 Y66.5
G1 F200.0 Z-0.8
G1 F450.0 Y53.4609
G2 X-208.0012 Y52.4621 I-1.4125 J0.0
G1 X-212.4621 Y48.0012
G2 X-213.4609 Y47.5875 I-0.9988 J0.9988
G1 X-235.5
G2 X-236.9125 Y49.0 I0.0 J1.4125
G1 Y51.0
G3 X-241.5 Y55.5875 I-4.5875 J0.0
G1 X-242.5
G3 X-247.0875 Y51.0 I0.0 J-4.5875
G1 Y49.0
G2 X-248.5 Y47.5875 I-1.4125 J0.0
G1 X-293.5
G2 X-294.9125 Y49.0 I0.0 J1.4125
G1 Y51.0
G3 X-299.5 Y55.5875 I-4.5875 J0.0
G1 X-300.5
G3 X-305.0875 Y51.0 I0.0 J-4.5875
G1 Y49.0
G2 X-306.5 Y47.5875 I-1.4125 J0.0
G1 X-308.5391
G2 X-309.5379 Y48.0012 I0.0 J1.4125
G1 X-313.9988 Y52.4621
G2 X-314.4125 Y53.4609 I0.9988 J0.9988
G1 Y96.5391
G2 X-313.9988 Y97.5379 I1.4125 J0.0
G1 X-309.5379 Y101.9988
G2 X-308.5391 Y102.4125 I0.9988 J-0.9988
G1 X-306.5
G2 X-305.0875 Y101.0 I0.0 J-1.4125
G1 Y99.0
G3 X-300.5 Y94.4125 I4.5875 J0.0
G1 X-299.5
G3 X-294.9125 Y99.0 I0.0 J4.5875
G1 Y101.0
G2 X-293.5 Y102.4125 I1.4125 J0.0
G1 X-248.5
G2 X-247.0875 Y101.0 I0.0 J-1.4125
G1 Y99.0
G3 X-242.5 Y94.4125 I4.5875 J0.0
G1 X-241.5
G3 X-236.9125 Y99.0 I0.0 J4.5875
G1 Y101.0
G2 X-235.5 Y102.4125 I1.4125 J0.0
G1 X-213.4609
G2 X-212.4621 Y101.9988 I0.0 J-1.4125
G1 X-208.0012 Y97.5379
G2 X-207.5875 Y96.5391 I-0.9988 J-0.9988
G1 Y66.5
G1 F200.0 Z-1.2
G1 F450.0 Y53.4609
G2 X-208.0012 Y52.4621 I-1.4125 J0.0
G1 X-212.4621 Y48.0012
G2 X-213.4609 Y47.5875 I-0.9988 J0.9988
G1 X-235.5
G2 X-236.9125 Y49.0 I0.0 J1.4125
G1 Y51.0
G3 X-241.5 Y55.5875 I-4.5875 J0.0
G1 X-242.5
G3 X-247.0875 Y51.0 I0.0 J-4.5875
G1 Y49.0
G2 X-248.5 Y47.5875 I-1.4125 J0.0
G1 X-293.5
G2 X-294.9125 Y49.0 I0.0 J1.4125
G1 Y51.0
G3 X-299.5 Y55.5875 I-4.5875 J0.0
G1 X-300.5
G3 X-305.0875 Y51.0 I0.0 J-4.5875
G1 Y49.0
G2 X-306.5 Y47.5875 I-1.4125 J0.0
G1 X-308.5391
G2 X-309.5379 Y48.0012 I0.0 J1.4125
G1 X-313.9988 Y52.4621
G2 X-314.4125 Y53.4609 I0.9988 J0.9988
G1 Y96.5391
G2 X-313.9988 Y97.5379 I1.4125 J0.0
G1 X-309.5379 Y101.9988
G2 X-308.5391 Y102.4125 I0.9988 J-0.9988
G1 X-306.5
G2 X-305.0875 Y101.0 I0.0 J-1.4125
G1 Y99.0
G3 X-300.5 Y94.4125 I4.5875 J0.0
G1 X-299.5
G3 X-294.9125 Y99.0 I0.0 J4.5875
G1 Y101.0
G2 X-293.5 Y102.4125 I1.4125 J0.0
G1 X-248.5
G2 X-247.0875 Y101.0 I0.0 J-1.4125
G1 Y99.0
G3 X-242.5 Y94.4125 I4.5875 J0.0
G1 X-241.5
G3 X-236.9125 Y99.0 I0.0 J4.5875
G1 Y101.0
G2 X-235.5 Y102.4125 I1.4125 J0.0
G1 X-213.4609
G2 X-212.4621 Y101.9988 I0.0 J-1.4125
G1 X-208.0012 Y97.5379
G2 X-207.5875 Y96.5391 I-0.9988 J-0.9988
G1 Y66.5
G1 F200.0 Z-1.6
G1 F450.0 Y53.4609
G2 X-208.0012 Y52.4621 I-1.4125 J0.0
G1 X-212.4621 Y48.0012
G2 X-213.4609 Y47.5875 I-0.9988 J0.9988
G1 X-235.5
G2 X-236.9125 Y49.0 I0.0 J1.4125
G1 Y51.0
G3 X-241.5 Y55.5875 I-4.5875 J0.0
G1 X-242.5
G3 X-247.0875 Y51.0 I0.0 J-4.5875
G1 Y49.0
G2 X-248.5 Y47.5875 I-1.4125 J0.0
G1 X-293.5
G2 X-294.9125 Y49.0 I0.0 J1.4125
G1 Y51.0
G3 X-299.5 Y55.5875 I-4.5875 J0.0
G1 X-300.5
G3 X-305.0875 Y51.0 I0.0 J-4.5875
G1 Y49.0
G2 X-306.5 Y47.5875 I-1.4125 J0.0
G1 X-308.5391
G2 X-309.5379 Y48.0012 I0.0 J1.4125
G1 X-313.9988 Y52.4621
G2 X-314.4125 Y53.4609 I0.9988 J0.9988
G1 Y96.5391
G2 X-313.9988 Y97.5379 I1.4125 J0.0
G1 X-309.5379 Y101.9988
G2 X-308.5391 Y102.4125 I0.9988 J-0.9988
G1 X-306.5
G2 X-305.0875 Y101.0 I0.0 J-1.4125
G1 Y99.0
G3 X-300.5 Y94.4125 I4.5875 J0.0
G1 X-299.5
G3 X-294.9125 Y99.0 I0.0 J4.5875
G1 Y101.0
G2 X-293.5 Y102.4125 I1.4125 J0.0
G1 X-248.5
G2 X-247.0875 Y101.0 I0.0 J-1.4125
G1 Y99.0
G3 X-242.5 Y94.4125 I4.5875 J0.0
G1 X-241.5
G3 X-236.9125 Y99.0 I0.0 J4.5875
G1 Y101.0
G2 X-235.5 Y102.4125 I1.4125 J0.0
G1 X-213.4609
G2 X-212.4621 Y101.9988 I0.0 J-1.4125
G1 X-208.0012 Y97.5379
G2 X-207.5875 Y96.5391 I-0.9988 J-0.9988
G1 Y66.5
G1 F200.0 Z-2.0
G1 F450.0 Y53.4609
G2 X-208.0012 Y52.4621 I-1.4125 J0.0
G1 X-212.4621 Y48.0012
G2 X-213.4609 Y47.5875 I-0.9988 J0.9988
G1 X-235.5
G2 X-236.9125 Y49.0 I0.0 J1.4125
G1 Y51.0
G3 X-241.5 Y55.5875 I-4.5875 J0.0
G1 X-242.5
G3 X-247.0875 Y51.0 I0.0 J-4.5875
G1 Y49.0
G2 X-248.5 Y47.5875 I-1.4125 J0.0
G1 X-293.5
G2 X-294.9125 Y49.0 I0.0 J1.4125
G1 Y51.0
G3 X-299.5 Y55.5875 I-4.5875 J0.0
G1 X-300.5
G3 X-305.0875 Y51.0 I0.0 J-4.5875
G1 Y49.0
G2 X-306.5 Y47.5875 I-1.4125 J0.0
G1 X-308.5391
G2 X-309.5379 Y48.0012 I0.0 J1.4125
G1 X-313.9988 Y52.4621
G2 X-314.4125 Y53.4609 I0.9988 J0.9988
G1 Y96.5391
G2 X-313.9988 Y97.5379 I1.4125 J0.0
G1 X-309.5379 Y101.9988
G2 X-308.5391 Y102.4125 I0.9988 J-0.9988
G1 X-306.5
G2 X-305.0875 Y101.0 I0.0 J-1.4125
G1 Y99.0
G3 X-300.5 Y94.4125 I4.5875 J0.0
G1 X-299.5
G3 X-294.9125 Y99.0 I0.0 J4.5875
G1 Y101.0
G2 X-293.5 Y102.4125 I1.4125 J0.0
G1 X-248.5
G2 X-247.0875 Y101.0 I0.0 J-1.4125
G1 Y99.0
G3 X-242.5 Y94.4125 I4.5875 J0.0
G1 X-241.5
G3 X-236.9125 Y99.0 I0.0 J4.5875
G1 Y101.0
G2 X-235.5 Y102.4125 I1.4125 J0.0
G1 X-213.4609
G2 X-212.4621 Y101.9988 I0.0 J-1.4125
G1 X-208.0012 Y97.5379
G2 X-207.5875 Y96.5391 I-0.9988 J-0.9988
G1 Y66.5
G1 F200.0 Z-2.4
G1 F450.0 Y53.4609
G2 X-208.0012 Y52.4621 I-1.4125 J0.0
G1 X-212.4621 Y48.0012
G2 X-213.4609 Y47.5875 I-0.9988 J0.9988
G1 X-235.5
G2 X-236.9125 Y49.0 I0.0 J1.4125
G1 Y51.0
G3 X-241.5 Y55.5875 I-4.5875 J0.0
G1 X-242.5
G3 X-247.0875 Y51.0 I0.0 J-4.5875
G1 Y49.0
G2 X-248.5 Y47.5875 I-1.4125 J0.0
G1 X-293.5
G2 X-294.9125 Y49.0 I0.0 J1.4125
G1 Y51.0
G3 X-299.5 Y55.5875 I-4.5875 J0.0
G1 X-300.5
G3 X-305.0875 Y51.0 I0.0 J-4.5875
G1 Y49.0
G2 X-306.5 Y47.5875 I-1.4125 J0.0
G1 X-308.5391
G2 X-309.5379 Y48.0012 I0.0 J1.4125
G1 X-313.9988 Y52.4621
G2 X-314.4125 Y53.4609 I0.9988 J0.9988
G1 Y96.5391
G2 X-313.9988 Y97.5379 I1.4125 J0.0
G1 X-309.5379 Y101.9988
G2 X-308.5391 Y102.4125 I0.9988 J-0.9988
G1 X-306.5
G2 X-305.0875 Y101.0 I0.0 J-1.4125
G1 Y99.0
G3 X-300.5 Y94.4125 I4.5875 J0.0
G1 X-299.5
G3 X-294.9125 Y99.0 I0.0 J4.5875
G1 Y101.0
G2 X-293.5 Y102.4125 I1.4125 J0.0
G1 X-248.5
G2 X-247.0875 Y101.0 I0.0 J-1.4125
G1 Y99.0
G3 X-242.5 Y94.4125 I4.5875 J0.0
G1 X-241.5
G3 X-236.9125 Y99.0 I0.0 J4.5875
G1 Y101.0
G2 X-235.5 Y102.4125 I1.4125 J0.0
G1 X-213.4609
G2 X-212.4621 Y101.9988 I0.0 J-1.4125
G1 X-208.0012 Y97.5379
G2 X-207.5875 Y96.5391 I-0.9988 J-0.9988
G1 Y66.5
G0 Z2.0
M5
M30
