( Made using CamBam - http://www.cambam.co.uk )
( sheet1 3/19/2022 7:39:17 AM )
( T0 : 1.6 )
G21 G90 G40
G0 Z2.0
( T0 : 1.6 )
T0 M6
( 1_slit )
G17
M3 S1000
G0 X-35.0 Y118.0
G1 F200.0 Z-0.4
G1 F450.0 Y133.0
G1 F200.0 Z-0.8
G1 F450.0 Y118.0
G1 F200.0 Z-1.2
G1 F450.0 Y133.0
G1 F200.0 Z-1.6
G1 F450.0 Y118.0
G1 F200.0 Z-2.0
G1 F450.0 Y133.0
G1 F200.0 Z-2.4
G1 F450.0 Y118.0
G0 Z2.0
G0 X-65.0
G1 F200.0 Z-0.4
G1 F450.0 Y133.0
G1 F200.0 Z-0.8
G1 F450.0 Y118.0
G1 F200.0 Z-1.2
G1 F450.0 Y133.0
G1 F200.0 Z-1.6
G1 F450.0 Y118.0
G1 F200.0 Z-2.0
G1 F450.0 Y133.0
G1 F200.0 Z-2.4
G1 F450.0 Y118.0
G0 Z2.0
G0 X-95.0
G1 F200.0 Z-0.4
G1 F450.0 Y133.0
G1 F200.0 Z-0.8
G1 F450.0 Y118.0
G1 F200.0 Z-1.2
G1 F450.0 Y133.0
G1 F200.0 Z-1.6
G1 F450.0 Y118.0
G1 F200.0 Z-2.0
G1 F450.0 Y133.0
G1 F200.0 Z-2.4
G1 F450.0 Y118.0
G0 Z2.0
G0 X-125.0
G1 F200.0 Z-0.4
G1 F450.0 Y133.0
G1 F200.0 Z-0.8
G1 F450.0 Y118.0
G1 F200.0 Z-1.2
G1 F450.0 Y133.0
G1 F200.0 Z-1.6
G1 F450.0 Y118.0
G1 F200.0 Z-2.0
G1 F450.0 Y133.0
G1 F200.0 Z-2.4
G1 F450.0 Y118.0
G0 Z2.0
G0 X-155.0
G1 F200.0 Z-0.4
G1 F450.0 Y133.0
G1 F200.0 Z-0.8
G1 F450.0 Y118.0
G1 F200.0 Z-1.2
G1 F450.0 Y133.0
G1 F200.0 Z-1.6
G1 F450.0 Y118.0
G1 F200.0 Z-2.0
G1 F450.0 Y133.0
G1 F200.0 Z-2.4
G1 F450.0 Y118.0
G0 Z2.0
G0 X-185.0
G1 F200.0 Z-0.4
G1 F450.0 Y133.0
G1 F200.0 Z-0.8
G1 F450.0 Y118.0
G1 F200.0 Z-1.2
G1 F450.0 Y133.0
G1 F200.0 Z-1.6
G1 F450.0 Y118.0
G1 F200.0 Z-2.0
G1 F450.0 Y133.0
G1 F200.0 Z-2.4
G1 F450.0 Y118.0
G0 Z2.0
G0 X-215.0
G1 F200.0 Z-0.4
G1 F450.0 Y133.0
G1 F200.0 Z-0.8
G1 F450.0 Y118.0
G1 F200.0 Z-1.2
G1 F450.0 Y133.0
G1 F200.0 Z-1.6
G1 F450.0 Y118.0
G1 F200.0 Z-2.0
G1 F450.0 Y133.0
G1 F200.0 Z-2.4
G1 F450.0 Y118.0
G0 Z2.0
G0 X-245.0
G1 F200.0 Z-0.4
G1 F450.0 Y133.0
G1 F200.0 Z-0.8
G1 F450.0 Y118.0
G1 F200.0 Z-1.2
G1 F450.0 Y133.0
G1 F200.0 Z-1.6
G1 F450.0 Y118.0
G1 F200.0 Z-2.0
G1 F450.0 Y133.0
G1 F200.0 Z-2.4
G1 F450.0 Y118.0
G0 Z2.0
G0 X-275.0
G1 F200.0 Z-0.4
G1 F450.0 Y133.0
G1 F200.0 Z-0.8
G1 F450.0 Y118.0
G1 F200.0 Z-1.2
G1 F450.0 Y133.0
G1 F200.0 Z-1.6
G1 F450.0 Y118.0
G1 F200.0 Z-2.0
G1 F450.0 Y133.0
G1 F200.0 Z-2.4
G1 F450.0 Y118.0
G0 Z2.0
G0 X-305.0
G1 F200.0 Z-0.4
G1 F450.0 Y133.0
G1 F200.0 Z-0.8
G1 F450.0 Y118.0
G1 F200.0 Z-1.2
G1 F450.0 Y133.0
G1 F200.0 Z-1.6
G1 F450.0 Y118.0
G1 F200.0 Z-2.0
G1 F450.0 Y133.0
G1 F200.0 Z-2.4
G1 F450.0 Y118.0
G0 Z2.0
M5
M30
