( Made using CamBam - http://www.cambam.co.uk )
( sheet3 3/19/2022 10:45:08 AM )
( T0 : 3.175 )
G21 G90 G40
G0 Z2.0
( T0 : 3.175 )
T0 M6
( 4_free )
G17
M3 S1000
G0 X-149.6859 Y128.6252
G1 F200.0 Z-0.4
G1 F450.0 X-155.8559 Y122.4552
G3 X-156.7638 Y121.1628 I3.2439 J-3.2439
G1 X-167.1517 Y99.0634
G3 X-167.5875 Y97.1118 I4.1517 J-1.9515
G1 Y78.0875
G1 Y75.0 Z0.4
G1 Y71.9125 Z-0.4
G1 Y52.8882
G3 X-167.1517 Y50.9366 I4.5875 J0.0
G1 X-156.5408 Y28.3627
G3 X-155.5631 Y27.5184 I1.4367 J0.6753
G3 X-155.1659 Y26.8549 I1.5197 J0.459
G1 X-143.1451 Y14.8341
G3 X-142.4816 Y14.4369 I1.1225 J1.1225
G3 X-141.6373 Y13.4592 I1.5197 J0.459
G1 X-119.0634 Y2.8483
G3 X-117.1118 Y2.4125 I1.9515 J4.1517
G1 X-98.0875
G1 X-95.0 Z0.4
G1 X-91.9125 Z-0.4
G1 X-72.8882
G3 X-70.9366 Y2.8483 I0.0 J4.5875
G1 X-48.8372 Y13.2362
G3 X-47.5448 Y14.1441 I-1.9515 J4.1517
G1 X-41.3748 Y20.3141
G3 Y22.5592 I-1.1225 J1.1225
G1 X-42.2246 Y23.409
G1 X-44.4078 Y25.5922 Z0.4
G1 X-46.591 Y27.7754 Z-0.4
G1 X-55.5169 Y36.7013
G3 X-57.762 I-1.1225 J-1.1225
G1 X-72.4621 Y22.0012
G2 X-73.4609 Y21.5875 I-0.9988 J0.9988
G1 X-116.5391
G2 X-117.5379 Y22.0012 I0.0 J1.4125
G1 X-131.0851 Y35.5485
G1 X-133.2683 Y37.7317 Z0.4
G1 X-135.4515 Y39.9149 Z-0.4
G1 X-147.9988 Y52.4621
G2 X-148.4125 Y53.4609 I0.9988 J0.9988
G1 Y96.5391
G2 X-147.9988 Y97.5379 I1.4125 J0.0
G1 X-133.2987 Y112.238
G3 Y114.4831 I-1.1225 J1.1225
G1 X-138.7246 Y119.909
G1 X-140.9078 Y122.0922 Z0.4
G1 X-143.091 Y124.2754 Z-0.4
G1 X-147.4408 Y128.6252
G3 X-149.6859 I-1.1225 J-1.1225
G1 F200.0 Z-0.8
G1 F450.0 X-155.8559 Y122.4552
G3 X-156.7638 Y121.1628 I3.2439 J-3.2439
G1 X-167.1517 Y99.0634
G3 X-167.5875 Y97.1118 I4.1517 J-1.9515
G1 Y78.0875
G1 Y75.0 Z0.4
G1 Y71.9125 Z-0.8
G1 Y52.8882
G3 X-167.1517 Y50.9366 I4.5875 J0.0
G1 X-156.5408 Y28.3627
G3 X-155.5631 Y27.5184 I1.4367 J0.6753
G3 X-155.1659 Y26.8549 I1.5197 J0.459
G1 X-143.1451 Y14.8341
G3 X-142.4816 Y14.4369 I1.1225 J1.1225
G3 X-141.6373 Y13.4592 I1.5197 J0.459
G1 X-119.0634 Y2.8483
G3 X-117.1118 Y2.4125 I1.9515 J4.1517
G1 X-98.0875
G1 X-95.0 Z0.4
G1 X-91.9125 Z-0.8
G1 X-72.8882
G3 X-70.9366 Y2.8483 I0.0 J4.5875
G1 X-48.8372 Y13.2362
G3 X-47.5448 Y14.1441 I-1.9515 J4.1517
G1 X-41.3748 Y20.3141
G3 Y22.5592 I-1.1225 J1.1225
G1 X-42.2246 Y23.409
G1 X-44.4078 Y25.5922 Z0.4
G1 X-46.591 Y27.7754 Z-0.8
G1 X-55.5169 Y36.7013
G3 X-57.762 I-1.1225 J-1.1225
G1 X-72.4621 Y22.0012
G2 X-73.4609 Y21.5875 I-0.9988 J0.9988
G1 X-116.5391
G2 X-117.5379 Y22.0012 I0.0 J1.4125
G1 X-131.0851 Y35.5485
G1 X-133.2683 Y37.7317 Z0.4
G1 X-135.4515 Y39.9149 Z-0.8
G1 X-147.9988 Y52.4621
G2 X-148.4125 Y53.4609 I0.9988 J0.9988
G1 Y96.5391
G2 X-147.9988 Y97.5379 I1.4125 J0.0
G1 X-133.2987 Y112.238
G3 Y114.4831 I-1.1225 J1.1225
G1 X-138.7246 Y119.909
G1 X-140.9078 Y122.0922 Z0.4
G1 X-143.091 Y124.2754 Z-0.8
G1 X-147.4408 Y128.6252
G3 X-149.6859 I-1.1225 J-1.1225
G1 F200.0 Z-1.2
G1 F450.0 X-155.8559 Y122.4552
G3 X-156.7638 Y121.1628 I3.2439 J-3.2439
G1 X-167.1517 Y99.0634
G3 X-167.5875 Y97.1118 I4.1517 J-1.9515
G1 Y78.0875
G1 Y75.0 Z0.4
G1 Y71.9125 Z-1.2
G1 Y52.8882
G3 X-167.1517 Y50.9366 I4.5875 J0.0
G1 X-156.5408 Y28.3627
G3 X-155.5631 Y27.5184 I1.4367 J0.6753
G3 X-155.1659 Y26.8549 I1.5197 J0.459
G1 X-143.1451 Y14.8341
G3 X-142.4816 Y14.4369 I1.1225 J1.1225
G3 X-141.6373 Y13.4592 I1.5197 J0.459
G1 X-119.0634 Y2.8483
G3 X-117.1118 Y2.4125 I1.9515 J4.1517
G1 X-98.0875
G1 X-95.0 Z0.4
G1 X-91.9125 Z-1.2
G1 X-72.8882
G3 X-70.9366 Y2.8483 I0.0 J4.5875
G1 X-48.8372 Y13.2362
G3 X-47.5448 Y14.1441 I-1.9515 J4.1517
G1 X-41.3748 Y20.3141
G3 Y22.5592 I-1.1225 J1.1225
G1 X-42.2246 Y23.409
G1 X-44.4078 Y25.5922 Z0.4
G1 X-46.591 Y27.7754 Z-1.2
G1 X-55.5169 Y36.7013
G3 X-57.762 I-1.1225 J-1.1225
G1 X-72.4621 Y22.0012
G2 X-73.4609 Y21.5875 I-0.9988 J0.9988
G1 X-116.5391
G2 X-117.5379 Y22.0012 I0.0 J1.4125
G1 X-131.0851 Y35.5485
G1 X-133.2683 Y37.7317 Z0.4
G1 X-135.4515 Y39.9149 Z-1.2
G1 X-147.9988 Y52.4621
G2 X-148.4125 Y53.4609 I0.9988 J0.9988
G1 Y96.5391
G2 X-147.9988 Y97.5379 I1.4125 J0.0
G1 X-133.2987 Y112.238
G3 Y114.4831 I-1.1225 J1.1225
G1 X-138.7246 Y119.909
G1 X-140.9078 Y122.0922 Z0.4
G1 X-143.091 Y124.2754 Z-1.2
G1 X-147.4408 Y128.6252
G3 X-149.6859 I-1.1225 J-1.1225
G1 F200.0 Z-1.6
G1 F450.0 X-155.8559 Y122.4552
G3 X-156.7638 Y121.1628 I3.2439 J-3.2439
G1 X-167.1517 Y99.0634
G3 X-167.5875 Y97.1118 I4.1517 J-1.9515
G1 Y78.0875
G1 Y75.0 Z0.4
G1 Y71.9125 Z-1.6
G1 Y52.8882
G3 X-167.1517 Y50.9366 I4.5875 J0.0
G1 X-156.5408 Y28.3627
G3 X-155.5631 Y27.5184 I1.4367 J0.6753
G3 X-155.1659 Y26.8549 I1.5197 J0.459
G1 X-143.1451 Y14.8341
G3 X-142.4816 Y14.4369 I1.1225 J1.1225
G3 X-141.6373 Y13.4592 I1.5197 J0.459
G1 X-119.0634 Y2.8483
G3 X-117.1118 Y2.4125 I1.9515 J4.1517
G1 X-98.0875
G1 X-95.0 Z0.4
G1 X-91.9125 Z-1.6
G1 X-72.8882
G3 X-70.9366 Y2.8483 I0.0 J4.5875
G1 X-48.8372 Y13.2362
G3 X-47.5448 Y14.1441 I-1.9515 J4.1517
G1 X-41.3748 Y20.3141
G3 Y22.5592 I-1.1225 J1.1225
G1 X-42.2246 Y23.409
G1 X-44.4078 Y25.5922 Z0.4
G1 X-46.591 Y27.7754 Z-1.6
G1 X-55.5169 Y36.7013
G3 X-57.762 I-1.1225 J-1.1225
G1 X-72.4621 Y22.0012
G2 X-73.4609 Y21.5875 I-0.9988 J0.9988
G1 X-116.5391
G2 X-117.5379 Y22.0012 I0.0 J1.4125
G1 X-131.0851 Y35.5485
G1 X-133.2683 Y37.7317 Z0.4
G1 X-135.4515 Y39.9149 Z-1.6
G1 X-147.9988 Y52.4621
G2 X-148.4125 Y53.4609 I0.9988 J0.9988
G1 Y96.5391
G2 X-147.9988 Y97.5379 I1.4125 J0.0
G1 X-133.2987 Y112.238
G3 Y114.4831 I-1.1225 J1.1225
G1 X-138.7246 Y119.909
G1 X-140.9078 Y122.0922 Z0.4
G1 X-143.091 Y124.2754 Z-1.6
G1 X-147.4408 Y128.6252
G3 X-149.6859 I-1.1225 J-1.1225
G1 F200.0 Z-2.0
G1 F450.0 X-155.8559 Y122.4552
G3 X-156.7638 Y121.1628 I3.2439 J-3.2439
G1 X-167.1517 Y99.0634
G3 X-167.5875 Y97.1118 I4.1517 J-1.9515
G1 Y78.0875
G1 Y75.0 Z0.4
G1 Y71.9125 Z-2.0
G1 Y52.8882
G3 X-167.1517 Y50.9366 I4.5875 J0.0
G1 X-156.5408 Y28.3627
G3 X-155.5631 Y27.5184 I1.4367 J0.6753
G3 X-155.1659 Y26.8549 I1.5197 J0.459
G1 X-143.1451 Y14.8341
G3 X-142.4816 Y14.4369 I1.1225 J1.1225
G3 X-141.6373 Y13.4592 I1.5197 J0.459
G1 X-119.0634 Y2.8483
G3 X-117.1118 Y2.4125 I1.9515 J4.1517
G1 X-98.0875
G1 X-95.0 Z0.4
G1 X-91.9125 Z-2.0
G1 X-72.8882
G3 X-70.9366 Y2.8483 I0.0 J4.5875
G1 X-48.8372 Y13.2362
G3 X-47.5448 Y14.1441 I-1.9515 J4.1517
G1 X-41.3748 Y20.3141
G3 Y22.5592 I-1.1225 J1.1225
G1 X-42.2246 Y23.409
G1 X-44.4078 Y25.5922 Z0.4
G1 X-46.591 Y27.7754 Z-2.0
G1 X-55.5169 Y36.7013
G3 X-57.762 I-1.1225 J-1.1225
G1 X-72.4621 Y22.0012
G2 X-73.4609 Y21.5875 I-0.9988 J0.9988
G1 X-116.5391
G2 X-117.5379 Y22.0012 I0.0 J1.4125
G1 X-131.0851 Y35.5485
G1 X-133.2683 Y37.7317 Z0.4
G1 X-135.4515 Y39.9149 Z-2.0
G1 X-147.9988 Y52.4621
G2 X-148.4125 Y53.4609 I0.9988 J0.9988
G1 Y96.5391
G2 X-147.9988 Y97.5379 I1.4125 J0.0
G1 X-133.2987 Y112.238
G3 Y114.4831 I-1.1225 J1.1225
G1 X-138.7246 Y119.909
G1 X-140.9078 Y122.0922 Z0.4
G1 X-143.091 Y124.2754 Z-2.0
G1 X-147.4408 Y128.6252
G3 X-149.6859 I-1.1225 J-1.1225
G1 F200.0 Z-2.4
G1 F450.0 X-155.8559 Y122.4552
G3 X-156.7638 Y121.1628 I3.2439 J-3.2439
G1 X-167.1517 Y99.0634
G3 X-167.5875 Y97.1118 I4.1517 J-1.9515
G1 Y78.0875
G1 Y75.0 Z0.4
G1 Y71.9125 Z-2.4
G1 Y52.8882
G3 X-167.1517 Y50.9366 I4.5875 J0.0
G1 X-156.5408 Y28.3627
G3 X-155.5631 Y27.5184 I1.4367 J0.6753
G3 X-155.1659 Y26.8549 I1.5197 J0.459
G1 X-143.1451 Y14.8341
G3 X-142.4816 Y14.4369 I1.1225 J1.1225
G3 X-141.6373 Y13.4592 I1.5197 J0.459
G1 X-119.0634 Y2.8483
G3 X-117.1118 Y2.4125 I1.9515 J4.1517
G1 X-98.0875
G1 X-95.0 Z0.4
G1 X-91.9125 Z-2.4
G1 X-72.8882
G3 X-70.9366 Y2.8483 I0.0 J4.5875
G1 X-48.8372 Y13.2362
G3 X-47.5448 Y14.1441 I-1.9515 J4.1517
G1 X-41.3748 Y20.3141
G3 Y22.5592 I-1.1225 J1.1225
G1 X-42.2246 Y23.409
G1 X-44.4078 Y25.5922 Z0.4
G1 X-46.591 Y27.7754 Z-2.4
G1 X-55.5169 Y36.7013
G3 X-57.762 I-1.1225 J-1.1225
G1 X-72.4621 Y22.0012
G2 X-73.4609 Y21.5875 I-0.9988 J0.9988
G1 X-116.5391
G2 X-117.5379 Y22.0012 I0.0 J1.4125
G1 X-131.0851 Y35.5485
G1 X-133.2683 Y37.7317 Z0.4
G1 X-135.4515 Y39.9149 Z-2.4
G1 X-147.9988 Y52.4621
G2 X-148.4125 Y53.4609 I0.9988 J0.9988
G1 Y96.5391
G2 X-147.9988 Y97.5379 I1.4125 J0.0
G1 X-133.2987 Y112.238
G3 Y114.4831 I-1.1225 J1.1225
G1 X-138.7246 Y119.909
G1 X-140.9078 Y122.0922 Z0.4
G1 X-143.091 Y124.2754 Z-2.4
G1 X-147.4408 Y128.6252
G3 X-149.6859 I-1.1225 J-1.1225
G0 Z2.0
G0 X-141.0901 Y128.573
G1 F200.0 Z-0.4
G3 F450.0 X-140.6252 Y127.4408 I1.5875 J-0.0096
G1 X-140.2754 Y127.091
G1 X-138.0922 Y124.9078 Z0.4
G1 X-135.909 Y122.7246 Z-0.4
G1 X-126.4831 Y113.2987
G3 X-124.238 I1.1225 J1.1225
G1 X-109.5379 Y127.9988
G2 X-108.5391 Y128.4125 I0.9988 J-0.9988
G1 X-65.4609
G2 X-64.4621 Y127.9988 I0.0 J-1.4125
G1 X-51.4149 Y114.9515
G1 X-49.2317 Y112.7683 Z0.4
G1 X-47.0485 Y110.5851 Z-0.4
G1 X-34.0012 Y97.5379
G2 X-33.5875 Y96.5391 I-0.9988 J-0.9988
G1 Y53.4609
G2 X-34.0012 Y52.4621 I-1.4125 J0.0
G1 X-48.7013 Y37.762
G3 Y35.5169 I1.1225 J-1.1225
G1 X-43.7754 Y30.591
G1 X-41.5922 Y28.4078 Z0.4
G1 X-39.409 Y26.2246 Z-0.4
G1 X-34.5592 Y21.3748
G3 X-32.3141 I1.1225 J1.1225
G1 X-26.1441 Y27.5448
G3 X-25.2362 Y28.8372 I-3.2439 J3.2439
G1 X-14.8483 Y50.9366
G3 X-14.4125 Y52.8882 I-4.1517 J1.9515
G1 Y71.9125
G1 Y75.0 Z0.4
G1 Y78.0875 Z-0.4
G1 Y97.1118
G3 X-14.8483 Y99.0634 I-4.5875 J0.0
G1 X-25.4592 Y121.6373
G3 X-26.4369 Y122.4816 I-1.4367 J-0.6753
G3 X-26.8341 Y123.1451 I-1.5197 J-0.459
G1 X-38.8549 Y135.1659
G3 X-39.5184 Y135.5631 I-1.1225 J-1.1225
G3 X-40.3627 Y136.5408 I-1.5197 J-0.459
G1 X-62.9366 Y147.1517
G3 X-64.8882 Y147.5875 I-1.9515 J-4.1517
G1 X-83.9125
G1 X-87.0 Z0.4
G1 X-90.0875 Z-0.4
G1 X-109.1118
G3 X-111.0634 Y147.1517 I0.0 J-4.5875
G1 X-133.1628 Y136.7638
G3 X-134.4552 Y135.8559 I1.9515 J-4.1517
G1 X-140.6252 Y129.6859
G3 X-141.0901 Y128.573 I1.1225 J-1.1225
G1 F200.0 Z-0.8
G3 F450.0 X-140.6252 Y127.4408 I1.5875 J-0.0096
G1 X-140.2754 Y127.091
G1 X-138.0922 Y124.9078 Z0.4
G1 X-135.909 Y122.7246 Z-0.8
G1 X-126.4831 Y113.2987
G3 X-124.238 I1.1225 J1.1225
G1 X-109.5379 Y127.9988
G2 X-108.5391 Y128.4125 I0.9988 J-0.9988
G1 X-65.4609
G2 X-64.4621 Y127.9988 I0.0 J-1.4125
G1 X-51.4149 Y114.9515
G1 X-49.2317 Y112.7683 Z0.4
G1 X-47.0485 Y110.5851 Z-0.8
G1 X-34.0012 Y97.5379
G2 X-33.5875 Y96.5391 I-0.9988 J-0.9988
G1 Y53.4609
G2 X-34.0012 Y52.4621 I-1.4125 J0.0
G1 X-48.7013 Y37.762
G3 Y35.5169 I1.1225 J-1.1225
G1 X-43.7754 Y30.591
G1 X-41.5922 Y28.4078 Z0.4
G1 X-39.409 Y26.2246 Z-0.8
G1 X-34.5592 Y21.3748
G3 X-32.3141 I1.1225 J1.1225
G1 X-26.1441 Y27.5448
G3 X-25.2362 Y28.8372 I-3.2439 J3.2439
G1 X-14.8483 Y50.9366
G3 X-14.4125 Y52.8882 I-4.1517 J1.9515
G1 Y71.9125
G1 Y75.0 Z0.4
G1 Y78.0875 Z-0.8
G1 Y97.1118
G3 X-14.8483 Y99.0634 I-4.5875 J0.0
G1 X-25.4592 Y121.6373
G3 X-26.4369 Y122.4816 I-1.4367 J-0.6753
G3 X-26.8341 Y123.1451 I-1.5197 J-0.459
G1 X-38.8549 Y135.1659
G3 X-39.5184 Y135.5631 I-1.1225 J-1.1225
G3 X-40.3627 Y136.5408 I-1.5197 J-0.459
G1 X-62.9366 Y147.1517
G3 X-64.8882 Y147.5875 I-1.9515 J-4.1517
G1 X-83.9125
G1 X-87.0 Z0.4
G1 X-90.0875 Z-0.8
G1 X-109.1118
G3 X-111.0634 Y147.1517 I0.0 J-4.5875
G1 X-133.1628 Y136.7638
G3 X-134.4552 Y135.8559 I1.9515 J-4.1517
G1 X-140.6252 Y129.6859
G3 X-141.0901 Y128.573 I1.1225 J-1.1225
G1 F200.0 Z-1.2
G3 F450.0 X-140.6252 Y127.4408 I1.5875 J-0.0096
G1 X-140.2754 Y127.091
G1 X-138.0922 Y124.9078 Z0.4
G1 X-135.909 Y122.7246 Z-1.2
G1 X-126.4831 Y113.2987
G3 X-124.238 I1.1225 J1.1225
G1 X-109.5379 Y127.9988
G2 X-108.5391 Y128.4125 I0.9988 J-0.9988
G1 X-65.4609
G2 X-64.4621 Y127.9988 I0.0 J-1.4125
G1 X-51.4149 Y114.9515
G1 X-49.2317 Y112.7683 Z0.4
G1 X-47.0485 Y110.5851 Z-1.2
G1 X-34.0012 Y97.5379
G2 X-33.5875 Y96.5391 I-0.9988 J-0.9988
G1 Y53.4609
G2 X-34.0012 Y52.4621 I-1.4125 J0.0
G1 X-48.7013 Y37.762
G3 Y35.5169 I1.1225 J-1.1225
G1 X-43.7754 Y30.591
G1 X-41.5922 Y28.4078 Z0.4
G1 X-39.409 Y26.2246 Z-1.2
G1 X-34.5592 Y21.3748
G3 X-32.3141 I1.1225 J1.1225
G1 X-26.1441 Y27.5448
G3 X-25.2362 Y28.8372 I-3.2439 J3.2439
G1 X-14.8483 Y50.9366
G3 X-14.4125 Y52.8882 I-4.1517 J1.9515
G1 Y71.9125
G1 Y75.0 Z0.4
G1 Y78.0875 Z-1.2
G1 Y97.1118
G3 X-14.8483 Y99.0634 I-4.5875 J0.0
G1 X-25.4592 Y121.6373
G3 X-26.4369 Y122.4816 I-1.4367 J-0.6753
G3 X-26.8341 Y123.1451 I-1.5197 J-0.459
G1 X-38.8549 Y135.1659
G3 X-39.5184 Y135.5631 I-1.1225 J-1.1225
G3 X-40.3627 Y136.5408 I-1.5197 J-0.459
G1 X-62.9366 Y147.1517
G3 X-64.8882 Y147.5875 I-1.9515 J-4.1517
G1 X-83.9125
G1 X-87.0 Z0.4
G1 X-90.0875 Z-1.2
G1 X-109.1118
G3 X-111.0634 Y147.1517 I0.0 J-4.5875
G1 X-133.1628 Y136.7638
G3 X-134.4552 Y135.8559 I1.9515 J-4.1517
G1 X-140.6252 Y129.6859
G3 X-141.0901 Y128.573 I1.1225 J-1.1225
G1 F200.0 Z-1.6
G3 F450.0 X-140.6252 Y127.4408 I1.5875 J-0.0096
G1 X-140.2754 Y127.091
G1 X-138.0922 Y124.9078 Z0.4
G1 X-135.909 Y122.7246 Z-1.6
G1 X-126.4831 Y113.2987
G3 X-124.238 I1.1225 J1.1225
G1 X-109.5379 Y127.9988
G2 X-108.5391 Y128.4125 I0.9988 J-0.9988
G1 X-65.4609
G2 X-64.4621 Y127.9988 I0.0 J-1.4125
G1 X-51.4149 Y114.9515
G1 X-49.2317 Y112.7683 Z0.4
G1 X-47.0485 Y110.5851 Z-1.6
G1 X-34.0012 Y97.5379
G2 X-33.5875 Y96.5391 I-0.9988 J-0.9988
G1 Y53.4609
G2 X-34.0012 Y52.4621 I-1.4125 J0.0
G1 X-48.7013 Y37.762
G3 Y35.5169 I1.1225 J-1.1225
G1 X-43.7754 Y30.591
G1 X-41.5922 Y28.4078 Z0.4
G1 X-39.409 Y26.2246 Z-1.6
G1 X-34.5592 Y21.3748
G3 X-32.3141 I1.1225 J1.1225
G1 X-26.1441 Y27.5448
G3 X-25.2362 Y28.8372 I-3.2439 J3.2439
G1 X-14.8483 Y50.9366
G3 X-14.4125 Y52.8882 I-4.1517 J1.9515
G1 Y71.9125
G1 Y75.0 Z0.4
G1 Y78.0875 Z-1.6
G1 Y97.1118
G3 X-14.8483 Y99.0634 I-4.5875 J0.0
G1 X-25.4592 Y121.6373
G3 X-26.4369 Y122.4816 I-1.4367 J-0.6753
G3 X-26.8341 Y123.1451 I-1.5197 J-0.459
G1 X-38.8549 Y135.1659
G3 X-39.5184 Y135.5631 I-1.1225 J-1.1225
G3 X-40.3627 Y136.5408 I-1.5197 J-0.459
G1 X-62.9366 Y147.1517
G3 X-64.8882 Y147.5875 I-1.9515 J-4.1517
G1 X-83.9125
G1 X-87.0 Z0.4
G1 X-90.0875 Z-1.6
G1 X-109.1118
G3 X-111.0634 Y147.1517 I0.0 J-4.5875
G1 X-133.1628 Y136.7638
G3 X-134.4552 Y135.8559 I1.9515 J-4.1517
G1 X-140.6252 Y129.6859
G3 X-141.0901 Y128.573 I1.1225 J-1.1225
G1 F200.0 Z-2.0
G3 F450.0 X-140.6252 Y127.4408 I1.5875 J-0.0096
G1 X-140.2754 Y127.091
G1 X-138.0922 Y124.9078 Z0.4
G1 X-135.909 Y122.7246 Z-2.0
G1 X-126.4831 Y113.2987
G3 X-124.238 I1.1225 J1.1225
G1 X-109.5379 Y127.9988
G2 X-108.5391 Y128.4125 I0.9988 J-0.9988
G1 X-65.4609
G2 X-64.4621 Y127.9988 I0.0 J-1.4125
G1 X-51.4149 Y114.9515
G1 X-49.2317 Y112.7683 Z0.4
G1 X-47.0485 Y110.5851 Z-2.0
G1 X-34.0012 Y97.5379
G2 X-33.5875 Y96.5391 I-0.9988 J-0.9988
G1 Y53.4609
G2 X-34.0012 Y52.4621 I-1.4125 J0.0
G1 X-48.7013 Y37.762
G3 Y35.5169 I1.1225 J-1.1225
G1 X-43.7754 Y30.591
G1 X-41.5922 Y28.4078 Z0.4
G1 X-39.409 Y26.2246 Z-2.0
G1 X-34.5592 Y21.3748
G3 X-32.3141 I1.1225 J1.1225
G1 X-26.1441 Y27.5448
G3 X-25.2362 Y28.8372 I-3.2439 J3.2439
G1 X-14.8483 Y50.9366
G3 X-14.4125 Y52.8882 I-4.1517 J1.9515
G1 Y71.9125
G1 Y75.0 Z0.4
G1 Y78.0875 Z-2.0
G1 Y97.1118
G3 X-14.8483 Y99.0634 I-4.5875 J0.0
G1 X-25.4592 Y121.6373
G3 X-26.4369 Y122.4816 I-1.4367 J-0.6753
G3 X-26.8341 Y123.1451 I-1.5197 J-0.459
G1 X-38.8549 Y135.1659
G3 X-39.5184 Y135.5631 I-1.1225 J-1.1225
G3 X-40.3627 Y136.5408 I-1.5197 J-0.459
G1 X-62.9366 Y147.1517
G3 X-64.8882 Y147.5875 I-1.9515 J-4.1517
G1 X-83.9125
G1 X-87.0 Z0.4
G1 X-90.0875 Z-2.0
G1 X-109.1118
G3 X-111.0634 Y147.1517 I0.0 J-4.5875
G1 X-133.1628 Y136.7638
G3 X-134.4552 Y135.8559 I1.9515 J-4.1517
G1 X-140.6252 Y129.6859
G3 X-141.0901 Y128.573 I1.1225 J-1.1225
G1 F200.0 Z-2.4
G3 F450.0 X-140.6252 Y127.4408 I1.5875 J-0.0096
G1 X-140.2754 Y127.091
G1 X-138.0922 Y124.9078 Z0.4
G1 X-135.909 Y122.7246 Z-2.4
G1 X-126.4831 Y113.2987
G3 X-124.238 I1.1225 J1.1225
G1 X-109.5379 Y127.9988
G2 X-108.5391 Y128.4125 I0.9988 J-0.9988
G1 X-65.4609
G2 X-64.4621 Y127.9988 I0.0 J-1.4125
G1 X-51.4149 Y114.9515
G1 X-49.2317 Y112.7683 Z0.4
G1 X-47.0485 Y110.5851 Z-2.4
G1 X-34.0012 Y97.5379
G2 X-33.5875 Y96.5391 I-0.9988 J-0.9988
G1 Y53.4609
G2 X-34.0012 Y52.4621 I-1.4125 J0.0
G1 X-48.7013 Y37.762
G3 Y35.5169 I1.1225 J-1.1225
G1 X-43.7754 Y30.591
G1 X-41.5922 Y28.4078 Z0.4
G1 X-39.409 Y26.2246 Z-2.4
G1 X-34.5592 Y21.3748
G3 X-32.3141 I1.1225 J1.1225
G1 X-26.1441 Y27.5448
G3 X-25.2362 Y28.8372 I-3.2439 J3.2439
G1 X-14.8483 Y50.9366
G3 X-14.4125 Y52.8882 I-4.1517 J1.9515
G1 Y71.9125
G1 Y75.0 Z0.4
G1 Y78.0875 Z-2.4
G1 Y97.1118
G3 X-14.8483 Y99.0634 I-4.5875 J0.0
G1 X-25.4592 Y121.6373
G3 X-26.4369 Y122.4816 I-1.4367 J-0.6753
G3 X-26.8341 Y123.1451 I-1.5197 J-0.459
G1 X-38.8549 Y135.1659
G3 X-39.5184 Y135.5631 I-1.1225 J-1.1225
G3 X-40.3627 Y136.5408 I-1.5197 J-0.459
G1 X-62.9366 Y147.1517
G3 X-64.8882 Y147.5875 I-1.9515 J-4.1517
G1 X-83.9125
G1 X-87.0 Z0.4
G1 X-90.0875 Z-2.4
G1 X-109.1118
G3 X-111.0634 Y147.1517 I0.0 J-4.5875
G1 X-133.1628 Y136.7638
G3 X-134.4552 Y135.8559 I1.9515 J-4.1517
G1 X-140.6252 Y129.6859
G3 X-141.0901 Y128.573 I1.1225 J-1.1225
G0 Z2.0
G0 X-178.4621 Y111.0062
G1 F200.0 Z-0.4
G1 F450.0 X-183.4592 Y121.6373
G3 X-184.4369 Y122.4816 I-1.4367 J-0.6753
G3 X-184.8341 Y123.1451 I-1.5197 J-0.459
G1 X-196.8549 Y135.1659
G3 X-197.5184 Y135.5631 I-1.1225 J-1.1225
G3 X-198.3627 Y136.5408 I-1.5197 J-0.459
G1 X-220.9366 Y147.1517
G3 X-222.8882 Y147.5875 I-1.9515 J-4.1517
G1 X-241.9125
G1 X-245.0 Z0.4
G1 X-248.0875 Z-0.4
G1 X-267.1118
G3 X-269.0634 Y147.1517 I0.0 J-4.5875
G1 X-291.1628 Y136.7638
G3 X-292.4552 Y135.8559 I1.9515 J-4.1517
G1 X-298.6252 Y129.6859
G3 Y127.4408 I1.1225 J-1.1225
G1 X-298.2754 Y127.091
G1 X-296.0922 Y124.9078 Z0.4
G1 X-293.909 Y122.7246 Z-0.4
G1 X-284.4831 Y113.2987
G3 X-282.238 I1.1225 J1.1225
G1 X-267.5379 Y127.9988
G2 X-266.5391 Y128.4125 I0.9988 J-0.9988
G1 X-223.4609
G2 X-222.4621 Y127.9988 I0.0 J-1.4125
G1 X-209.4149 Y114.9515
G1 X-207.2317 Y112.7683 Z0.4
G1 X-205.0485 Y110.5851 Z-0.4
G1 X-192.0012 Y97.5379
G2 X-191.5875 Y96.5391 I-0.9988 J-0.9988
G1 Y53.4609
G2 X-192.0012 Y52.4621 I-1.4125 J0.0
G1 X-206.7013 Y37.762
G3 Y35.5169 I1.1225 J-1.1225
G1 X-201.2754 Y30.091
G1 X-199.0922 Y27.9078 Z0.4
G1 X-196.909 Y25.7246 Z-0.4
G1 X-192.5592 Y21.3748
G3 X-190.3141 I1.1225 J1.1225
G1 X-184.1441 Y27.5448
G3 X-183.2362 Y28.8372 I-3.2439 J3.2439
G1 X-172.8483 Y50.9366
G3 X-172.4125 Y52.8882 I-4.1517 J1.9515
G1 Y71.9125
G1 Y75.0 Z0.4
G1 Y78.0875 Z-0.4
G1 Y97.1118
G3 X-172.8483 Y99.0634 I-4.5875 J0.0
G1 X-178.4621 Y111.0062
G1 F200.0 Z-0.8
G1 F450.0 X-183.4592 Y121.6373
G3 X-184.4369 Y122.4816 I-1.4367 J-0.6753
G3 X-184.8341 Y123.1451 I-1.5197 J-0.459
G1 X-196.8549 Y135.1659
G3 X-197.5184 Y135.5631 I-1.1225 J-1.1225
G3 X-198.3627 Y136.5408 I-1.5197 J-0.459
G1 X-220.9366 Y147.1517
G3 X-222.8882 Y147.5875 I-1.9515 J-4.1517
G1 X-241.9125
G1 X-245.0 Z0.4
G1 X-248.0875 Z-0.8
G1 X-267.1118
G3 X-269.0634 Y147.1517 I0.0 J-4.5875
G1 X-291.1628 Y136.7638
G3 X-292.4552 Y135.8559 I1.9515 J-4.1517
G1 X-298.6252 Y129.6859
G3 Y127.4408 I1.1225 J-1.1225
G1 X-298.2754 Y127.091
G1 X-296.0922 Y124.9078 Z0.4
G1 X-293.909 Y122.7246 Z-0.8
G1 X-284.4831 Y113.2987
G3 X-282.238 I1.1225 J1.1225
G1 X-267.5379 Y127.9988
G2 X-266.5391 Y128.4125 I0.9988 J-0.9988
G1 X-223.4609
G2 X-222.4621 Y127.9988 I0.0 J-1.4125
G1 X-209.4149 Y114.9515
G1 X-207.2317 Y112.7683 Z0.4
G1 X-205.0485 Y110.5851 Z-0.8
G1 X-192.0012 Y97.5379
G2 X-191.5875 Y96.5391 I-0.9988 J-0.9988
G1 Y53.4609
G2 X-192.0012 Y52.4621 I-1.4125 J0.0
G1 X-206.7013 Y37.762
G3 Y35.5169 I1.1225 J-1.1225
G1 X-201.2754 Y30.091
G1 X-199.0922 Y27.9078 Z0.4
G1 X-196.909 Y25.7246 Z-0.8
G1 X-192.5592 Y21.3748
G3 X-190.3141 I1.1225 J1.1225
G1 X-184.1441 Y27.5448
G3 X-183.2362 Y28.8372 I-3.2439 J3.2439
G1 X-172.8483 Y50.9366
G3 X-172.4125 Y52.8882 I-4.1517 J1.9515
G1 Y71.9125
G1 Y75.0 Z0.4
G1 Y78.0875 Z-0.8
G1 Y97.1118
G3 X-172.8483 Y99.0634 I-4.5875 J0.0
G1 X-178.4621 Y111.0062
G1 F200.0 Z-1.2
G1 F450.0 X-183.4592 Y121.6373
G3 X-184.4369 Y122.4816 I-1.4367 J-0.6753
G3 X-184.8341 Y123.1451 I-1.5197 J-0.459
G1 X-196.8549 Y135.1659
G3 X-197.5184 Y135.5631 I-1.1225 J-1.1225
G3 X-198.3627 Y136.5408 I-1.5197 J-0.459
G1 X-220.9366 Y147.1517
G3 X-222.8882 Y147.5875 I-1.9515 J-4.1517
G1 X-241.9125
G1 X-245.0 Z0.4
G1 X-248.0875 Z-1.2
G1 X-267.1118
G3 X-269.0634 Y147.1517 I0.0 J-4.5875
G1 X-291.1628 Y136.7638
G3 X-292.4552 Y135.8559 I1.9515 J-4.1517
G1 X-298.6252 Y129.6859
G3 Y127.4408 I1.1225 J-1.1225
G1 X-298.2754 Y127.091
G1 X-296.0922 Y124.9078 Z0.4
G1 X-293.909 Y122.7246 Z-1.2
G1 X-284.4831 Y113.2987
G3 X-282.238 I1.1225 J1.1225
G1 X-267.5379 Y127.9988
G2 X-266.5391 Y128.4125 I0.9988 J-0.9988
G1 X-223.4609
G2 X-222.4621 Y127.9988 I0.0 J-1.4125
G1 X-209.4149 Y114.9515
G1 X-207.2317 Y112.7683 Z0.4
G1 X-205.0485 Y110.5851 Z-1.2
G1 X-192.0012 Y97.5379
G2 X-191.5875 Y96.5391 I-0.9988 J-0.9988
G1 Y53.4609
G2 X-192.0012 Y52.4621 I-1.4125 J0.0
G1 X-206.7013 Y37.762
G3 Y35.5169 I1.1225 J-1.1225
G1 X-201.2754 Y30.091
G1 X-199.0922 Y27.9078 Z0.4
G1 X-196.909 Y25.7246 Z-1.2
G1 X-192.5592 Y21.3748
G3 X-190.3141 I1.1225 J1.1225
G1 X-184.1441 Y27.5448
G3 X-183.2362 Y28.8372 I-3.2439 J3.2439
G1 X-172.8483 Y50.9366
G3 X-172.4125 Y52.8882 I-4.1517 J1.9515
G1 Y71.9125
G1 Y75.0 Z0.4
G1 Y78.0875 Z-1.2
G1 Y97.1118
G3 X-172.8483 Y99.0634 I-4.5875 J0.0
G1 X-178.4621 Y111.0062
G1 F200.0 Z-1.6
G1 F450.0 X-183.4592 Y121.6373
G3 X-184.4369 Y122.4816 I-1.4367 J-0.6753
G3 X-184.8341 Y123.1451 I-1.5197 J-0.459
G1 X-196.8549 Y135.1659
G3 X-197.5184 Y135.5631 I-1.1225 J-1.1225
G3 X-198.3627 Y136.5408 I-1.5197 J-0.459
G1 X-220.9366 Y147.1517
G3 X-222.8882 Y147.5875 I-1.9515 J-4.1517
G1 X-241.9125
G1 X-245.0 Z0.4
G1 X-248.0875 Z-1.6
G1 X-267.1118
G3 X-269.0634 Y147.1517 I0.0 J-4.5875
G1 X-291.1628 Y136.7638
G3 X-292.4552 Y135.8559 I1.9515 J-4.1517
G1 X-298.6252 Y129.6859
G3 Y127.4408 I1.1225 J-1.1225
G1 X-298.2754 Y127.091
G1 X-296.0922 Y124.9078 Z0.4
G1 X-293.909 Y122.7246 Z-1.6
G1 X-284.4831 Y113.2987
G3 X-282.238 I1.1225 J1.1225
G1 X-267.5379 Y127.9988
G2 X-266.5391 Y128.4125 I0.9988 J-0.9988
G1 X-223.4609
G2 X-222.4621 Y127.9988 I0.0 J-1.4125
G1 X-209.4149 Y114.9515
G1 X-207.2317 Y112.7683 Z0.4
G1 X-205.0485 Y110.5851 Z-1.6
G1 X-192.0012 Y97.5379
G2 X-191.5875 Y96.5391 I-0.9988 J-0.9988
G1 Y53.4609
G2 X-192.0012 Y52.4621 I-1.4125 J0.0
G1 X-206.7013 Y37.762
G3 Y35.5169 I1.1225 J-1.1225
G1 X-201.2754 Y30.091
G1 X-199.0922 Y27.9078 Z0.4
G1 X-196.909 Y25.7246 Z-1.6
G1 X-192.5592 Y21.3748
G3 X-190.3141 I1.1225 J1.1225
G1 X-184.1441 Y27.5448
G3 X-183.2362 Y28.8372 I-3.2439 J3.2439
G1 X-172.8483 Y50.9366
G3 X-172.4125 Y52.8882 I-4.1517 J1.9515
G1 Y71.9125
G1 Y75.0 Z0.4
G1 Y78.0875 Z-1.6
G1 Y97.1118
G3 X-172.8483 Y99.0634 I-4.5875 J0.0
G1 X-178.4621 Y111.0062
G1 F200.0 Z-2.0
G1 F450.0 X-183.4592 Y121.6373
G3 X-184.4369 Y122.4816 I-1.4367 J-0.6753
G3 X-184.8341 Y123.1451 I-1.5197 J-0.459
G1 X-196.8549 Y135.1659
G3 X-197.5184 Y135.5631 I-1.1225 J-1.1225
G3 X-198.3627 Y136.5408 I-1.5197 J-0.459
G1 X-220.9366 Y147.1517
G3 X-222.8882 Y147.5875 I-1.9515 J-4.1517
G1 X-241.9125
G1 X-245.0 Z0.4
G1 X-248.0875 Z-2.0
G1 X-267.1118
G3 X-269.0634 Y147.1517 I0.0 J-4.5875
G1 X-291.1628 Y136.7638
G3 X-292.4552 Y135.8559 I1.9515 J-4.1517
G1 X-298.6252 Y129.6859
G3 Y127.4408 I1.1225 J-1.1225
G1 X-298.2754 Y127.091
G1 X-296.0922 Y124.9078 Z0.4
G1 X-293.909 Y122.7246 Z-2.0
G1 X-284.4831 Y113.2987
G3 X-282.238 I1.1225 J1.1225
G1 X-267.5379 Y127.9988
G2 X-266.5391 Y128.4125 I0.9988 J-0.9988
G1 X-223.4609
G2 X-222.4621 Y127.9988 I0.0 J-1.4125
G1 X-209.4149 Y114.9515
G1 X-207.2317 Y112.7683 Z0.4
G1 X-205.0485 Y110.5851 Z-2.0
G1 X-192.0012 Y97.5379
G2 X-191.5875 Y96.5391 I-0.9988 J-0.9988
G1 Y53.4609
G2 X-192.0012 Y52.4621 I-1.4125 J0.0
G1 X-206.7013 Y37.762
G3 Y35.5169 I1.1225 J-1.1225
G1 X-201.2754 Y30.091
G1 X-199.0922 Y27.9078 Z0.4
G1 X-196.909 Y25.7246 Z-2.0
G1 X-192.5592 Y21.3748
G3 X-190.3141 I1.1225 J1.1225
G1 X-184.1441 Y27.5448
G3 X-183.2362 Y28.8372 I-3.2439 J3.2439
G1 X-172.8483 Y50.9366
G3 X-172.4125 Y52.8882 I-4.1517 J1.9515
G1 Y71.9125
G1 Y75.0 Z0.4
G1 Y78.0875 Z-2.0
G1 Y97.1118
G3 X-172.8483 Y99.0634 I-4.5875 J0.0
G1 X-178.4621 Y111.0062
G1 F200.0 Z-2.4
G1 F450.0 X-183.4592 Y121.6373
G3 X-184.4369 Y122.4816 I-1.4367 J-0.6753
G3 X-184.8341 Y123.1451 I-1.5197 J-0.459
G1 X-196.8549 Y135.1659
G3 X-197.5184 Y135.5631 I-1.1225 J-1.1225
G3 X-198.3627 Y136.5408 I-1.5197 J-0.459
G1 X-220.9366 Y147.1517
G3 X-222.8882 Y147.5875 I-1.9515 J-4.1517
G1 X-241.9125
G1 X-245.0 Z0.4
G1 X-248.0875 Z-2.4
G1 X-267.1118
G3 X-269.0634 Y147.1517 I0.0 J-4.5875
G1 X-291.1628 Y136.7638
G3 X-292.4552 Y135.8559 I1.9515 J-4.1517
G1 X-298.6252 Y129.6859
G3 Y127.4408 I1.1225 J-1.1225
G1 X-298.2754 Y127.091
G1 X-296.0922 Y124.9078 Z0.4
G1 X-293.909 Y122.7246 Z-2.4
G1 X-284.4831 Y113.2987
G3 X-282.238 I1.1225 J1.1225
G1 X-267.5379 Y127.9988
G2 X-266.5391 Y128.4125 I0.9988 J-0.9988
G1 X-223.4609
G2 X-222.4621 Y127.9988 I0.0 J-1.4125
G1 X-209.4149 Y114.9515
G1 X-207.2317 Y112.7683 Z0.4
G1 X-205.0485 Y110.5851 Z-2.4
G1 X-192.0012 Y97.5379
G2 X-191.5875 Y96.5391 I-0.9988 J-0.9988
G1 Y53.4609
G2 X-192.0012 Y52.4621 I-1.4125 J0.0
G1 X-206.7013 Y37.762
G3 Y35.5169 I1.1225 J-1.1225
G1 X-201.2754 Y30.091
G1 X-199.0922 Y27.9078 Z0.4
G1 X-196.909 Y25.7246 Z-2.4
G1 X-192.5592 Y21.3748
G3 X-190.3141 I1.1225 J1.1225
G1 X-184.1441 Y27.5448
G3 X-183.2362 Y28.8372 I-3.2439 J3.2439
G1 X-172.8483 Y50.9366
G3 X-172.4125 Y52.8882 I-4.1517 J1.9515
G1 Y71.9125
G1 Y75.0 Z0.4
G1 Y78.0875 Z-2.4
G1 Y97.1118
G3 X-172.8483 Y99.0634 I-4.5875 J0.0
G1 X-178.4621 Y111.0062
G0 Z2.0
G0 X-213.9529 Y37.0102
G1 F200.0 Z-0.4
G3 F450.0 X-215.762 Y36.7013 I-0.6865 J-1.4314
G1 X-230.4621 Y22.0012
G2 X-231.4609 Y21.5875 I-0.9988 J0.9988
G1 X-274.5391
G2 X-275.5379 Y22.0012 I0.0 J1.4125
G1 X-288.5851 Y35.0485
G1 X-290.7683 Y37.2317 Z0.4
G1 X-292.9515 Y39.4149 Z-0.4
G1 X-305.9988 Y52.4621
G2 X-306.4125 Y53.4609 I0.9988 J0.9988
G1 Y96.5391
G2 X-305.9988 Y97.5379 I1.4125 J0.0
G1 X-291.2987 Y112.238
G3 Y114.4831 I-1.1225 J1.1225
G1 X-296.7246 Y119.909
G1 X-298.9078 Y122.0922 Z0.4
G1 X-301.091 Y124.2754 Z-0.4
G1 X-305.4408 Y128.6252
G3 X-307.6859 I-1.1225 J-1.1225
G1 X-313.8559 Y122.4552
G3 X-314.7638 Y121.1628 I3.2439 J-3.2439
G1 X-325.1517 Y99.0634
G3 X-325.5875 Y97.1118 I4.1517 J-1.9515
G1 Y78.0875
G1 Y75.0 Z0.4
G1 Y71.9125 Z-0.4
G1 Y52.8882
G3 X-325.1517 Y50.9366 I4.5875 J0.0
G1 X-314.5408 Y28.3627
G3 X-313.5631 Y27.5184 I1.4367 J0.6753
G3 X-313.1659 Y26.8549 I1.5197 J0.459
G1 X-301.1451 Y14.8341
G3 X-300.4816 Y14.4369 I1.1225 J1.1225
G3 X-299.6373 Y13.4592 I1.5197 J0.459
G1 X-277.0634 Y2.8483
G3 X-275.1118 Y2.4125 I1.9515 J4.1517
G1 X-253.0768
G1 X-249.9893 Z0.4
G1 X-246.9018 Z-0.4
G1 X-230.8882
G3 X-228.9366 Y2.8483 I0.0 J4.5875
G1 X-206.8372 Y13.2362
G3 X-205.5448 Y14.1441 I-1.9515 J4.1517
G1 X-199.3748 Y20.3141
G3 Y22.5592 I-1.1225 J1.1225
G1 X-199.7246 Y22.909
G1 X-201.9078 Y25.0922 Z0.4
G1 X-204.091 Y27.2754 Z-0.4
G1 X-213.5169 Y36.7013
G3 X-213.9529 Y37.0102 I-1.1225 J-1.1225
G1 F200.0 Z-0.8
G3 F450.0 X-215.762 Y36.7013 I-0.6865 J-1.4314
G1 X-230.4621 Y22.0012
G2 X-231.4609 Y21.5875 I-0.9988 J0.9988
G1 X-274.5391
G2 X-275.5379 Y22.0012 I0.0 J1.4125
G1 X-288.5851 Y35.0485
G1 X-290.7683 Y37.2317 Z0.4
G1 X-292.9515 Y39.4149 Z-0.8
G1 X-305.9988 Y52.4621
G2 X-306.4125 Y53.4609 I0.9988 J0.9988
G1 Y96.5391
G2 X-305.9988 Y97.5379 I1.4125 J0.0
G1 X-291.2987 Y112.238
G3 Y114.4831 I-1.1225 J1.1225
G1 X-296.7246 Y119.909
G1 X-298.9078 Y122.0922 Z0.4
G1 X-301.091 Y124.2754 Z-0.8
G1 X-305.4408 Y128.6252
G3 X-307.6859 I-1.1225 J-1.1225
G1 X-313.8559 Y122.4552
G3 X-314.7638 Y121.1628 I3.2439 J-3.2439
G1 X-325.1517 Y99.0634
G3 X-325.5875 Y97.1118 I4.1517 J-1.9515
G1 Y78.0875
G1 Y75.0 Z0.4
G1 Y71.9125 Z-0.8
G1 Y52.8882
G3 X-325.1517 Y50.9366 I4.5875 J0.0
G1 X-314.5408 Y28.3627
G3 X-313.5631 Y27.5184 I1.4367 J0.6753
G3 X-313.1659 Y26.8549 I1.5197 J0.459
G1 X-301.1451 Y14.8341
G3 X-300.4816 Y14.4369 I1.1225 J1.1225
G3 X-299.6373 Y13.4592 I1.5197 J0.459
G1 X-277.0634 Y2.8483
G3 X-275.1118 Y2.4125 I1.9515 J4.1517
G1 X-253.0768
G1 X-249.9893 Z0.4
G1 X-246.9018 Z-0.8
G1 X-230.8882
G3 X-228.9366 Y2.8483 I0.0 J4.5875
G1 X-206.8372 Y13.2362
G3 X-205.5448 Y14.1441 I-1.9515 J4.1517
G1 X-199.3748 Y20.3141
G3 Y22.5592 I-1.1225 J1.1225
G1 X-199.7246 Y22.909
G1 X-201.9078 Y25.0922 Z0.4
G1 X-204.091 Y27.2754 Z-0.8
G1 X-213.5169 Y36.7013
G3 X-213.9529 Y37.0102 I-1.1225 J-1.1225
G1 F200.0 Z-1.2
G3 F450.0 X-215.762 Y36.7013 I-0.6865 J-1.4314
G1 X-230.4621 Y22.0012
G2 X-231.4609 Y21.5875 I-0.9988 J0.9988
G1 X-274.5391
G2 X-275.5379 Y22.0012 I0.0 J1.4125
G1 X-288.5851 Y35.0485
G1 X-290.7683 Y37.2317 Z0.4
G1 X-292.9515 Y39.4149 Z-1.2
G1 X-305.9988 Y52.4621
G2 X-306.4125 Y53.4609 I0.9988 J0.9988
G1 Y96.5391
G2 X-305.9988 Y97.5379 I1.4125 J0.0
G1 X-291.2987 Y112.238
G3 Y114.4831 I-1.1225 J1.1225
G1 X-296.7246 Y119.909
G1 X-298.9078 Y122.0922 Z0.4
G1 X-301.091 Y124.2754 Z-1.2
G1 X-305.4408 Y128.6252
G3 X-307.6859 I-1.1225 J-1.1225
G1 X-313.8559 Y122.4552
G3 X-314.7638 Y121.1628 I3.2439 J-3.2439
G1 X-325.1517 Y99.0634
G3 X-325.5875 Y97.1118 I4.1517 J-1.9515
G1 Y78.0875
G1 Y75.0 Z0.4
G1 Y71.9125 Z-1.2
G1 Y52.8882
G3 X-325.1517 Y50.9366 I4.5875 J0.0
G1 X-314.5408 Y28.3627
G3 X-313.5631 Y27.5184 I1.4367 J0.6753
G3 X-313.1659 Y26.8549 I1.5197 J0.459
G1 X-301.1451 Y14.8341
G3 X-300.4816 Y14.4369 I1.1225 J1.1225
G3 X-299.6373 Y13.4592 I1.5197 J0.459
G1 X-277.0634 Y2.8483
G3 X-275.1118 Y2.4125 I1.9515 J4.1517
G1 X-253.0768
G1 X-249.9893 Z0.4
G1 X-246.9018 Z-1.2
G1 X-230.8882
G3 X-228.9366 Y2.8483 I0.0 J4.5875
G1 X-206.8372 Y13.2362
G3 X-205.5448 Y14.1441 I-1.9515 J4.1517
G1 X-199.3748 Y20.3141
G3 Y22.5592 I-1.1225 J1.1225
G1 X-199.7246 Y22.909
G1 X-201.9078 Y25.0922 Z0.4
G1 X-204.091 Y27.2754 Z-1.2
G1 X-213.5169 Y36.7013
G3 X-213.9529 Y37.0102 I-1.1225 J-1.1225
G1 F200.0 Z-1.6
G3 F450.0 X-215.762 Y36.7013 I-0.6865 J-1.4314
G1 X-230.4621 Y22.0012
G2 X-231.4609 Y21.5875 I-0.9988 J0.9988
G1 X-274.5391
G2 X-275.5379 Y22.0012 I0.0 J1.4125
G1 X-288.5851 Y35.0485
G1 X-290.7683 Y37.2317 Z0.4
G1 X-292.9515 Y39.4149 Z-1.6
G1 X-305.9988 Y52.4621
G2 X-306.4125 Y53.4609 I0.9988 J0.9988
G1 Y96.5391
G2 X-305.9988 Y97.5379 I1.4125 J0.0
G1 X-291.2987 Y112.238
G3 Y114.4831 I-1.1225 J1.1225
G1 X-296.7246 Y119.909
G1 X-298.9078 Y122.0922 Z0.4
G1 X-301.091 Y124.2754 Z-1.6
G1 X-305.4408 Y128.6252
G3 X-307.6859 I-1.1225 J-1.1225
G1 X-313.8559 Y122.4552
G3 X-314.7638 Y121.1628 I3.2439 J-3.2439
G1 X-325.1517 Y99.0634
G3 X-325.5875 Y97.1118 I4.1517 J-1.9515
G1 Y78.0875
G1 Y75.0 Z0.4
G1 Y71.9125 Z-1.6
G1 Y52.8882
G3 X-325.1517 Y50.9366 I4.5875 J0.0
G1 X-314.5408 Y28.3627
G3 X-313.5631 Y27.5184 I1.4367 J0.6753
G3 X-313.1659 Y26.8549 I1.5197 J0.459
G1 X-301.1451 Y14.8341
G3 X-300.4816 Y14.4369 I1.1225 J1.1225
G3 X-299.6373 Y13.4592 I1.5197 J0.459
G1 X-277.0634 Y2.8483
G3 X-275.1118 Y2.4125 I1.9515 J4.1517
G1 X-253.0768
G1 X-249.9893 Z0.4
G1 X-246.9018 Z-1.6
G1 X-230.8882
G3 X-228.9366 Y2.8483 I0.0 J4.5875
G1 X-206.8372 Y13.2362
G3 X-205.5448 Y14.1441 I-1.9515 J4.1517
G1 X-199.3748 Y20.3141
G3 Y22.5592 I-1.1225 J1.1225
G1 X-199.7246 Y22.909
G1 X-201.9078 Y25.0922 Z0.4
G1 X-204.091 Y27.2754 Z-1.6
G1 X-213.5169 Y36.7013
G3 X-213.9529 Y37.0102 I-1.1225 J-1.1225
G1 F200.0 Z-2.0
G3 F450.0 X-215.762 Y36.7013 I-0.6865 J-1.4314
G1 X-230.4621 Y22.0012
G2 X-231.4609 Y21.5875 I-0.9988 J0.9988
G1 X-274.5391
G2 X-275.5379 Y22.0012 I0.0 J1.4125
G1 X-288.5851 Y35.0485
G1 X-290.7683 Y37.2317 Z0.4
G1 X-292.9515 Y39.4149 Z-2.0
G1 X-305.9988 Y52.4621
G2 X-306.4125 Y53.4609 I0.9988 J0.9988
G1 Y96.5391
G2 X-305.9988 Y97.5379 I1.4125 J0.0
G1 X-291.2987 Y112.238
G3 Y114.4831 I-1.1225 J1.1225
G1 X-296.7246 Y119.909
G1 X-298.9078 Y122.0922 Z0.4
G1 X-301.091 Y124.2754 Z-2.0
G1 X-305.4408 Y128.6252
G3 X-307.6859 I-1.1225 J-1.1225
G1 X-313.8559 Y122.4552
G3 X-314.7638 Y121.1628 I3.2439 J-3.2439
G1 X-325.1517 Y99.0634
G3 X-325.5875 Y97.1118 I4.1517 J-1.9515
G1 Y78.0875
G1 Y75.0 Z0.4
G1 Y71.9125 Z-2.0
G1 Y52.8882
G3 X-325.1517 Y50.9366 I4.5875 J0.0
G1 X-314.5408 Y28.3627
G3 X-313.5631 Y27.5184 I1.4367 J0.6753
G3 X-313.1659 Y26.8549 I1.5197 J0.459
G1 X-301.1451 Y14.8341
G3 X-300.4816 Y14.4369 I1.1225 J1.1225
G3 X-299.6373 Y13.4592 I1.5197 J0.459
G1 X-277.0634 Y2.8483
G3 X-275.1118 Y2.4125 I1.9515 J4.1517
G1 X-253.0768
G1 X-249.9893 Z0.4
G1 X-246.9018 Z-2.0
G1 X-230.8882
G3 X-228.9366 Y2.8483 I0.0 J4.5875
G1 X-206.8372 Y13.2362
G3 X-205.5448 Y14.1441 I-1.9515 J4.1517
G1 X-199.3748 Y20.3141
G3 Y22.5592 I-1.1225 J1.1225
G1 X-199.7246 Y22.909
G1 X-201.9078 Y25.0922 Z0.4
G1 X-204.091 Y27.2754 Z-2.0
G1 X-213.5169 Y36.7013
G3 X-213.9529 Y37.0102 I-1.1225 J-1.1225
G1 F200.0 Z-2.4
G3 F450.0 X-215.762 Y36.7013 I-0.6865 J-1.4314
G1 X-230.4621 Y22.0012
G2 X-231.4609 Y21.5875 I-0.9988 J0.9988
G1 X-274.5391
G2 X-275.5379 Y22.0012 I0.0 J1.4125
G1 X-288.5851 Y35.0485
G1 X-290.7683 Y37.2317 Z0.4
G1 X-292.9515 Y39.4149 Z-2.4
G1 X-305.9988 Y52.4621
G2 X-306.4125 Y53.4609 I0.9988 J0.9988
G1 Y96.5391
G2 X-305.9988 Y97.5379 I1.4125 J0.0
G1 X-291.2987 Y112.238
G3 Y114.4831 I-1.1225 J1.1225
G1 X-296.7246 Y119.909
G1 X-298.9078 Y122.0922 Z0.4
G1 X-301.091 Y124.2754 Z-2.4
G1 X-305.4408 Y128.6252
G3 X-307.6859 I-1.1225 J-1.1225
G1 X-313.8559 Y122.4552
G3 X-314.7638 Y121.1628 I3.2439 J-3.2439
G1 X-325.1517 Y99.0634
G3 X-325.5875 Y97.1118 I4.1517 J-1.9515
G1 Y78.0875
G1 Y75.0 Z0.4
G1 Y71.9125 Z-2.4
G1 Y52.8882
G3 X-325.1517 Y50.9366 I4.5875 J0.0
G1 X-314.5408 Y28.3627
G3 X-313.5631 Y27.5184 I1.4367 J0.6753
G3 X-313.1659 Y26.8549 I1.5197 J0.459
G1 X-301.1451 Y14.8341
G3 X-300.4816 Y14.4369 I1.1225 J1.1225
G3 X-299.6373 Y13.4592 I1.5197 J0.459
G1 X-277.0634 Y2.8483
G3 X-275.1118 Y2.4125 I1.9515 J4.1517
G1 X-253.0768
G1 X-249.9893 Z0.4
G1 X-246.9018 Z-2.4
G1 X-230.8882
G3 X-228.9366 Y2.8483 I0.0 J4.5875
G1 X-206.8372 Y13.2362
G3 X-205.5448 Y14.1441 I-1.9515 J4.1517
G1 X-199.3748 Y20.3141
G3 Y22.5592 I-1.1225 J1.1225
G1 X-199.7246 Y22.909
G1 X-201.9078 Y25.0922 Z0.4
G1 X-204.091 Y27.2754 Z-2.4
G1 X-213.5169 Y36.7013
G3 X-213.9529 Y37.0102 I-1.1225 J-1.1225
G0 Z2.0
M5
M30
