( Made using CamBam - http://www.cambam.co.uk )
( sheet1 3/19/2022 7:39:24 AM )
( T0 : 3.175 )
G21 G90 G40
G0 Z2.0
( T0 : 3.175 )
T0 M6
( 4_free )
G17
M3 S1000
G0 X-48.9337 Y108.5293
G1 F200.0 Z-0.4
G3 F450.0 X-49.5875 Y106.169 I3.9337 J-2.3602
G1 Y71.0961
G1 Y71.0875 Z-0.3966
G1 Y68.0086 Z0.8
G1 Y68.0
G1 Y64.9211 Z-0.3966
G1 Y64.9125 Z-0.4
G1 Y55.5
G3 X-48.0 Y53.9125 I1.5875 J0.0
G1 X-47.5
G2 X-44.0875 Y50.5 I0.0 J-3.4125
G1 Y27.5
G2 X-47.5 Y24.0875 I-3.4125 J0.0
G1 X-48.0
G3 X-49.5875 Y22.5 I0.0 J-1.5875
G1 Y16.5
G3 X-48.0 Y14.9125 I1.5875 J0.0
G1 X-37.0875
G1 X-34.0 Z0.8
G1 X-30.9125 Z-0.4
G1 X-22.0
G3 X-20.4125 Y16.5 I0.0 J1.5875
G1 Y22.5
G3 X-22.0 Y24.0875 I-1.5875 J0.0
G1 X-22.5
G2 X-25.9125 Y27.5 I0.0 J3.4125
G1 Y50.5
G2 X-22.5 Y53.9125 I3.4125 J0.0
G1 X-22.0
G3 X-20.4125 Y55.5 I0.0 J1.5875
G1 Y64.9125
G1 Y68.0 Z0.8
G1 Y71.0875 Z-0.4
G1 Y106.169
G3 X-21.0663 Y108.5293 I-4.5875 J0.0
G1 X-23.2112 Y112.1042
G2 X-23.4125 Y112.831 I1.2112 J0.7267
G1 Y129.0
G3 X-27.9125 Y133.5867 I-4.5875 J0.0
G3 X-28.0 Y133.5875 Z-0.366 I-0.0875 J-4.5867
G1 X-31.0 Z0.8
G1 X-34.0875 Z-0.4
G1 X-34.2
G3 X-35.0 Y133.3712 I0.0 J-1.5875
G3 X-35.8 Y133.5875 I-0.8 J-1.3712
G1 X-42.0
G3 X-46.5875 Y129.0 I0.0 J-4.5875
G1 Y112.831
G2 X-46.7888 Y112.1042 I-1.4125 J0.0
G1 X-48.9337 Y108.5293
G1 F200.0 X-50.7247 Y107.8325
G3 F450.0 X-51.0663 Y108.5293 I-4.2753 J-1.6634
G1 X-53.2112 Y112.1042
G2 X-53.4125 Y112.831 I1.2112 J0.7267
G1 Y129.0
G3 X-57.9125 Y133.5867 I-4.5875 J0.0
G3 X-58.0 Y133.5875 Z-0.366 I-0.0875 J-4.5867
G1 X-61.0 Z0.8
G1 X-64.0875 Z-0.4
G1 X-64.2
G3 X-65.0 Y133.3712 I0.0 J-1.5875
G3 X-65.8 Y133.5875 I-0.8 J-1.3712
G1 X-72.0
G3 X-76.5875 Y129.0 I0.0 J-4.5875
G1 Y112.831
G2 X-76.7888 Y112.1042 I-1.4125 J0.0
G1 X-78.9337 Y108.5293
G3 X-79.5875 Y106.169 I3.9337 J-2.3602
G1 Y71.0961
G1 Y71.0875 Z-0.3966
G1 Y68.0086 Z0.8
G1 Y68.0
G1 Y64.9211 Z-0.3966
G1 Y64.9125 Z-0.4
G1 Y55.5
G3 X-78.0 Y53.9125 I1.5875 J0.0
G1 X-77.5
G2 X-74.0875 Y50.5 I0.0 J-3.4125
G1 Y27.5
G2 X-77.5 Y24.0875 I-3.4125 J0.0
G1 X-78.0
G3 X-79.5875 Y22.5 I0.0 J-1.5875
G1 Y16.5
G3 X-78.0 Y14.9125 I1.5875 J0.0
G1 X-68.0875
G1 X-65.0 Z0.8
G1 X-61.9125 Z-0.4
G1 X-52.0
G3 X-50.4125 Y16.5 I0.0 J1.5875
G1 Y22.5
G3 X-52.0 Y24.0875 I-1.5875 J0.0
G1 X-52.5
G2 X-55.9125 Y27.5 I0.0 J3.4125
G1 Y50.5
G2 X-52.5 Y53.9125 I3.4125 J0.0
G1 X-52.0
G3 X-50.4125 Y55.5 I0.0 J1.5875
G1 Y64.9125
G1 Y64.9211 Z-0.3966
G1 Y68.0 Z0.8
G1 Y68.0086
G1 Y71.0875 Z-0.3966
G1 Y71.0961 Z-0.4
G1 Y106.169
G3 X-50.7247 Y107.8325 I-4.5875 J0.0
G1 F200.0 X-49.4053 Y107.4491
G1 Z-0.8
G3 F450.0 X-49.5875 Y106.169 I4.4053 J-1.28
G1 Y71.0961
G1 Y71.0875 Z-0.7955
G1 Y68.0086 Z0.8
G1 Y68.0
G1 Y64.9211 Z-0.7955
G1 Y64.9125 Z-0.8
G1 Y55.5
G3 X-48.0 Y53.9125 I1.5875 J0.0
G1 X-47.5
G2 X-44.0875 Y50.5 I0.0 J-3.4125
G1 Y27.5
G2 X-47.5 Y24.0875 I-3.4125 J0.0
G1 X-48.0
G3 X-49.5875 Y22.5 I0.0 J-1.5875
G1 Y16.5
G3 X-48.0 Y14.9125 I1.5875 J0.0
G1 X-37.0875
G1 X-34.0 Z0.8
G1 X-30.9125 Z-0.8
G1 X-22.0
G3 X-20.4125 Y16.5 I0.0 J1.5875
G1 Y22.5
G3 X-22.0 Y24.0875 I-1.5875 J0.0
G1 X-22.5
G2 X-25.9125 Y27.5 I0.0 J3.4125
G1 Y50.5
G2 X-22.5 Y53.9125 I3.4125 J0.0
G1 X-22.0
G3 X-20.4125 Y55.5 I0.0 J1.5875
G1 Y64.9125
G1 Y68.0 Z0.8
G1 Y71.0875 Z-0.8
G1 Y106.169
G3 X-21.0663 Y108.5293 I-4.5875 J0.0
G1 X-23.2112 Y112.1042
G2 X-23.4125 Y112.831 I1.2112 J0.7267
G1 Y129.0
G3 X-27.9125 Y133.5867 I-4.5875 J0.0
G3 X-28.0 Y133.5875 Z-0.7547 I-0.0875 J-4.5867
G1 X-31.0 Z0.8
G1 X-34.0875 Z-0.8
G1 X-34.2
G3 X-35.0 Y133.3712 I0.0 J-1.5875
G3 X-35.8 Y133.5875 I-0.8 J-1.3712
G1 X-42.0
G3 X-46.5875 Y129.0 I0.0 J-4.5875
G1 Y112.831
G2 X-46.7888 Y112.1042 I-1.4125 J0.0
G1 X-48.9337 Y108.5293
G3 X-49.4053 Y107.4491 I3.9337 J-2.3602
G0 Z2.0
G0 X-80.4155 Y106.3339
G1 F200.0 Z-0.4
G3 F450.0 X-81.0663 Y108.5293 I-4.5845 J-0.1649
G1 X-83.2112 Y112.1042
G2 X-83.4125 Y112.831 I1.2112 J0.7267
G1 Y129.0
G3 X-87.9125 Y133.5867 I-4.5875 J0.0
G3 X-88.0 Y133.5875 Z-0.366 I-0.0875 J-4.5867
G1 X-91.0 Z0.8
G1 X-94.0875 Z-0.4
G1 X-94.2
G3 X-95.0 Y133.3712 I0.0 J-1.5875
G3 X-95.8 Y133.5875 I-0.8 J-1.3712
G1 X-102.0
G3 X-106.5875 Y129.0 I0.0 J-4.5875
G1 Y112.831
G2 X-106.7888 Y112.1042 I-1.4125 J0.0
G1 X-108.9337 Y108.5293
G3 X-109.5875 Y106.169 I3.9337 J-2.3602
G1 Y71.0961
G1 Y71.0875 Z-0.3966
G1 Y68.0086 Z0.8
G1 Y68.0
G1 Y64.9211 Z-0.3966
G1 Y64.9125 Z-0.4
G1 Y55.5
G3 X-108.0 Y53.9125 I1.5875 J0.0
G1 X-107.5
G2 X-104.0875 Y50.5 I0.0 J-3.4125
G1 Y27.5
G2 X-107.5 Y24.0875 I-3.4125 J0.0
G1 X-108.0
G3 X-109.5875 Y22.5 I0.0 J-1.5875
G1 Y16.5
G3 X-108.0 Y14.9125 I1.5875 J0.0
G1 X-98.0875
G1 X-95.0 Z0.8
G1 X-91.9125 Z-0.4
G1 X-82.0
G3 X-80.4125 Y16.5 I0.0 J1.5875
G1 Y22.5
G3 X-82.0 Y24.0875 I-1.5875 J0.0
G1 X-82.5
G2 X-85.9125 Y27.5 I0.0 J3.4125
G1 Y50.5
G2 X-82.5 Y53.9125 I3.4125 J0.0
G1 X-82.0
G3 X-80.4125 Y55.5 I0.0 J1.5875
G1 Y64.9125
G1 Y64.9211 Z-0.3966
G1 Y68.0 Z0.8
G1 Y68.0086
G1 Y71.0875 Z-0.3966
G1 Y71.0961 Z-0.4
G1 Y106.169
G3 X-80.4155 Y106.3339 I-4.5875 J0.0
G1 F200.0 X-79.5854 Y106.3086
G1 Z-0.8
G3 F450.0 X-79.5875 Y106.169 I4.5854 J-0.1396
G1 Y71.0961
G1 Y71.0875 Z-0.7955
G1 Y68.0086 Z0.8
G1 Y68.0
G1 Y64.9211 Z-0.7955
G1 Y64.9125 Z-0.8
G1 Y55.5
G3 X-78.0 Y53.9125 I1.5875 J0.0
G1 X-77.5
G2 X-74.0875 Y50.5 I0.0 J-3.4125
G1 Y27.5
G2 X-77.5 Y24.0875 I-3.4125 J0.0
G1 X-78.0
G3 X-79.5875 Y22.5 I0.0 J-1.5875
G1 Y16.5
G3 X-78.0 Y14.9125 I1.5875 J0.0
G1 X-68.0875
G1 X-65.0 Z0.8
G1 X-61.9125 Z-0.8
G1 X-52.0
G3 X-50.4125 Y16.5 I0.0 J1.5875
G1 Y22.5
G3 X-52.0 Y24.0875 I-1.5875 J0.0
G1 X-52.5
G2 X-55.9125 Y27.5 I0.0 J3.4125
G1 Y50.5
G2 X-52.5 Y53.9125 I3.4125 J0.0
G1 X-52.0
G3 X-50.4125 Y55.5 I0.0 J1.5875
G1 Y64.9125
G1 Y64.9211 Z-0.7955
G1 Y68.0 Z0.8
G1 Y68.0086
G1 Y71.0875 Z-0.7955
G1 Y71.0961 Z-0.8
G1 Y106.169
G3 X-51.0663 Y108.5293 I-4.5875 J0.0
G1 X-53.2112 Y112.1042
G2 X-53.4125 Y112.831 I1.2112 J0.7267
G1 Y129.0
G3 X-57.9125 Y133.5867 I-4.5875 J0.0
G3 X-58.0 Y133.5875 Z-0.7547 I-0.0875 J-4.5867
G1 X-61.0 Z0.8
G1 X-64.0875 Z-0.8
G1 X-64.2
G3 X-65.0 Y133.3712 I0.0 J-1.5875
G3 X-65.8 Y133.5875 I-0.8 J-1.3712
G1 X-72.0
G3 X-76.5875 Y129.0 I0.0 J-4.5875
G1 Y112.831
G2 X-76.7888 Y112.1042 I-1.4125 J0.0
G1 X-78.9337 Y108.5293
G3 X-79.5854 Y106.3086 I3.9337 J-2.3602
G0 Z2.0
G0 X-49.5875 Y106.1876
G1 F200.0 Z-1.2
G3 F450.0 Y106.169 I4.5875 J-0.0185
G1 Y71.0961
G1 Y71.0875 Z-1.1944
G1 Y68.0086 Z0.8
G1 Y68.0
G1 Y64.9211 Z-1.1944
G1 Y64.9125 Z-1.2
G1 Y55.5
G3 X-48.0 Y53.9125 I1.5875 J0.0
G1 X-47.5
G2 X-44.0875 Y50.5 I0.0 J-3.4125
G1 Y27.5
G2 X-47.5 Y24.0875 I-3.4125 J0.0
G1 X-48.0
G3 X-49.5875 Y22.5 I0.0 J-1.5875
G1 Y16.5
G3 X-48.0 Y14.9125 I1.5875 J0.0
G1 X-37.0875
G1 X-34.0 Z0.8
G1 X-30.9125 Z-1.2
G1 X-22.0
G3 X-20.4125 Y16.5 I0.0 J1.5875
G1 Y22.5
G3 X-22.0 Y24.0875 I-1.5875 J0.0
G1 X-22.5
G2 X-25.9125 Y27.5 I0.0 J3.4125
G1 Y50.5
G2 X-22.5 Y53.9125 I3.4125 J0.0
G1 X-22.0
G3 X-20.4125 Y55.5 I0.0 J1.5875
G1 Y64.9125
G1 Y68.0 Z0.8
G1 Y71.0875 Z-1.2
G1 Y106.169
G3 X-21.0663 Y108.5293 I-4.5875 J0.0
G1 X-23.2112 Y112.1042
G2 X-23.4125 Y112.831 I1.2112 J0.7267
G1 Y129.0
G3 X-27.9125 Y133.5867 I-4.5875 J0.0
G3 X-28.0 Y133.5875 Z-1.1433 I-0.0875 J-4.5867
G1 X-31.0 Z0.8
G1 X-34.0875 Z-1.2
G1 X-34.2
G3 X-35.0 Y133.3712 I0.0 J-1.5875
G3 X-35.8 Y133.5875 I-0.8 J-1.3712
G1 X-42.0
G3 X-46.5875 Y129.0 I0.0 J-4.5875
G1 Y112.831
G2 X-46.7888 Y112.1042 I-1.4125 J0.0
G1 X-48.9337 Y108.5293
G3 X-49.5875 Y106.1876 I3.9337 J-2.3602
G0 Z2.0
G0 X-110.4125 Y106.1703
G1 F200.0 Z-0.4
G3 F450.0 X-111.0663 Y108.5293 I-4.5875 J-0.0013
G1 X-113.2112 Y112.1042
G2 X-113.4125 Y112.831 I1.2112 J0.7267
G1 Y129.0
G3 X-117.9125 Y133.5867 I-4.5875 J0.0
G3 X-118.0 Y133.5875 Z-0.366 I-0.0875 J-4.5867
G1 X-121.0 Z0.8
G1 X-124.0875 Z-0.4
G1 X-124.2
G3 X-125.0 Y133.3712 I0.0 J-1.5875
G3 X-125.8 Y133.5875 I-0.8 J-1.3712
G1 X-132.0
G3 X-136.5875 Y129.0 I0.0 J-4.5875
G1 Y112.831
G2 X-136.7888 Y112.1042 I-1.4125 J0.0
G1 X-138.9337 Y108.5293
G3 X-139.5875 Y106.169 I3.9337 J-2.3602
G1 Y71.0961
G1 Y71.0875 Z-0.3966
G1 Y68.0086 Z0.8
G1 Y68.0
G1 Y64.9211 Z-0.3966
G1 Y64.9125 Z-0.4
G1 Y55.5
G3 X-138.0 Y53.9125 I1.5875 J0.0
G1 X-137.5
G2 X-134.0875 Y50.5 I0.0 J-3.4125
G1 Y27.5
G2 X-137.5 Y24.0875 I-3.4125 J0.0
G1 X-138.0
G3 X-139.5875 Y22.5 I0.0 J-1.5875
G1 Y16.5
G3 X-138.0 Y14.9125 I1.5875 J0.0
G1 X-128.0875
G1 X-125.0 Z0.8
G1 X-121.9125 Z-0.4
G1 X-112.0
G3 X-110.4125 Y16.5 I0.0 J1.5875
G1 Y22.5
G3 X-112.0 Y24.0875 I-1.5875 J0.0
G1 X-112.5
G2 X-115.9125 Y27.5 I0.0 J3.4125
G1 Y50.5
G2 X-112.5 Y53.9125 I3.4125 J0.0
G1 X-112.0
G3 X-110.4125 Y55.5 I0.0 J1.5875
G1 Y64.9125
G1 Y64.9211 Z-0.3966
G1 Y68.0 Z0.8
G1 Y68.0086
G1 Y71.0875 Z-0.3966
G1 Y71.0961 Z-0.4
G1 Y106.169
G3 Y106.1703 I-4.5875 J0.0
G1 F200.0 X-109.5875 Y106.1701
G1 Z-0.8
G3 F450.0 Y106.169 I4.5875 J-0.0011
G1 Y71.0961
G1 Y71.0875 Z-0.7955
G1 Y68.0086 Z0.8
G1 Y68.0
G1 Y64.9211 Z-0.7955
G1 Y64.9125 Z-0.8
G1 Y55.5
G3 X-108.0 Y53.9125 I1.5875 J0.0
G1 X-107.5
G2 X-104.0875 Y50.5 I0.0 J-3.4125
G1 Y27.5
G2 X-107.5 Y24.0875 I-3.4125 J0.0
G1 X-108.0
G3 X-109.5875 Y22.5 I0.0 J-1.5875
G1 Y16.5
G3 X-108.0 Y14.9125 I1.5875 J0.0
G1 X-98.0875
G1 X-95.0 Z0.8
G1 X-91.9125 Z-0.8
G1 X-82.0
G3 X-80.4125 Y16.5 I0.0 J1.5875
G1 Y22.5
G3 X-82.0 Y24.0875 I-1.5875 J0.0
G1 X-82.5
G2 X-85.9125 Y27.5 I0.0 J3.4125
G1 Y50.5
G2 X-82.5 Y53.9125 I3.4125 J0.0
G1 X-82.0
G3 X-80.4125 Y55.5 I0.0 J1.5875
G1 Y64.9125
G1 Y64.9211 Z-0.7955
G1 Y68.0 Z0.8
G1 Y68.0086
G1 Y71.0875 Z-0.7955
G1 Y71.0961 Z-0.8
G1 Y106.169
G3 X-81.0663 Y108.5293 I-4.5875 J0.0
G1 X-83.2112 Y112.1042
G2 X-83.4125 Y112.831 I1.2112 J0.7267
G1 Y129.0
G3 X-87.9125 Y133.5867 I-4.5875 J0.0
G3 X-88.0 Y133.5875 Z-0.7547 I-0.0875 J-4.5867
G1 X-91.0 Z0.8
G1 X-94.0875 Z-0.8
G1 X-94.2
G3 X-95.0 Y133.3712 I0.0 J-1.5875
G3 X-95.8 Y133.5875 I-0.8 J-1.3712
G1 X-102.0
G3 X-106.5875 Y129.0 I0.0 J-4.5875
G1 Y112.831
G2 X-106.7888 Y112.1042 I-1.4125 J0.0
G1 X-108.9337 Y108.5293
G3 X-109.5875 Y106.1701 I3.9337 J-2.3602
G0 Z2.0
G0 X-79.5875 Y106.1692
G1 F200.0 Z-1.2
G1 F450.0 Y106.169
G1 Y71.0961
G1 Y71.0875 Z-1.1944
G1 Y68.0086 Z0.8
G1 Y68.0
G1 Y64.9211 Z-1.1944
G1 Y64.9125 Z-1.2
G1 Y55.5
G3 X-78.0 Y53.9125 I1.5875 J0.0
G1 X-77.5
G2 X-74.0875 Y50.5 I0.0 J-3.4125
G1 Y27.5
G2 X-77.5 Y24.0875 I-3.4125 J0.0
G1 X-78.0
G3 X-79.5875 Y22.5 I0.0 J-1.5875
G1 Y16.5
G3 X-78.0 Y14.9125 I1.5875 J0.0
G1 X-68.0875
G1 X-65.0 Z0.8
G1 X-61.9125 Z-1.2
G1 X-52.0
G3 X-50.4125 Y16.5 I0.0 J1.5875
G1 Y22.5
G3 X-52.0 Y24.0875 I-1.5875 J0.0
G1 X-52.5
G2 X-55.9125 Y27.5 I0.0 J3.4125
G1 Y50.5
G2 X-52.5 Y53.9125 I3.4125 J0.0
G1 X-52.0
G3 X-50.4125 Y55.5 I0.0 J1.5875
G1 Y64.9125
G1 Y64.9211 Z-1.1944
G1 Y68.0 Z0.8
G1 Y68.0086
G1 Y71.0875 Z-1.1944
G1 Y71.0961 Z-1.2
G1 Y106.169
G3 X-51.0663 Y108.5293 I-4.5875 J0.0
G1 X-53.2112 Y112.1042
G2 X-53.4125 Y112.831 I1.2112 J0.7267
G1 Y129.0
G3 X-57.9125 Y133.5867 I-4.5875 J0.0
G3 X-58.0 Y133.5875 Z-1.1433 I-0.0875 J-4.5867
G1 X-61.0 Z0.8
G1 X-64.0875 Z-1.2
G1 X-64.2
G3 X-65.0 Y133.3712 I0.0 J-1.5875
G3 X-65.8 Y133.5875 I-0.8 J-1.3712
G1 X-72.0
G3 X-76.5875 Y129.0 I0.0 J-4.5875
G1 Y112.831
G2 X-76.7888 Y112.1042 I-1.4125 J0.0
G1 X-78.9337 Y108.5293
G3 X-79.5875 Y106.1692 I3.9337 J-2.3602
G0 Z2.0
G0 X-49.5875 Y106.1691
G1 F200.0 Z-1.6
G1 F450.0 Y106.169
G1 Y71.0961
G1 Y71.0875 Z-1.5933
G1 Y68.0086 Z0.8
G1 Y68.0
G1 Y64.9211 Z-1.5933
G1 Y64.9125 Z-1.6
G1 Y55.5
G3 X-48.0 Y53.9125 I1.5875 J0.0
G1 X-47.5
G2 X-44.0875 Y50.5 I0.0 J-3.4125
G1 Y27.5
G2 X-47.5 Y24.0875 I-3.4125 J0.0
G1 X-48.0
G3 X-49.5875 Y22.5 I0.0 J-1.5875
G1 Y16.5
G3 X-48.0 Y14.9125 I1.5875 J0.0
G1 X-37.0875
G1 X-34.0 Z0.8
G1 X-30.9125 Z-1.6
G1 X-22.0
G3 X-20.4125 Y16.5 I0.0 J1.5875
G1 Y22.5
G3 X-22.0 Y24.0875 I-1.5875 J0.0
G1 X-22.5
G2 X-25.9125 Y27.5 I0.0 J3.4125
G1 Y50.5
G2 X-22.5 Y53.9125 I3.4125 J0.0
G1 X-22.0
G3 X-20.4125 Y55.5 I0.0 J1.5875
G1 Y64.9125
G1 Y68.0 Z0.8
G1 Y71.0875 Z-1.6
G1 Y106.169
G3 X-21.0663 Y108.5293 I-4.5875 J0.0
G1 X-23.2112 Y112.1042
G2 X-23.4125 Y112.831 I1.2112 J0.7267
G1 Y129.0
G3 X-27.9125 Y133.5867 I-4.5875 J0.0
G3 X-28.0 Y133.5875 Z-1.532 I-0.0875 J-4.5867
G1 X-31.0 Z0.8
G1 X-34.0875 Z-1.6
G1 X-34.2
G3 X-35.0 Y133.3712 I0.0 J-1.5875
G3 X-35.8 Y133.5875 I-0.8 J-1.3712
G1 X-42.0
G3 X-46.5875 Y129.0 I0.0 J-4.5875
G1 Y112.831
G2 X-46.7888 Y112.1042 I-1.4125 J0.0
G1 X-48.9337 Y108.5293
G3 X-49.5875 Y106.1691 I3.9337 J-2.3602
G0 Z2.0
G0 X-140.4125 Y106.169
G1 F200.0 Z-0.4
G3 F450.0 X-141.0663 Y108.5293 I-4.5875 J0.0
G1 X-143.2112 Y112.1042
G2 X-143.4125 Y112.831 I1.2112 J0.7267
G1 Y129.0
G3 X-147.9125 Y133.5867 I-4.5875 J0.0
G3 X-148.0 Y133.5875 Z-0.366 I-0.0875 J-4.5867
G1 X-151.0 Z0.8
G1 X-154.0875 Z-0.4
G1 X-154.2
G3 X-155.0 Y133.3712 I0.0 J-1.5875
G3 X-155.8 Y133.5875 I-0.8 J-1.3712
G1 X-162.0
G3 X-166.5875 Y129.0 I0.0 J-4.5875
G1 Y112.831
G2 X-166.7888 Y112.1042 I-1.4125 J0.0
G1 X-168.9337 Y108.5293
G3 X-169.5875 Y106.169 I3.9337 J-2.3602
G1 Y71.0961
G1 Y71.0875 Z-0.3966
G1 Y68.0086 Z0.8
G1 Y68.0
G1 Y64.9211 Z-0.3966
G1 Y64.9125 Z-0.4
G1 Y55.5
G3 X-168.0 Y53.9125 I1.5875 J0.0
G1 X-167.5
G2 X-164.0875 Y50.5 I0.0 J-3.4125
G1 Y27.5
G2 X-167.5 Y24.0875 I-3.4125 J0.0
G1 X-168.0
G3 X-169.5875 Y22.5 I0.0 J-1.5875
G1 Y16.5
G3 X-168.0 Y14.9125 I1.5875 J0.0
G1 X-158.0875
G1 X-155.0 Z0.8
G1 X-151.9125 Z-0.4
G1 X-142.0
G3 X-140.4125 Y16.5 I0.0 J1.5875
G1 Y22.5
G3 X-142.0 Y24.0875 I-1.5875 J0.0
G1 X-142.5
G2 X-145.9125 Y27.5 I0.0 J3.4125
G1 Y50.5
G2 X-142.5 Y53.9125 I3.4125 J0.0
G1 X-142.0
G3 X-140.4125 Y55.5 I0.0 J1.5875
G1 Y64.9125
G1 Y64.9211 Z-0.3966
G1 Y68.0 Z0.8
G1 Y68.0086
G1 Y71.0875 Z-0.3966
G1 Y71.0961 Z-0.4
G1 Y106.169
G1 F200.0 X-139.5875
G1 Z-0.8
G1 F450.0 Y71.0961
G1 Y71.0875 Z-0.7955
G1 Y68.0086 Z0.8
G1 Y68.0
G1 Y64.9211 Z-0.7955
G1 Y64.9125 Z-0.8
G1 Y55.5
G3 X-138.0 Y53.9125 I1.5875 J0.0
G1 X-137.5
G2 X-134.0875 Y50.5 I0.0 J-3.4125
G1 Y27.5
G2 X-137.5 Y24.0875 I-3.4125 J0.0
G1 X-138.0
G3 X-139.5875 Y22.5 I0.0 J-1.5875
G1 Y16.5
G3 X-138.0 Y14.9125 I1.5875 J0.0
G1 X-128.0875
G1 X-125.0 Z0.8
G1 X-121.9125 Z-0.8
G1 X-112.0
G3 X-110.4125 Y16.5 I0.0 J1.5875
G1 Y22.5
G3 X-112.0 Y24.0875 I-1.5875 J0.0
G1 X-112.5
G2 X-115.9125 Y27.5 I0.0 J3.4125
G1 Y50.5
G2 X-112.5 Y53.9125 I3.4125 J0.0
G1 X-112.0
G3 X-110.4125 Y55.5 I0.0 J1.5875
G1 Y64.9125
G1 Y64.9211 Z-0.7955
G1 Y68.0 Z0.8
G1 Y68.0086
G1 Y71.0875 Z-0.7955
G1 Y71.0961 Z-0.8
G1 Y106.169
G3 X-111.0663 Y108.5293 I-4.5875 J0.0
G1 X-113.2112 Y112.1042
G2 X-113.4125 Y112.831 I1.2112 J0.7267
G1 Y129.0
G3 X-117.9125 Y133.5867 I-4.5875 J0.0
G3 X-118.0 Y133.5875 Z-0.7547 I-0.0875 J-4.5867
G1 X-121.0 Z0.8
G1 X-124.0875 Z-0.8
G1 X-124.2
G3 X-125.0 Y133.3712 I0.0 J-1.5875
G3 X-125.8 Y133.5875 I-0.8 J-1.3712
G1 X-132.0
G3 X-136.5875 Y129.0 I0.0 J-4.5875
G1 Y112.831
G2 X-136.7888 Y112.1042 I-1.4125 J0.0
G1 X-138.9337 Y108.5293
G3 X-139.5875 Y106.169 I3.9337 J-2.3602
G0 Z2.0
G0 X-109.5875
G1 F200.0 Z-1.2
G1 F450.0 Y71.0961
G1 Y71.0875 Z-1.1944
G1 Y68.0086 Z0.8
G1 Y68.0
G1 Y64.9211 Z-1.1944
G1 Y64.9125 Z-1.2
G1 Y55.5
G3 X-108.0 Y53.9125 I1.5875 J0.0
G1 X-107.5
G2 X-104.0875 Y50.5 I0.0 J-3.4125
G1 Y27.5
G2 X-107.5 Y24.0875 I-3.4125 J0.0
G1 X-108.0
G3 X-109.5875 Y22.5 I0.0 J-1.5875
G1 Y16.5
G3 X-108.0 Y14.9125 I1.5875 J0.0
G1 X-98.0875
G1 X-95.0 Z0.8
G1 X-91.9125 Z-1.2
G1 X-82.0
G3 X-80.4125 Y16.5 I0.0 J1.5875
G1 Y22.5
G3 X-82.0 Y24.0875 I-1.5875 J0.0
G1 X-82.5
G2 X-85.9125 Y27.5 I0.0 J3.4125
G1 Y50.5
G2 X-82.5 Y53.9125 I3.4125 J0.0
G1 X-82.0
G3 X-80.4125 Y55.5 I0.0 J1.5875
G1 Y64.9125
G1 Y64.9211 Z-1.1944
G1 Y68.0 Z0.8
G1 Y68.0086
G1 Y71.0875 Z-1.1944
G1 Y71.0961 Z-1.2
G1 Y106.169
G3 X-81.0663 Y108.5293 I-4.5875 J0.0
G1 X-83.2112 Y112.1042
G2 X-83.4125 Y112.831 I1.2112 J0.7267
G1 Y129.0
G3 X-87.9125 Y133.5867 I-4.5875 J0.0
G3 X-88.0 Y133.5875 Z-1.1433 I-0.0875 J-4.5867
G1 X-91.0 Z0.8
G1 X-94.0875 Z-1.2
G1 X-94.2
G3 X-95.0 Y133.3712 I0.0 J-1.5875
G3 X-95.8 Y133.5875 I-0.8 J-1.3712
G1 X-102.0
G3 X-106.5875 Y129.0 I0.0 J-4.5875
G1 Y112.831
G2 X-106.7888 Y112.1042 I-1.4125 J0.0
G1 X-108.9337 Y108.5293
G3 X-109.5875 Y106.169 I3.9337 J-2.3602
G0 Z2.0
G0 X-79.5875
G1 F200.0 Z-1.6
G1 F450.0 Y71.0961
G1 Y71.0875 Z-1.5933
G1 Y68.0086 Z0.8
G1 Y68.0
G1 Y64.9211 Z-1.5933
G1 Y64.9125 Z-1.6
G1 Y55.5
G3 X-78.0 Y53.9125 I1.5875 J0.0
G1 X-77.5
G2 X-74.0875 Y50.5 I0.0 J-3.4125
G1 Y27.5
G2 X-77.5 Y24.0875 I-3.4125 J0.0
G1 X-78.0
G3 X-79.5875 Y22.5 I0.0 J-1.5875
G1 Y16.5
G3 X-78.0 Y14.9125 I1.5875 J0.0
G1 X-68.0875
G1 X-65.0 Z0.8
G1 X-61.9125 Z-1.6
G1 X-52.0
G3 X-50.4125 Y16.5 I0.0 J1.5875
G1 Y22.5
G3 X-52.0 Y24.0875 I-1.5875 J0.0
G1 X-52.5
G2 X-55.9125 Y27.5 I0.0 J3.4125
G1 Y50.5
G2 X-52.5 Y53.9125 I3.4125 J0.0
G1 X-52.0
G3 X-50.4125 Y55.5 I0.0 J1.5875
G1 Y64.9125
G1 Y64.9211 Z-1.5933
G1 Y68.0 Z0.8
G1 Y68.0086
G1 Y71.0875 Z-1.5933
G1 Y71.0961 Z-1.6
G1 Y106.169
G3 X-51.0663 Y108.5293 I-4.5875 J0.0
G1 X-53.2112 Y112.1042
G2 X-53.4125 Y112.831 I1.2112 J0.7267
G1 Y129.0
G3 X-57.9125 Y133.5867 I-4.5875 J0.0
G3 X-58.0 Y133.5875 Z-1.532 I-0.0875 J-4.5867
G1 X-61.0 Z0.8
G1 X-64.0875 Z-1.6
G1 X-64.2
G3 X-65.0 Y133.3712 I0.0 J-1.5875
G3 X-65.8 Y133.5875 I-0.8 J-1.3712
G1 X-72.0
G3 X-76.5875 Y129.0 I0.0 J-4.5875
G1 Y112.831
G2 X-76.7888 Y112.1042 I-1.4125 J0.0
G1 X-78.9337 Y108.5293
G3 X-79.5875 Y106.169 I3.9337 J-2.3602
G0 Z2.0
G0 X-49.5875
G1 F200.0 Z-2.0
G1 F450.0 Y71.0961
G1 Y71.0875 Z-1.9922
G1 Y68.0086 Z0.8
G1 Y68.0
G1 Y64.9211 Z-1.9922
G1 Y64.9125 Z-2.0
G1 Y55.5
G3 X-48.0 Y53.9125 I1.5875 J0.0
G1 X-47.5
G2 X-44.0875 Y50.5 I0.0 J-3.4125
G1 Y27.5
G2 X-47.5 Y24.0875 I-3.4125 J0.0
G1 X-48.0
G3 X-49.5875 Y22.5 I0.0 J-1.5875
G1 Y16.5
G3 X-48.0 Y14.9125 I1.5875 J0.0
G1 X-37.0875
G1 X-34.0 Z0.8
G1 X-30.9125 Z-2.0
G1 X-22.0
G3 X-20.4125 Y16.5 I0.0 J1.5875
G1 Y22.5
G3 X-22.0 Y24.0875 I-1.5875 J0.0
G1 X-22.5
G2 X-25.9125 Y27.5 I0.0 J3.4125
G1 Y50.5
G2 X-22.5 Y53.9125 I3.4125 J0.0
G1 X-22.0
G3 X-20.4125 Y55.5 I0.0 J1.5875
G1 Y64.9125
G1 Y68.0 Z0.8
G1 Y71.0875 Z-2.0
G1 Y106.169
G3 X-21.0663 Y108.5293 I-4.5875 J0.0
G1 X-23.2112 Y112.1042
G2 X-23.4125 Y112.831 I1.2112 J0.7267
G1 Y129.0
G3 X-27.9125 Y133.5867 I-4.5875 J0.0
G3 X-28.0 Y133.5875 Z-1.9206 I-0.0875 J-4.5867
G1 X-31.0 Z0.8
G1 X-34.0875 Z-2.0
G1 X-34.2
G3 X-35.0 Y133.3712 I0.0 J-1.5875
G3 X-35.8 Y133.5875 I-0.8 J-1.3712
G1 X-42.0
G3 X-46.5875 Y129.0 I0.0 J-4.5875
G1 Y112.831
G2 X-46.7888 Y112.1042 I-1.4125 J0.0
G1 X-48.9337 Y108.5293
G3 X-49.5875 Y106.169 I3.9337 J-2.3602
G0 Z2.0
G0 X-170.4125
G1 F200.0 Z-0.4
G3 F450.0 X-171.0663 Y108.5293 I-4.5875 J0.0
G1 X-173.2112 Y112.1042
G2 X-173.4125 Y112.831 I1.2112 J0.7267
G1 Y129.0
G3 X-177.9125 Y133.5867 I-4.5875 J0.0
G3 X-178.0 Y133.5875 Z-0.366 I-0.0875 J-4.5867
G1 X-181.0 Z0.8
G1 X-184.0875 Z-0.4
G1 X-184.2
G3 X-185.0 Y133.3712 I0.0 J-1.5875
G3 X-185.8 Y133.5875 I-0.8 J-1.3712
G1 X-192.0
G3 X-196.5875 Y129.0 I0.0 J-4.5875
G1 Y112.831
G2 X-196.7888 Y112.1042 I-1.4125 J0.0
G1 X-198.9337 Y108.5293
G3 X-199.5875 Y106.169 I3.9337 J-2.3602
G1 Y71.0961
G1 Y71.0875 Z-0.3966
G1 Y68.0086 Z0.8
G1 Y68.0
G1 Y64.9211 Z-0.3966
G1 Y64.9125 Z-0.4
G1 Y55.5
G3 X-198.0 Y53.9125 I1.5875 J0.0
G1 X-197.5
G2 X-194.0875 Y50.5 I0.0 J-3.4125
G1 Y27.5
G2 X-197.5 Y24.0875 I-3.4125 J0.0
G1 X-198.0
G3 X-199.5875 Y22.5 I0.0 J-1.5875
G1 Y16.5
G3 X-198.0 Y14.9125 I1.5875 J0.0
G1 X-188.0875
G1 X-185.0 Z0.8
G1 X-181.9125 Z-0.4
G1 X-172.0
G3 X-170.4125 Y16.5 I0.0 J1.5875
G1 Y22.5
G3 X-172.0 Y24.0875 I-1.5875 J0.0
G1 X-172.5
G2 X-175.9125 Y27.5 I0.0 J3.4125
G1 Y50.5
G2 X-172.5 Y53.9125 I3.4125 J0.0
G1 X-172.0
G3 X-170.4125 Y55.5 I0.0 J1.5875
G1 Y64.9125
G1 Y64.9211 Z-0.3966
G1 Y68.0 Z0.8
G1 Y68.0086
G1 Y71.0875 Z-0.3966
G1 Y71.0961 Z-0.4
G1 Y106.169
G1 F200.0 X-169.5875
G1 Z-0.8
G1 F450.0 Y71.0961
G1 Y71.0875 Z-0.7955
G1 Y68.0086 Z0.8
G1 Y68.0
G1 Y64.9211 Z-0.7955
G1 Y64.9125 Z-0.8
G1 Y55.5
G3 X-168.0 Y53.9125 I1.5875 J0.0
G1 X-167.5
G2 X-164.0875 Y50.5 I0.0 J-3.4125
G1 Y27.5
G2 X-167.5 Y24.0875 I-3.4125 J0.0
G1 X-168.0
G3 X-169.5875 Y22.5 I0.0 J-1.5875
G1 Y16.5
G3 X-168.0 Y14.9125 I1.5875 J0.0
G1 X-158.0875
G1 X-155.0 Z0.8
G1 X-151.9125 Z-0.8
G1 X-142.0
G3 X-140.4125 Y16.5 I0.0 J1.5875
G1 Y22.5
G3 X-142.0 Y24.0875 I-1.5875 J0.0
G1 X-142.5
G2 X-145.9125 Y27.5 I0.0 J3.4125
G1 Y50.5
G2 X-142.5 Y53.9125 I3.4125 J0.0
G1 X-142.0
G3 X-140.4125 Y55.5 I0.0 J1.5875
G1 Y64.9125
G1 Y64.9211 Z-0.7955
G1 Y68.0 Z0.8
G1 Y68.0086
G1 Y71.0875 Z-0.7955
G1 Y71.0961 Z-0.8
G1 Y106.169
G3 X-141.0663 Y108.5293 I-4.5875 J0.0
G1 X-143.2112 Y112.1042
G2 X-143.4125 Y112.831 I1.2112 J0.7267
G1 Y129.0
G3 X-147.9125 Y133.5867 I-4.5875 J0.0
G3 X-148.0 Y133.5875 Z-0.7547 I-0.0875 J-4.5867
G1 X-151.0 Z0.8
G1 X-154.0875 Z-0.8
G1 X-154.2
G3 X-155.0 Y133.3712 I0.0 J-1.5875
G3 X-155.8 Y133.5875 I-0.8 J-1.3712
G1 X-162.0
G3 X-166.5875 Y129.0 I0.0 J-4.5875
G1 Y112.831
G2 X-166.7888 Y112.1042 I-1.4125 J0.0
G1 X-168.9337 Y108.5293
G3 X-169.5875 Y106.169 I3.9337 J-2.3602
G0 Z2.0
G0 X-139.5875
G1 F200.0 Z-1.2
G1 F450.0 Y71.0961
G1 Y71.0875 Z-1.1944
G1 Y68.0086 Z0.8
G1 Y68.0
G1 Y64.9211 Z-1.1944
G1 Y64.9125 Z-1.2
G1 Y55.5
G3 X-138.0 Y53.9125 I1.5875 J0.0
G1 X-137.5
G2 X-134.0875 Y50.5 I0.0 J-3.4125
G1 Y27.5
G2 X-137.5 Y24.0875 I-3.4125 J0.0
G1 X-138.0
G3 X-139.5875 Y22.5 I0.0 J-1.5875
G1 Y16.5
G3 X-138.0 Y14.9125 I1.5875 J0.0
G1 X-128.0875
G1 X-125.0 Z0.8
G1 X-121.9125 Z-1.2
G1 X-112.0
G3 X-110.4125 Y16.5 I0.0 J1.5875
G1 Y22.5
G3 X-112.0 Y24.0875 I-1.5875 J0.0
G1 X-112.5
G2 X-115.9125 Y27.5 I0.0 J3.4125
G1 Y50.5
G2 X-112.5 Y53.9125 I3.4125 J0.0
G1 X-112.0
G3 X-110.4125 Y55.5 I0.0 J1.5875
G1 Y64.9125
G1 Y64.9211 Z-1.1944
G1 Y68.0 Z0.8
G1 Y68.0086
G1 Y71.0875 Z-1.1944
G1 Y71.0961 Z-1.2
G1 Y106.169
G3 X-111.0663 Y108.5293 I-4.5875 J0.0
G1 X-113.2112 Y112.1042
G2 X-113.4125 Y112.831 I1.2112 J0.7267
G1 Y129.0
G3 X-117.9125 Y133.5867 I-4.5875 J0.0
G3 X-118.0 Y133.5875 Z-1.1433 I-0.0875 J-4.5867
G1 X-121.0 Z0.8
G1 X-124.0875 Z-1.2
G1 X-124.2
G3 X-125.0 Y133.3712 I0.0 J-1.5875
G3 X-125.8 Y133.5875 I-0.8 J-1.3712
G1 X-132.0
G3 X-136.5875 Y129.0 I0.0 J-4.5875
G1 Y112.831
G2 X-136.7888 Y112.1042 I-1.4125 J0.0
G1 X-138.9337 Y108.5293
G3 X-139.5875 Y106.169 I3.9337 J-2.3602
G0 Z2.0
G0 X-109.5875
G1 F200.0 Z-1.6
G1 F450.0 Y71.0961
G1 Y71.0875 Z-1.5933
G1 Y68.0086 Z0.8
G1 Y68.0
G1 Y64.9211 Z-1.5933
G1 Y64.9125 Z-1.6
G1 Y55.5
G3 X-108.0 Y53.9125 I1.5875 J0.0
G1 X-107.5
G2 X-104.0875 Y50.5 I0.0 J-3.4125
G1 Y27.5
G2 X-107.5 Y24.0875 I-3.4125 J0.0
G1 X-108.0
G3 X-109.5875 Y22.5 I0.0 J-1.5875
G1 Y16.5
G3 X-108.0 Y14.9125 I1.5875 J0.0
G1 X-98.0875
G1 X-95.0 Z0.8
G1 X-91.9125 Z-1.6
G1 X-82.0
G3 X-80.4125 Y16.5 I0.0 J1.5875
G1 Y22.5
G3 X-82.0 Y24.0875 I-1.5875 J0.0
G1 X-82.5
G2 X-85.9125 Y27.5 I0.0 J3.4125
G1 Y50.5
G2 X-82.5 Y53.9125 I3.4125 J0.0
G1 X-82.0
G3 X-80.4125 Y55.5 I0.0 J1.5875
G1 Y64.9125
G1 Y64.9211 Z-1.5933
G1 Y68.0 Z0.8
G1 Y68.0086
G1 Y71.0875 Z-1.5933
G1 Y71.0961 Z-1.6
G1 Y106.169
G3 X-81.0663 Y108.5293 I-4.5875 J0.0
G1 X-83.2112 Y112.1042
G2 X-83.4125 Y112.831 I1.2112 J0.7267
G1 Y129.0
G3 X-87.9125 Y133.5867 I-4.5875 J0.0
G3 X-88.0 Y133.5875 Z-1.532 I-0.0875 J-4.5867
G1 X-91.0 Z0.8
G1 X-94.0875 Z-1.6
G1 X-94.2
G3 X-95.0 Y133.3712 I0.0 J-1.5875
G3 X-95.8 Y133.5875 I-0.8 J-1.3712
G1 X-102.0
G3 X-106.5875 Y129.0 I0.0 J-4.5875
G1 Y112.831
G2 X-106.7888 Y112.1042 I-1.4125 J0.0
G1 X-108.9337 Y108.5293
G3 X-109.5875 Y106.169 I3.9337 J-2.3602
G0 Z2.0
G0 X-79.5875
G1 F200.0 Z-2.0
G1 F450.0 Y71.0961
G1 Y71.0875 Z-1.9922
G1 Y68.0086 Z0.8
G1 Y68.0
G1 Y64.9211 Z-1.9922
G1 Y64.9125 Z-2.0
G1 Y55.5
G3 X-78.0 Y53.9125 I1.5875 J0.0
G1 X-77.5
G2 X-74.0875 Y50.5 I0.0 J-3.4125
G1 Y27.5
G2 X-77.5 Y24.0875 I-3.4125 J0.0
G1 X-78.0
G3 X-79.5875 Y22.5 I0.0 J-1.5875
G1 Y16.5
G3 X-78.0 Y14.9125 I1.5875 J0.0
G1 X-68.0875
G1 X-65.0 Z0.8
G1 X-61.9125 Z-2.0
G1 X-52.0
G3 X-50.4125 Y16.5 I0.0 J1.5875
G1 Y22.5
G3 X-52.0 Y24.0875 I-1.5875 J0.0
G1 X-52.5
G2 X-55.9125 Y27.5 I0.0 J3.4125
G1 Y50.5
G2 X-52.5 Y53.9125 I3.4125 J0.0
G1 X-52.0
G3 X-50.4125 Y55.5 I0.0 J1.5875
G1 Y64.9125
G1 Y64.9211 Z-1.9922
G1 Y68.0 Z0.8
G1 Y68.0086
G1 Y71.0875 Z-1.9922
G1 Y71.0961 Z-2.0
G1 Y106.169
G3 X-51.0663 Y108.5293 I-4.5875 J0.0
G1 X-53.2112 Y112.1042
G2 X-53.4125 Y112.831 I1.2112 J0.7267
G1 Y129.0
G3 X-57.9125 Y133.5867 I-4.5875 J0.0
G3 X-58.0 Y133.5875 Z-1.9206 I-0.0875 J-4.5867
G1 X-61.0 Z0.8
G1 X-64.0875 Z-2.0
G1 X-64.2
G3 X-65.0 Y133.3712 I0.0 J-1.5875
G3 X-65.8 Y133.5875 I-0.8 J-1.3712
G1 X-72.0
G3 X-76.5875 Y129.0 I0.0 J-4.5875
G1 Y112.831
G2 X-76.7888 Y112.1042 I-1.4125 J0.0
G1 X-78.9337 Y108.5293
G3 X-79.5875 Y106.169 I3.9337 J-2.3602
G0 Z2.0
G0 X-49.5875
G1 F200.0 Z-2.4
G1 F450.0 Y71.0961
G1 Y71.0875 Z-2.391
G1 Y68.0086 Z0.8
G1 Y68.0
G1 Y64.9211 Z-2.391
G1 Y64.9125 Z-2.4
G1 Y55.5
G3 X-48.0 Y53.9125 I1.5875 J0.0
G1 X-47.5
G2 X-44.0875 Y50.5 I0.0 J-3.4125
G1 Y27.5
G2 X-47.5 Y24.0875 I-3.4125 J0.0
G1 X-48.0
G3 X-49.5875 Y22.5 I0.0 J-1.5875
G1 Y16.5
G3 X-48.0 Y14.9125 I1.5875 J0.0
G1 X-37.0875
G1 X-34.0 Z0.8
G1 X-30.9125 Z-2.4
G1 X-22.0
G3 X-20.4125 Y16.5 I0.0 J1.5875
G1 Y22.5
G3 X-22.0 Y24.0875 I-1.5875 J0.0
G1 X-22.5
G2 X-25.9125 Y27.5 I0.0 J3.4125
G1 Y50.5
G2 X-22.5 Y53.9125 I3.4125 J0.0
G1 X-22.0
G3 X-20.4125 Y55.5 I0.0 J1.5875
G1 Y64.9125
G1 Y68.0 Z0.8
G1 Y71.0875 Z-2.4
G1 Y106.169
G3 X-21.0663 Y108.5293 I-4.5875 J0.0
G1 X-23.2112 Y112.1042
G2 X-23.4125 Y112.831 I1.2112 J0.7267
G1 Y129.0
G3 X-27.9125 Y133.5867 I-4.5875 J0.0
G3 X-28.0 Y133.5875 Z-2.3093 I-0.0875 J-4.5867
G1 X-31.0 Z0.8
G1 X-34.0875 Z-2.4
G1 X-34.2
G3 X-35.0 Y133.3712 I0.0 J-1.5875
G3 X-35.8 Y133.5875 I-0.8 J-1.3712
G1 X-42.0
G3 X-46.5875 Y129.0 I0.0 J-4.5875
G1 Y112.831
G2 X-46.7888 Y112.1042 I-1.4125 J0.0
G1 X-48.9337 Y108.5293
G3 X-49.5875 Y106.169 I3.9337 J-2.3602
G0 Z2.0
G0 X-200.4125
G1 F200.0 Z-0.4
G3 F450.0 X-201.0663 Y108.5293 I-4.5875 J0.0
G1 X-203.2112 Y112.1042
G2 X-203.4125 Y112.831 I1.2112 J0.7267
G1 Y129.0
G3 X-207.9125 Y133.5867 I-4.5875 J0.0
G3 X-208.0 Y133.5875 Z-0.366 I-0.0875 J-4.5867
G1 X-211.0 Z0.8
G1 X-214.0875 Z-0.4
G1 X-214.2
G3 X-215.0 Y133.3712 I0.0 J-1.5875
G3 X-215.8 Y133.5875 I-0.8 J-1.3712
G1 X-222.0
G3 X-226.5875 Y129.0 I0.0 J-4.5875
G1 Y112.831
G2 X-226.7888 Y112.1042 I-1.4125 J0.0
G1 X-228.9337 Y108.5293
G3 X-229.5875 Y106.169 I3.9337 J-2.3602
G1 Y71.0961
G1 Y71.0875 Z-0.3966
G1 Y68.0086 Z0.8
G1 Y68.0
G1 Y64.9211 Z-0.3966
G1 Y64.9125 Z-0.4
G1 Y55.5
G3 X-228.0 Y53.9125 I1.5875 J0.0
G1 X-227.5
G2 X-224.0875 Y50.5 I0.0 J-3.4125
G1 Y27.5
G2 X-227.5 Y24.0875 I-3.4125 J0.0
G1 X-228.0
G3 X-229.5875 Y22.5 I0.0 J-1.5875
G1 Y16.5
G3 X-228.0 Y14.9125 I1.5875 J0.0
G1 X-218.0875
G1 X-215.0 Z0.8
G1 X-211.9125 Z-0.4
G1 X-202.0
G3 X-200.4125 Y16.5 I0.0 J1.5875
G1 Y22.5
G3 X-202.0 Y24.0875 I-1.5875 J0.0
G1 X-202.5
G2 X-205.9125 Y27.5 I0.0 J3.4125
G1 Y50.5
G2 X-202.5 Y53.9125 I3.4125 J0.0
G1 X-202.0
G3 X-200.4125 Y55.5 I0.0 J1.5875
G1 Y64.9125
G1 Y64.9211 Z-0.3966
G1 Y68.0 Z0.8
G1 Y68.0086
G1 Y71.0875 Z-0.3966
G1 Y71.0961 Z-0.4
G1 Y106.169
G1 F200.0 X-199.5875
G1 Z-0.8
G1 F450.0 Y71.0961
G1 Y71.0875 Z-0.7955
G1 Y68.0086 Z0.8
G1 Y68.0
G1 Y64.9211 Z-0.7955
G1 Y64.9125 Z-0.8
G1 Y55.5
G3 X-198.0 Y53.9125 I1.5875 J0.0
G1 X-197.5
G2 X-194.0875 Y50.5 I0.0 J-3.4125
G1 Y27.5
G2 X-197.5 Y24.0875 I-3.4125 J0.0
G1 X-198.0
G3 X-199.5875 Y22.5 I0.0 J-1.5875
G1 Y16.5
G3 X-198.0 Y14.9125 I1.5875 J0.0
G1 X-188.0875
G1 X-185.0 Z0.8
G1 X-181.9125 Z-0.8
G1 X-172.0
G3 X-170.4125 Y16.5 I0.0 J1.5875
G1 Y22.5
G3 X-172.0 Y24.0875 I-1.5875 J0.0
G1 X-172.5
G2 X-175.9125 Y27.5 I0.0 J3.4125
G1 Y50.5
G2 X-172.5 Y53.9125 I3.4125 J0.0
G1 X-172.0
G3 X-170.4125 Y55.5 I0.0 J1.5875
G1 Y64.9125
G1 Y64.9211 Z-0.7955
G1 Y68.0 Z0.8
G1 Y68.0086
G1 Y71.0875 Z-0.7955
G1 Y71.0961 Z-0.8
G1 Y106.169
G3 X-171.0663 Y108.5293 I-4.5875 J0.0
G1 X-173.2112 Y112.1042
G2 X-173.4125 Y112.831 I1.2112 J0.7267
G1 Y129.0
G3 X-177.9125 Y133.5867 I-4.5875 J0.0
G3 X-178.0 Y133.5875 Z-0.7547 I-0.0875 J-4.5867
G1 X-181.0 Z0.8
G1 X-184.0875 Z-0.8
G1 X-184.2
G3 X-185.0 Y133.3712 I0.0 J-1.5875
G3 X-185.8 Y133.5875 I-0.8 J-1.3712
G1 X-192.0
G3 X-196.5875 Y129.0 I0.0 J-4.5875
G1 Y112.831
G2 X-196.7888 Y112.1042 I-1.4125 J0.0
G1 X-198.9337 Y108.5293
G3 X-199.5875 Y106.169 I3.9337 J-2.3602
G0 Z2.0
G0 X-169.5875
G1 F200.0 Z-1.2
G1 F450.0 Y71.0961
G1 Y71.0875 Z-1.1944
G1 Y68.0086 Z0.8
G1 Y68.0
G1 Y64.9211 Z-1.1944
G1 Y64.9125 Z-1.2
G1 Y55.5
G3 X-168.0 Y53.9125 I1.5875 J0.0
G1 X-167.5
G2 X-164.0875 Y50.5 I0.0 J-3.4125
G1 Y27.5
G2 X-167.5 Y24.0875 I-3.4125 J0.0
G1 X-168.0
G3 X-169.5875 Y22.5 I0.0 J-1.5875
G1 Y16.5
G3 X-168.0 Y14.9125 I1.5875 J0.0
G1 X-158.0875
G1 X-155.0 Z0.8
G1 X-151.9125 Z-1.2
G1 X-142.0
G3 X-140.4125 Y16.5 I0.0 J1.5875
G1 Y22.5
G3 X-142.0 Y24.0875 I-1.5875 J0.0
G1 X-142.5
G2 X-145.9125 Y27.5 I0.0 J3.4125
G1 Y50.5
G2 X-142.5 Y53.9125 I3.4125 J0.0
G1 X-142.0
G3 X-140.4125 Y55.5 I0.0 J1.5875
G1 Y64.9125
G1 Y64.9211 Z-1.1944
G1 Y68.0 Z0.8
G1 Y68.0086
G1 Y71.0875 Z-1.1944
G1 Y71.0961 Z-1.2
G1 Y106.169
G3 X-141.0663 Y108.5293 I-4.5875 J0.0
G1 X-143.2112 Y112.1042
G2 X-143.4125 Y112.831 I1.2112 J0.7267
G1 Y129.0
G3 X-147.9125 Y133.5867 I-4.5875 J0.0
G3 X-148.0 Y133.5875 Z-1.1433 I-0.0875 J-4.5867
G1 X-151.0 Z0.8
G1 X-154.0875 Z-1.2
G1 X-154.2
G3 X-155.0 Y133.3712 I0.0 J-1.5875
G3 X-155.8 Y133.5875 I-0.8 J-1.3712
G1 X-162.0
G3 X-166.5875 Y129.0 I0.0 J-4.5875
G1 Y112.831
G2 X-166.7888 Y112.1042 I-1.4125 J0.0
G1 X-168.9337 Y108.5293
G3 X-169.5875 Y106.169 I3.9337 J-2.3602
G0 Z2.0
G0 X-139.5875
G1 F200.0 Z-1.6
G1 F450.0 Y71.0961
G1 Y71.0875 Z-1.5933
G1 Y68.0086 Z0.8
G1 Y68.0
G1 Y64.9211 Z-1.5933
G1 Y64.9125 Z-1.6
G1 Y55.5
G3 X-138.0 Y53.9125 I1.5875 J0.0
G1 X-137.5
G2 X-134.0875 Y50.5 I0.0 J-3.4125
G1 Y27.5
G2 X-137.5 Y24.0875 I-3.4125 J0.0
G1 X-138.0
G3 X-139.5875 Y22.5 I0.0 J-1.5875
G1 Y16.5
G3 X-138.0 Y14.9125 I1.5875 J0.0
G1 X-128.0875
G1 X-125.0 Z0.8
G1 X-121.9125 Z-1.6
G1 X-112.0
G3 X-110.4125 Y16.5 I0.0 J1.5875
G1 Y22.5
G3 X-112.0 Y24.0875 I-1.5875 J0.0
G1 X-112.5
G2 X-115.9125 Y27.5 I0.0 J3.4125
G1 Y50.5
G2 X-112.5 Y53.9125 I3.4125 J0.0
G1 X-112.0
G3 X-110.4125 Y55.5 I0.0 J1.5875
G1 Y64.9125
G1 Y64.9211 Z-1.5933
G1 Y68.0 Z0.8
G1 Y68.0086
G1 Y71.0875 Z-1.5933
G1 Y71.0961 Z-1.6
G1 Y106.169
G3 X-111.0663 Y108.5293 I-4.5875 J0.0
G1 X-113.2112 Y112.1042
G2 X-113.4125 Y112.831 I1.2112 J0.7267
G1 Y129.0
G3 X-117.9125 Y133.5867 I-4.5875 J0.0
G3 X-118.0 Y133.5875 Z-1.532 I-0.0875 J-4.5867
G1 X-121.0 Z0.8
G1 X-124.0875 Z-1.6
G1 X-124.2
G3 X-125.0 Y133.3712 I0.0 J-1.5875
G3 X-125.8 Y133.5875 I-0.8 J-1.3712
G1 X-132.0
G3 X-136.5875 Y129.0 I0.0 J-4.5875
G1 Y112.831
G2 X-136.7888 Y112.1042 I-1.4125 J0.0
G1 X-138.9337 Y108.5293
G3 X-139.5875 Y106.169 I3.9337 J-2.3602
G0 Z2.0
G0 X-109.5875
G1 F200.0 Z-2.0
G1 F450.0 Y71.0961
G1 Y71.0875 Z-1.9922
G1 Y68.0086 Z0.8
G1 Y68.0
G1 Y64.9211 Z-1.9922
G1 Y64.9125 Z-2.0
G1 Y55.5
G3 X-108.0 Y53.9125 I1.5875 J0.0
G1 X-107.5
G2 X-104.0875 Y50.5 I0.0 J-3.4125
G1 Y27.5
G2 X-107.5 Y24.0875 I-3.4125 J0.0
G1 X-108.0
G3 X-109.5875 Y22.5 I0.0 J-1.5875
G1 Y16.5
G3 X-108.0 Y14.9125 I1.5875 J0.0
G1 X-98.0875
G1 X-95.0 Z0.8
G1 X-91.9125 Z-2.0
G1 X-82.0
G3 X-80.4125 Y16.5 I0.0 J1.5875
G1 Y22.5
G3 X-82.0 Y24.0875 I-1.5875 J0.0
G1 X-82.5
G2 X-85.9125 Y27.5 I0.0 J3.4125
G1 Y50.5
G2 X-82.5 Y53.9125 I3.4125 J0.0
G1 X-82.0
G3 X-80.4125 Y55.5 I0.0 J1.5875
G1 Y64.9125
G1 Y64.9211 Z-1.9922
G1 Y68.0 Z0.8
G1 Y68.0086
G1 Y71.0875 Z-1.9922
G1 Y71.0961 Z-2.0
G1 Y106.169
G3 X-81.0663 Y108.5293 I-4.5875 J0.0
G1 X-83.2112 Y112.1042
G2 X-83.4125 Y112.831 I1.2112 J0.7267
G1 Y129.0
G3 X-87.9125 Y133.5867 I-4.5875 J0.0
G3 X-88.0 Y133.5875 Z-1.9206 I-0.0875 J-4.5867
G1 X-91.0 Z0.8
G1 X-94.0875 Z-2.0
G1 X-94.2
G3 X-95.0 Y133.3712 I0.0 J-1.5875
G3 X-95.8 Y133.5875 I-0.8 J-1.3712
G1 X-102.0
G3 X-106.5875 Y129.0 I0.0 J-4.5875
G1 Y112.831
G2 X-106.7888 Y112.1042 I-1.4125 J0.0
G1 X-108.9337 Y108.5293
G3 X-109.5875 Y106.169 I3.9337 J-2.3602
G0 Z2.0
G0 X-79.5875
G1 F200.0 Z-2.4
G1 F450.0 Y71.0961
G1 Y71.0875 Z-2.391
G1 Y68.0086 Z0.8
G1 Y68.0
G1 Y64.9211 Z-2.391
G1 Y64.9125 Z-2.4
G1 Y55.5
G3 X-78.0 Y53.9125 I1.5875 J0.0
G1 X-77.5
G2 X-74.0875 Y50.5 I0.0 J-3.4125
G1 Y27.5
G2 X-77.5 Y24.0875 I-3.4125 J0.0
G1 X-78.0
G3 X-79.5875 Y22.5 I0.0 J-1.5875
G1 Y16.5
G3 X-78.0 Y14.9125 I1.5875 J0.0
G1 X-68.0875
G1 X-65.0 Z0.8
G1 X-61.9125 Z-2.4
G1 X-52.0
G3 X-50.4125 Y16.5 I0.0 J1.5875
G1 Y22.5
G3 X-52.0 Y24.0875 I-1.5875 J0.0
G1 X-52.5
G2 X-55.9125 Y27.5 I0.0 J3.4125
G1 Y50.5
G2 X-52.5 Y53.9125 I3.4125 J0.0
G1 X-52.0
G3 X-50.4125 Y55.5 I0.0 J1.5875
G1 Y64.9125
G1 Y64.9211 Z-2.391
G1 Y68.0 Z0.8
G1 Y68.0086
G1 Y71.0875 Z-2.391
G1 Y71.0961 Z-2.4
G1 Y106.169
G3 X-51.0663 Y108.5293 I-4.5875 J0.0
G1 X-53.2112 Y112.1042
G2 X-53.4125 Y112.831 I1.2112 J0.7267
G1 Y129.0
G3 X-57.9125 Y133.5867 I-4.5875 J0.0
G3 X-58.0 Y133.5875 Z-2.3093 I-0.0875 J-4.5867
G1 X-61.0 Z0.8
G1 X-64.0875 Z-2.4
G1 X-64.2
G3 X-65.0 Y133.3712 I0.0 J-1.5875
G3 X-65.8 Y133.5875 I-0.8 J-1.3712
G1 X-72.0
G3 X-76.5875 Y129.0 I0.0 J-4.5875
G1 Y112.831
G2 X-76.7888 Y112.1042 I-1.4125 J0.0
G1 X-78.9337 Y108.5293
G3 X-79.5875 Y106.169 I3.9337 J-2.3602
G0 Z2.0
G0 X-230.4125
G1 F200.0 Z-0.4
G3 F450.0 X-231.0663 Y108.5293 I-4.5875 J0.0
G1 X-233.2112 Y112.1042
G2 X-233.4125 Y112.831 I1.2112 J0.7267
G1 Y129.0
G3 X-237.9125 Y133.5867 I-4.5875 J0.0
G3 X-238.0 Y133.5875 Z-0.366 I-0.0875 J-4.5867
G1 X-241.0 Z0.8
G1 X-244.0875 Z-0.4
G1 X-244.2
G3 X-245.0 Y133.3712 I0.0 J-1.5875
G3 X-245.8 Y133.5875 I-0.8 J-1.3712
G1 X-252.0
G3 X-256.5875 Y129.0 I0.0 J-4.5875
G1 Y112.831
G2 X-256.7888 Y112.1042 I-1.4125 J0.0
G1 X-258.9337 Y108.5293
G3 X-259.5875 Y106.169 I3.9337 J-2.3602
G1 Y71.0961
G1 Y71.0875 Z-0.3966
G1 Y68.0086 Z0.8
G1 Y68.0
G1 Y64.9211 Z-0.3966
G1 Y64.9125 Z-0.4
G1 Y55.5
G3 X-258.0 Y53.9125 I1.5875 J0.0
G1 X-257.5
G2 X-254.0875 Y50.5 I0.0 J-3.4125
G1 Y27.5
G2 X-257.5 Y24.0875 I-3.4125 J0.0
G1 X-258.0
G3 X-259.5875 Y22.5 I0.0 J-1.5875
G1 Y16.5
G3 X-258.0 Y14.9125 I1.5875 J0.0
G1 X-249.0875
G1 X-246.0 Z0.8
G1 X-242.9125 Z-0.4
G1 X-232.0
G3 X-230.4125 Y16.5 I0.0 J1.5875
G1 Y22.5
G3 X-232.0 Y24.0875 I-1.5875 J0.0
G1 X-232.5
G2 X-235.9125 Y27.5 I0.0 J3.4125
G1 Y50.5
G2 X-232.5 Y53.9125 I3.4125 J0.0
G1 X-232.0
G3 X-230.4125 Y55.5 I0.0 J1.5875
G1 Y64.9125
G1 Y64.9211 Z-0.3966
G1 Y68.0 Z0.8
G1 Y68.0086
G1 Y71.0875 Z-0.3966
G1 Y71.0961 Z-0.4
G1 Y106.169
G1 F200.0 X-229.5875
G1 Z-0.8
G1 F450.0 Y71.0961
G1 Y71.0875 Z-0.7955
G1 Y68.0086 Z0.8
G1 Y68.0
G1 Y64.9211 Z-0.7955
G1 Y64.9125 Z-0.8
G1 Y55.5
G3 X-228.0 Y53.9125 I1.5875 J0.0
G1 X-227.5
G2 X-224.0875 Y50.5 I0.0 J-3.4125
G1 Y27.5
G2 X-227.5 Y24.0875 I-3.4125 J0.0
G1 X-228.0
G3 X-229.5875 Y22.5 I0.0 J-1.5875
G1 Y16.5
G3 X-228.0 Y14.9125 I1.5875 J0.0
G1 X-218.0875
G1 X-215.0 Z0.8
G1 X-211.9125 Z-0.8
G1 X-202.0
G3 X-200.4125 Y16.5 I0.0 J1.5875
G1 Y22.5
G3 X-202.0 Y24.0875 I-1.5875 J0.0
G1 X-202.5
G2 X-205.9125 Y27.5 I0.0 J3.4125
G1 Y50.5
G2 X-202.5 Y53.9125 I3.4125 J0.0
G1 X-202.0
G3 X-200.4125 Y55.5 I0.0 J1.5875
G1 Y64.9125
G1 Y64.9211 Z-0.7955
G1 Y68.0 Z0.8
G1 Y68.0086
G1 Y71.0875 Z-0.7955
G1 Y71.0961 Z-0.8
G1 Y106.169
G3 X-201.0663 Y108.5293 I-4.5875 J0.0
G1 X-203.2112 Y112.1042
G2 X-203.4125 Y112.831 I1.2112 J0.7267
G1 Y129.0
G3 X-207.9125 Y133.5867 I-4.5875 J0.0
G3 X-208.0 Y133.5875 Z-0.7547 I-0.0875 J-4.5867
G1 X-211.0 Z0.8
G1 X-214.0875 Z-0.8
G1 X-214.2
G3 X-215.0 Y133.3712 I0.0 J-1.5875
G3 X-215.8 Y133.5875 I-0.8 J-1.3712
G1 X-222.0
G3 X-226.5875 Y129.0 I0.0 J-4.5875
G1 Y112.831
G2 X-226.7888 Y112.1042 I-1.4125 J0.0
G1 X-228.9337 Y108.5293
G3 X-229.5875 Y106.169 I3.9337 J-2.3602
G0 Z2.0
G0 X-199.5875
G1 F200.0 Z-1.2
G1 F450.0 Y71.0961
G1 Y71.0875 Z-1.1944
G1 Y68.0086 Z0.8
G1 Y68.0
G1 Y64.9211 Z-1.1944
G1 Y64.9125 Z-1.2
G1 Y55.5
G3 X-198.0 Y53.9125 I1.5875 J0.0
G1 X-197.5
G2 X-194.0875 Y50.5 I0.0 J-3.4125
G1 Y27.5
G2 X-197.5 Y24.0875 I-3.4125 J0.0
G1 X-198.0
G3 X-199.5875 Y22.5 I0.0 J-1.5875
G1 Y16.5
G3 X-198.0 Y14.9125 I1.5875 J0.0
G1 X-188.0875
G1 X-185.0 Z0.8
G1 X-181.9125 Z-1.2
G1 X-172.0
G3 X-170.4125 Y16.5 I0.0 J1.5875
G1 Y22.5
G3 X-172.0 Y24.0875 I-1.5875 J0.0
G1 X-172.5
G2 X-175.9125 Y27.5 I0.0 J3.4125
G1 Y50.5
G2 X-172.5 Y53.9125 I3.4125 J0.0
G1 X-172.0
G3 X-170.4125 Y55.5 I0.0 J1.5875
G1 Y64.9125
G1 Y64.9211 Z-1.1944
G1 Y68.0 Z0.8
G1 Y68.0086
G1 Y71.0875 Z-1.1944
G1 Y71.0961 Z-1.2
G1 Y106.169
G3 X-171.0663 Y108.5293 I-4.5875 J0.0
G1 X-173.2112 Y112.1042
G2 X-173.4125 Y112.831 I1.2112 J0.7267
G1 Y129.0
G3 X-177.9125 Y133.5867 I-4.5875 J0.0
G3 X-178.0 Y133.5875 Z-1.1433 I-0.0875 J-4.5867
G1 X-181.0 Z0.8
G1 X-184.0875 Z-1.2
G1 X-184.2
G3 X-185.0 Y133.3712 I0.0 J-1.5875
G3 X-185.8 Y133.5875 I-0.8 J-1.3712
G1 X-192.0
G3 X-196.5875 Y129.0 I0.0 J-4.5875
G1 Y112.831
G2 X-196.7888 Y112.1042 I-1.4125 J0.0
G1 X-198.9337 Y108.5293
G3 X-199.5875 Y106.169 I3.9337 J-2.3602
G0 Z2.0
G0 X-169.5875
G1 F200.0 Z-1.6
G1 F450.0 Y71.0961
G1 Y71.0875 Z-1.5933
G1 Y68.0086 Z0.8
G1 Y68.0
G1 Y64.9211 Z-1.5933
G1 Y64.9125 Z-1.6
G1 Y55.5
G3 X-168.0 Y53.9125 I1.5875 J0.0
G1 X-167.5
G2 X-164.0875 Y50.5 I0.0 J-3.4125
G1 Y27.5
G2 X-167.5 Y24.0875 I-3.4125 J0.0
G1 X-168.0
G3 X-169.5875 Y22.5 I0.0 J-1.5875
G1 Y16.5
G3 X-168.0 Y14.9125 I1.5875 J0.0
G1 X-158.0875
G1 X-155.0 Z0.8
G1 X-151.9125 Z-1.6
G1 X-142.0
G3 X-140.4125 Y16.5 I0.0 J1.5875
G1 Y22.5
G3 X-142.0 Y24.0875 I-1.5875 J0.0
G1 X-142.5
G2 X-145.9125 Y27.5 I0.0 J3.4125
G1 Y50.5
G2 X-142.5 Y53.9125 I3.4125 J0.0
G1 X-142.0
G3 X-140.4125 Y55.5 I0.0 J1.5875
G1 Y64.9125
G1 Y64.9211 Z-1.5933
G1 Y68.0 Z0.8
G1 Y68.0086
G1 Y71.0875 Z-1.5933
G1 Y71.0961 Z-1.6
G1 Y106.169
G3 X-141.0663 Y108.5293 I-4.5875 J0.0
G1 X-143.2112 Y112.1042
G2 X-143.4125 Y112.831 I1.2112 J0.7267
G1 Y129.0
G3 X-147.9125 Y133.5867 I-4.5875 J0.0
G3 X-148.0 Y133.5875 Z-1.532 I-0.0875 J-4.5867
G1 X-151.0 Z0.8
G1 X-154.0875 Z-1.6
G1 X-154.2
G3 X-155.0 Y133.3712 I0.0 J-1.5875
G3 X-155.8 Y133.5875 I-0.8 J-1.3712
G1 X-162.0
G3 X-166.5875 Y129.0 I0.0 J-4.5875
G1 Y112.831
G2 X-166.7888 Y112.1042 I-1.4125 J0.0
G1 X-168.9337 Y108.5293
G3 X-169.5875 Y106.169 I3.9337 J-2.3602
G0 Z2.0
G0 X-139.5875
G1 F200.0 Z-2.0
G1 F450.0 Y71.0961
G1 Y71.0875 Z-1.9922
G1 Y68.0086 Z0.8
G1 Y68.0
G1 Y64.9211 Z-1.9922
G1 Y64.9125 Z-2.0
G1 Y55.5
G3 X-138.0 Y53.9125 I1.5875 J0.0
G1 X-137.5
G2 X-134.0875 Y50.5 I0.0 J-3.4125
G1 Y27.5
G2 X-137.5 Y24.0875 I-3.4125 J0.0
G1 X-138.0
G3 X-139.5875 Y22.5 I0.0 J-1.5875
G1 Y16.5
G3 X-138.0 Y14.9125 I1.5875 J0.0
G1 X-128.0875
G1 X-125.0 Z0.8
G1 X-121.9125 Z-2.0
G1 X-112.0
G3 X-110.4125 Y16.5 I0.0 J1.5875
G1 Y22.5
G3 X-112.0 Y24.0875 I-1.5875 J0.0
G1 X-112.5
G2 X-115.9125 Y27.5 I0.0 J3.4125
G1 Y50.5
G2 X-112.5 Y53.9125 I3.4125 J0.0
G1 X-112.0
G3 X-110.4125 Y55.5 I0.0 J1.5875
G1 Y64.9125
G1 Y64.9211 Z-1.9922
G1 Y68.0 Z0.8
G1 Y68.0086
G1 Y71.0875 Z-1.9922
G1 Y71.0961 Z-2.0
G1 Y106.169
G3 X-111.0663 Y108.5293 I-4.5875 J0.0
G1 X-113.2112 Y112.1042
G2 X-113.4125 Y112.831 I1.2112 J0.7267
G1 Y129.0
G3 X-117.9125 Y133.5867 I-4.5875 J0.0
G3 X-118.0 Y133.5875 Z-1.9206 I-0.0875 J-4.5867
G1 X-121.0 Z0.8
G1 X-124.0875 Z-2.0
G1 X-124.2
G3 X-125.0 Y133.3712 I0.0 J-1.5875
G3 X-125.8 Y133.5875 I-0.8 J-1.3712
G1 X-132.0
G3 X-136.5875 Y129.0 I0.0 J-4.5875
G1 Y112.831
G2 X-136.7888 Y112.1042 I-1.4125 J0.0
G1 X-138.9337 Y108.5293
G3 X-139.5875 Y106.169 I3.9337 J-2.3602
G0 Z2.0
G0 X-109.5875
G1 F200.0 Z-2.4
G1 F450.0 Y71.0961
G1 Y71.0875 Z-2.391
G1 Y68.0086 Z0.8
G1 Y68.0
G1 Y64.9211 Z-2.391
G1 Y64.9125 Z-2.4
G1 Y55.5
G3 X-108.0 Y53.9125 I1.5875 J0.0
G1 X-107.5
G2 X-104.0875 Y50.5 I0.0 J-3.4125
G1 Y27.5
G2 X-107.5 Y24.0875 I-3.4125 J0.0
G1 X-108.0
G3 X-109.5875 Y22.5 I0.0 J-1.5875
G1 Y16.5
G3 X-108.0 Y14.9125 I1.5875 J0.0
G1 X-98.0875
G1 X-95.0 Z0.8
G1 X-91.9125 Z-2.4
G1 X-82.0
G3 X-80.4125 Y16.5 I0.0 J1.5875
G1 Y22.5
G3 X-82.0 Y24.0875 I-1.5875 J0.0
G1 X-82.5
G2 X-85.9125 Y27.5 I0.0 J3.4125
G1 Y50.5
G2 X-82.5 Y53.9125 I3.4125 J0.0
G1 X-82.0
G3 X-80.4125 Y55.5 I0.0 J1.5875
G1 Y64.9125
G1 Y64.9211 Z-2.391
G1 Y68.0 Z0.8
G1 Y68.0086
G1 Y71.0875 Z-2.391
G1 Y71.0961 Z-2.4
G1 Y106.169
G3 X-81.0663 Y108.5293 I-4.5875 J0.0
G1 X-83.2112 Y112.1042
G2 X-83.4125 Y112.831 I1.2112 J0.7267
G1 Y129.0
G3 X-87.9125 Y133.5867 I-4.5875 J0.0
G3 X-88.0 Y133.5875 Z-2.3093 I-0.0875 J-4.5867
G1 X-91.0 Z0.8
G1 X-94.0875 Z-2.4
G1 X-94.2
G3 X-95.0 Y133.3712 I0.0 J-1.5875
G3 X-95.8 Y133.5875 I-0.8 J-1.3712
G1 X-102.0
G3 X-106.5875 Y129.0 I0.0 J-4.5875
G1 Y112.831
G2 X-106.7888 Y112.1042 I-1.4125 J0.0
G1 X-108.9337 Y108.5293
G3 X-109.5875 Y106.169 I3.9337 J-2.3602
G0 Z2.0
G0 X-260.4125
G1 F200.0 Z-0.4
G3 F450.0 X-261.0663 Y108.5293 I-4.5875 J0.0
G1 X-263.2112 Y112.1042
G2 X-263.4125 Y112.831 I1.2112 J0.7267
G1 Y129.0
G3 X-267.9125 Y133.5867 I-4.5875 J0.0
G3 X-268.0 Y133.5875 Z-0.366 I-0.0875 J-4.5867
G1 X-271.0 Z0.8
G1 X-274.0875 Z-0.4
G1 X-274.2
G3 X-275.0 Y133.3712 I0.0 J-1.5875
G3 X-275.8 Y133.5875 I-0.8 J-1.3712
G1 X-282.0
G3 X-286.5875 Y129.0 I0.0 J-4.5875
G1 Y112.831
G2 X-286.7888 Y112.1042 I-1.4125 J0.0
G1 X-288.9337 Y108.5293
G3 X-289.5875 Y106.169 I3.9337 J-2.3602
G1 Y71.0961
G1 Y71.0875 Z-0.3966
G1 Y68.0086 Z0.8
G1 Y68.0
G1 Y64.9211 Z-0.3966
G1 Y64.9125 Z-0.4
G1 Y55.5
G3 X-288.0 Y53.9125 I1.5875 J0.0
G1 X-287.5
G2 X-284.0875 Y50.5 I0.0 J-3.4125
G1 Y27.5
G2 X-287.5 Y24.0875 I-3.4125 J0.0
G1 X-288.0
G3 X-289.5875 Y22.5 I0.0 J-1.5875
G1 Y16.5
G3 X-288.0 Y14.9125 I1.5875 J0.0
G1 X-278.0875
G1 X-275.0 Z0.8
G1 X-271.9125 Z-0.4
G1 X-262.0
G3 X-260.4125 Y16.5 I0.0 J1.5875
G1 Y22.5
G3 X-262.0 Y24.0875 I-1.5875 J0.0
G1 X-262.5
G2 X-265.9125 Y27.5 I0.0 J3.4125
G1 Y50.5
G2 X-262.5 Y53.9125 I3.4125 J0.0
G1 X-262.0
G3 X-260.4125 Y55.5 I0.0 J1.5875
G1 Y64.9125
G1 Y64.9211 Z-0.3966
G1 Y68.0 Z0.8
G1 Y68.0086
G1 Y71.0875 Z-0.3966
G1 Y71.0961 Z-0.4
G1 Y106.169
G1 F200.0 X-259.5875
G1 Z-0.8
G1 F450.0 Y71.0961
G1 Y71.0875 Z-0.7955
G1 Y68.0086 Z0.8
G1 Y68.0
G1 Y64.9211 Z-0.7955
G1 Y64.9125 Z-0.8
G1 Y55.5
G3 X-258.0 Y53.9125 I1.5875 J0.0
G1 X-257.5
G2 X-254.0875 Y50.5 I0.0 J-3.4125
G1 Y27.5
G2 X-257.5 Y24.0875 I-3.4125 J0.0
G1 X-258.0
G3 X-259.5875 Y22.5 I0.0 J-1.5875
G1 Y16.5
G3 X-258.0 Y14.9125 I1.5875 J0.0
G1 X-249.0875
G1 X-246.0 Z0.8
G1 X-242.9125 Z-0.8
G1 X-232.0
G3 X-230.4125 Y16.5 I0.0 J1.5875
G1 Y22.5
G3 X-232.0 Y24.0875 I-1.5875 J0.0
G1 X-232.5
G2 X-235.9125 Y27.5 I0.0 J3.4125
G1 Y50.5
G2 X-232.5 Y53.9125 I3.4125 J0.0
G1 X-232.0
G3 X-230.4125 Y55.5 I0.0 J1.5875
G1 Y64.9125
G1 Y64.9211 Z-0.7955
G1 Y68.0 Z0.8
G1 Y68.0086
G1 Y71.0875 Z-0.7955
G1 Y71.0961 Z-0.8
G1 Y106.169
G3 X-231.0663 Y108.5293 I-4.5875 J0.0
G1 X-233.2112 Y112.1042
G2 X-233.4125 Y112.831 I1.2112 J0.7267
G1 Y129.0
G3 X-237.9125 Y133.5867 I-4.5875 J0.0
G3 X-238.0 Y133.5875 Z-0.7547 I-0.0875 J-4.5867
G1 X-241.0 Z0.8
G1 X-244.0875 Z-0.8
G1 X-244.2
G3 X-245.0 Y133.3712 I0.0 J-1.5875
G3 X-245.8 Y133.5875 I-0.8 J-1.3712
G1 X-252.0
G3 X-256.5875 Y129.0 I0.0 J-4.5875
G1 Y112.831
G2 X-256.7888 Y112.1042 I-1.4125 J0.0
G1 X-258.9337 Y108.5293
G3 X-259.5875 Y106.169 I3.9337 J-2.3602
G0 Z2.0
G0 X-229.5875
G1 F200.0 Z-1.2
G1 F450.0 Y71.0961
G1 Y71.0875 Z-1.1944
G1 Y68.0086 Z0.8
G1 Y68.0
G1 Y64.9211 Z-1.1944
G1 Y64.9125 Z-1.2
G1 Y55.5
G3 X-228.0 Y53.9125 I1.5875 J0.0
G1 X-227.5
G2 X-224.0875 Y50.5 I0.0 J-3.4125
G1 Y27.5
G2 X-227.5 Y24.0875 I-3.4125 J0.0
G1 X-228.0
G3 X-229.5875 Y22.5 I0.0 J-1.5875
G1 Y16.5
G3 X-228.0 Y14.9125 I1.5875 J0.0
G1 X-218.0875
G1 X-215.0 Z0.8
G1 X-211.9125 Z-1.2
G1 X-202.0
G3 X-200.4125 Y16.5 I0.0 J1.5875
G1 Y22.5
G3 X-202.0 Y24.0875 I-1.5875 J0.0
G1 X-202.5
G2 X-205.9125 Y27.5 I0.0 J3.4125
G1 Y50.5
G2 X-202.5 Y53.9125 I3.4125 J0.0
G1 X-202.0
G3 X-200.4125 Y55.5 I0.0 J1.5875
G1 Y64.9125
G1 Y64.9211 Z-1.1944
G1 Y68.0 Z0.8
G1 Y68.0086
G1 Y71.0875 Z-1.1944
G1 Y71.0961 Z-1.2
G1 Y106.169
G3 X-201.0663 Y108.5293 I-4.5875 J0.0
G1 X-203.2112 Y112.1042
G2 X-203.4125 Y112.831 I1.2112 J0.7267
G1 Y129.0
G3 X-207.9125 Y133.5867 I-4.5875 J0.0
G3 X-208.0 Y133.5875 Z-1.1433 I-0.0875 J-4.5867
G1 X-211.0 Z0.8
G1 X-214.0875 Z-1.2
G1 X-214.2
G3 X-215.0 Y133.3712 I0.0 J-1.5875
G3 X-215.8 Y133.5875 I-0.8 J-1.3712
G1 X-222.0
G3 X-226.5875 Y129.0 I0.0 J-4.5875
G1 Y112.831
G2 X-226.7888 Y112.1042 I-1.4125 J0.0
G1 X-228.9337 Y108.5293
G3 X-229.5875 Y106.169 I3.9337 J-2.3602
G0 Z2.0
G0 X-199.5875
G1 F200.0 Z-1.6
G1 F450.0 Y71.0961
G1 Y71.0875 Z-1.5933
G1 Y68.0086 Z0.8
G1 Y68.0
G1 Y64.9211 Z-1.5933
G1 Y64.9125 Z-1.6
G1 Y55.5
G3 X-198.0 Y53.9125 I1.5875 J0.0
G1 X-197.5
G2 X-194.0875 Y50.5 I0.0 J-3.4125
G1 Y27.5
G2 X-197.5 Y24.0875 I-3.4125 J0.0
G1 X-198.0
G3 X-199.5875 Y22.5 I0.0 J-1.5875
G1 Y16.5
G3 X-198.0 Y14.9125 I1.5875 J0.0
G1 X-188.0875
G1 X-185.0 Z0.8
G1 X-181.9125 Z-1.6
G1 X-172.0
G3 X-170.4125 Y16.5 I0.0 J1.5875
G1 Y22.5
G3 X-172.0 Y24.0875 I-1.5875 J0.0
G1 X-172.5
G2 X-175.9125 Y27.5 I0.0 J3.4125
G1 Y50.5
G2 X-172.5 Y53.9125 I3.4125 J0.0
G1 X-172.0
G3 X-170.4125 Y55.5 I0.0 J1.5875
G1 Y64.9125
G1 Y64.9211 Z-1.5933
G1 Y68.0 Z0.8
G1 Y68.0086
G1 Y71.0875 Z-1.5933
G1 Y71.0961 Z-1.6
G1 Y106.169
G3 X-171.0663 Y108.5293 I-4.5875 J0.0
G1 X-173.2112 Y112.1042
G2 X-173.4125 Y112.831 I1.2112 J0.7267
G1 Y129.0
G3 X-177.9125 Y133.5867 I-4.5875 J0.0
G3 X-178.0 Y133.5875 Z-1.532 I-0.0875 J-4.5867
G1 X-181.0 Z0.8
G1 X-184.0875 Z-1.6
G1 X-184.2
G3 X-185.0 Y133.3712 I0.0 J-1.5875
G3 X-185.8 Y133.5875 I-0.8 J-1.3712
G1 X-192.0
G3 X-196.5875 Y129.0 I0.0 J-4.5875
G1 Y112.831
G2 X-196.7888 Y112.1042 I-1.4125 J0.0
G1 X-198.9337 Y108.5293
G3 X-199.5875 Y106.169 I3.9337 J-2.3602
G0 Z2.0
G0 X-169.5875
G1 F200.0 Z-2.0
G1 F450.0 Y71.0961
G1 Y71.0875 Z-1.9922
G1 Y68.0086 Z0.8
G1 Y68.0
G1 Y64.9211 Z-1.9922
G1 Y64.9125 Z-2.0
G1 Y55.5
G3 X-168.0 Y53.9125 I1.5875 J0.0
G1 X-167.5
G2 X-164.0875 Y50.5 I0.0 J-3.4125
G1 Y27.5
G2 X-167.5 Y24.0875 I-3.4125 J0.0
G1 X-168.0
G3 X-169.5875 Y22.5 I0.0 J-1.5875
G1 Y16.5
G3 X-168.0 Y14.9125 I1.5875 J0.0
G1 X-158.0875
G1 X-155.0 Z0.8
G1 X-151.9125 Z-2.0
G1 X-142.0
G3 X-140.4125 Y16.5 I0.0 J1.5875
G1 Y22.5
G3 X-142.0 Y24.0875 I-1.5875 J0.0
G1 X-142.5
G2 X-145.9125 Y27.5 I0.0 J3.4125
G1 Y50.5
G2 X-142.5 Y53.9125 I3.4125 J0.0
G1 X-142.0
G3 X-140.4125 Y55.5 I0.0 J1.5875
G1 Y64.9125
G1 Y64.9211 Z-1.9922
G1 Y68.0 Z0.8
G1 Y68.0086
G1 Y71.0875 Z-1.9922
G1 Y71.0961 Z-2.0
G1 Y106.169
G3 X-141.0663 Y108.5293 I-4.5875 J0.0
G1 X-143.2112 Y112.1042
G2 X-143.4125 Y112.831 I1.2112 J0.7267
G1 Y129.0
G3 X-147.9125 Y133.5867 I-4.5875 J0.0
G3 X-148.0 Y133.5875 Z-1.9206 I-0.0875 J-4.5867
G1 X-151.0 Z0.8
G1 X-154.0875 Z-2.0
G1 X-154.2
G3 X-155.0 Y133.3712 I0.0 J-1.5875
G3 X-155.8 Y133.5875 I-0.8 J-1.3712
G1 X-162.0
G3 X-166.5875 Y129.0 I0.0 J-4.5875
G1 Y112.831
G2 X-166.7888 Y112.1042 I-1.4125 J0.0
G1 X-168.9337 Y108.5293
G3 X-169.5875 Y106.169 I3.9337 J-2.3602
G0 Z2.0
G0 X-139.5875
G1 F200.0 Z-2.4
G1 F450.0 Y71.0961
G1 Y71.0875 Z-2.391
G1 Y68.0086 Z0.8
G1 Y68.0
G1 Y64.9211 Z-2.391
G1 Y64.9125 Z-2.4
G1 Y55.5
G3 X-138.0 Y53.9125 I1.5875 J0.0
G1 X-137.5
G2 X-134.0875 Y50.5 I0.0 J-3.4125
G1 Y27.5
G2 X-137.5 Y24.0875 I-3.4125 J0.0
G1 X-138.0
G3 X-139.5875 Y22.5 I0.0 J-1.5875
G1 Y16.5
G3 X-138.0 Y14.9125 I1.5875 J0.0
G1 X-128.0875
G1 X-125.0 Z0.8
G1 X-121.9125 Z-2.4
G1 X-112.0
G3 X-110.4125 Y16.5 I0.0 J1.5875
G1 Y22.5
G3 X-112.0 Y24.0875 I-1.5875 J0.0
G1 X-112.5
G2 X-115.9125 Y27.5 I0.0 J3.4125
G1 Y50.5
G2 X-112.5 Y53.9125 I3.4125 J0.0
G1 X-112.0
G3 X-110.4125 Y55.5 I0.0 J1.5875
G1 Y64.9125
G1 Y64.9211 Z-2.391
G1 Y68.0 Z0.8
G1 Y68.0086
G1 Y71.0875 Z-2.391
G1 Y71.0961 Z-2.4
G1 Y106.169
G3 X-111.0663 Y108.5293 I-4.5875 J0.0
G1 X-113.2112 Y112.1042
G2 X-113.4125 Y112.831 I1.2112 J0.7267
G1 Y129.0
G3 X-117.9125 Y133.5867 I-4.5875 J0.0
G3 X-118.0 Y133.5875 Z-2.3093 I-0.0875 J-4.5867
G1 X-121.0 Z0.8
G1 X-124.0875 Z-2.4
G1 X-124.2
G3 X-125.0 Y133.3712 I0.0 J-1.5875
G3 X-125.8 Y133.5875 I-0.8 J-1.3712
G1 X-132.0
G3 X-136.5875 Y129.0 I0.0 J-4.5875
G1 Y112.831
G2 X-136.7888 Y112.1042 I-1.4125 J0.0
G1 X-138.9337 Y108.5293
G3 X-139.5875 Y106.169 I3.9337 J-2.3602
G0 Z2.0
G0 X-290.4125
G1 F200.0 Z-0.4
G3 F450.0 X-291.0663 Y108.5293 I-4.5875 J0.0
G1 X-293.2112 Y112.1042
G2 X-293.4125 Y112.831 I1.2112 J0.7267
G1 Y129.0
G3 X-297.9125 Y133.5867 I-4.5875 J0.0
G3 X-298.0 Y133.5875 Z-0.366 I-0.0875 J-4.5867
G1 X-301.0 Z0.8
G1 X-304.0875 Z-0.4
G1 X-304.2
G3 X-305.0 Y133.3712 I0.0 J-1.5875
G3 X-305.8 Y133.5875 I-0.8 J-1.3712
G1 X-312.0
G3 X-316.5875 Y129.0 I0.0 J-4.5875
G1 Y112.831
G2 X-316.7888 Y112.1042 I-1.4125 J0.0
G1 X-318.9337 Y108.5293
G3 X-319.5875 Y106.169 I3.9337 J-2.3602
G1 Y71.0961
G1 Y68.0086 Z0.8
G1 Y64.9211 Z-0.4
G1 Y55.5
G3 X-318.0 Y53.9125 I1.5875 J0.0
G1 X-317.5
G2 X-314.0875 Y50.5 I0.0 J-3.4125
G1 Y27.5
G2 X-317.5 Y24.0875 I-3.4125 J0.0
G1 X-318.0
G3 X-319.5875 Y22.5 I0.0 J-1.5875
G1 Y16.5
G3 X-318.0 Y14.9125 I1.5875 J0.0
G1 X-308.0875
G1 X-305.0 Z0.8
G1 X-301.9125 Z-0.4
G1 X-292.0
G3 X-290.4125 Y16.5 I0.0 J1.5875
G1 Y22.5
G3 X-292.0 Y24.0875 I-1.5875 J0.0
G1 X-292.5
G2 X-295.9125 Y27.5 I0.0 J3.4125
G1 Y50.5
G2 X-292.5 Y53.9125 I3.4125 J0.0
G1 X-292.0
G3 X-290.4125 Y55.5 I0.0 J1.5875
G1 Y64.9125
G1 Y64.9211 Z-0.3966
G1 Y68.0 Z0.8
G1 Y68.0086
G1 Y71.0875 Z-0.3966
G1 Y71.0961 Z-0.4
G1 Y106.169
G1 F200.0 Z-0.8
G3 F450.0 X-291.0663 Y108.5293 I-4.5875 J0.0
G1 X-293.2112 Y112.1042
G2 X-293.4125 Y112.831 I1.2112 J0.7267
G1 Y129.0
G3 X-297.9125 Y133.5867 I-4.5875 J0.0
G3 X-298.0 Y133.5875 Z-0.7547 I-0.0875 J-4.5867
G1 X-301.0 Z0.8
G1 X-304.0875 Z-0.8
G1 X-304.2
G3 X-305.0 Y133.3712 I0.0 J-1.5875
G3 X-305.8 Y133.5875 I-0.8 J-1.3712
G1 X-312.0
G3 X-316.5875 Y129.0 I0.0 J-4.5875
G1 Y112.831
G2 X-316.7888 Y112.1042 I-1.4125 J0.0
G1 X-318.9337 Y108.5293
G3 X-319.5875 Y106.169 I3.9337 J-2.3602
G1 Y71.0961
G1 Y68.0086 Z0.8
G1 Y64.9211 Z-0.8
G1 Y55.5
G3 X-318.0 Y53.9125 I1.5875 J0.0
G1 X-317.5
G2 X-314.0875 Y50.5 I0.0 J-3.4125
G1 Y27.5
G2 X-317.5 Y24.0875 I-3.4125 J0.0
G1 X-318.0
G3 X-319.5875 Y22.5 I0.0 J-1.5875
G1 Y16.5
G3 X-318.0 Y14.9125 I1.5875 J0.0
G1 X-308.0875
G1 X-305.0 Z0.8
G1 X-301.9125 Z-0.8
G1 X-292.0
G3 X-290.4125 Y16.5 I0.0 J1.5875
G1 Y22.5
G3 X-292.0 Y24.0875 I-1.5875 J0.0
G1 X-292.5
G2 X-295.9125 Y27.5 I0.0 J3.4125
G1 Y50.5
G2 X-292.5 Y53.9125 I3.4125 J0.0
G1 X-292.0
G3 X-290.4125 Y55.5 I0.0 J1.5875
G1 Y64.9125
G1 Y64.9211 Z-0.7955
G1 Y68.0 Z0.8
G1 Y68.0086
G1 Y71.0875 Z-0.7955
G1 Y71.0961 Z-0.8
G1 Y106.169
G1 F200.0 X-289.5875
G1 F450.0 Y71.0961
G1 Y71.0875 Z-0.7955
G1 Y68.0086 Z0.8
G1 Y68.0
G1 Y64.9211 Z-0.7955
G1 Y64.9125 Z-0.8
G1 Y55.5
G3 X-288.0 Y53.9125 I1.5875 J0.0
G1 X-287.5
G2 X-284.0875 Y50.5 I0.0 J-3.4125
G1 Y27.5
G2 X-287.5 Y24.0875 I-3.4125 J0.0
G1 X-288.0
G3 X-289.5875 Y22.5 I0.0 J-1.5875
G1 Y16.5
G3 X-288.0 Y14.9125 I1.5875 J0.0
G1 X-278.0875
G1 X-275.0 Z0.8
G1 X-271.9125 Z-0.8
G1 X-262.0
G3 X-260.4125 Y16.5 I0.0 J1.5875
G1 Y22.5
G3 X-262.0 Y24.0875 I-1.5875 J0.0
G1 X-262.5
G2 X-265.9125 Y27.5 I0.0 J3.4125
G1 Y50.5
G2 X-262.5 Y53.9125 I3.4125 J0.0
G1 X-262.0
G3 X-260.4125 Y55.5 I0.0 J1.5875
G1 Y64.9125
G1 Y64.9211 Z-0.7955
G1 Y68.0 Z0.8
G1 Y68.0086
G1 Y71.0875 Z-0.7955
G1 Y71.0961 Z-0.8
G1 Y106.169
G3 X-261.0663 Y108.5293 I-4.5875 J0.0
G1 X-263.2112 Y112.1042
G2 X-263.4125 Y112.831 I1.2112 J0.7267
G1 Y129.0
G3 X-267.9125 Y133.5867 I-4.5875 J0.0
G3 X-268.0 Y133.5875 Z-0.7547 I-0.0875 J-4.5867
G1 X-271.0 Z0.8
G1 X-274.0875 Z-0.8
G1 X-274.2
G3 X-275.0 Y133.3712 I0.0 J-1.5875
G3 X-275.8 Y133.5875 I-0.8 J-1.3712
G1 X-282.0
G3 X-286.5875 Y129.0 I0.0 J-4.5875
G1 Y112.831
G2 X-286.7888 Y112.1042 I-1.4125 J0.0
G1 X-288.9337 Y108.5293
G3 X-289.5875 Y106.169 I3.9337 J-2.3602
G1 F200.0 Z-1.2
G1 F450.0 Y71.0961
G1 Y71.0875 Z-1.1944
G1 Y68.0086 Z0.8
G1 Y68.0
G1 Y64.9211 Z-1.1944
G1 Y64.9125 Z-1.2
G1 Y55.5
G3 X-288.0 Y53.9125 I1.5875 J0.0
G1 X-287.5
G2 X-284.0875 Y50.5 I0.0 J-3.4125
G1 Y27.5
G2 X-287.5 Y24.0875 I-3.4125 J0.0
G1 X-288.0
G3 X-289.5875 Y22.5 I0.0 J-1.5875
G1 Y16.5
G3 X-288.0 Y14.9125 I1.5875 J0.0
G1 X-278.0875
G1 X-275.0 Z0.8
G1 X-271.9125 Z-1.2
G1 X-262.0
G3 X-260.4125 Y16.5 I0.0 J1.5875
G1 Y22.5
G3 X-262.0 Y24.0875 I-1.5875 J0.0
G1 X-262.5
G2 X-265.9125 Y27.5 I0.0 J3.4125
G1 Y50.5
G2 X-262.5 Y53.9125 I3.4125 J0.0
G1 X-262.0
G3 X-260.4125 Y55.5 I0.0 J1.5875
G1 Y64.9125
G1 Y64.9211 Z-1.1944
G1 Y68.0 Z0.8
G1 Y68.0086
G1 Y71.0875 Z-1.1944
G1 Y71.0961 Z-1.2
G1 Y106.169
G3 X-261.0663 Y108.5293 I-4.5875 J0.0
G1 X-263.2112 Y112.1042
G2 X-263.4125 Y112.831 I1.2112 J0.7267
G1 Y129.0
G3 X-267.9125 Y133.5867 I-4.5875 J0.0
G3 X-268.0 Y133.5875 Z-1.1433 I-0.0875 J-4.5867
G1 X-271.0 Z0.8
G1 X-274.0875 Z-1.2
G1 X-274.2
G3 X-275.0 Y133.3712 I0.0 J-1.5875
G3 X-275.8 Y133.5875 I-0.8 J-1.3712
G1 X-282.0
G3 X-286.5875 Y129.0 I0.0 J-4.5875
G1 Y112.831
G2 X-286.7888 Y112.1042 I-1.4125 J0.0
G1 X-288.9337 Y108.5293
G3 X-289.5875 Y106.169 I3.9337 J-2.3602
G1 F200.0 X-290.4125
G3 F450.0 X-291.0663 Y108.5293 I-4.5875 J0.0
G1 X-293.2112 Y112.1042
G2 X-293.4125 Y112.831 I1.2112 J0.7267
G1 Y129.0
G3 X-297.9125 Y133.5867 I-4.5875 J0.0
G3 X-298.0 Y133.5875 Z-1.1433 I-0.0875 J-4.5867
G1 X-301.0 Z0.8
G1 X-304.0875 Z-1.2
G1 X-304.2
G3 X-305.0 Y133.3712 I0.0 J-1.5875
G3 X-305.8 Y133.5875 I-0.8 J-1.3712
G1 X-312.0
G3 X-316.5875 Y129.0 I0.0 J-4.5875
G1 Y112.831
G2 X-316.7888 Y112.1042 I-1.4125 J0.0
G1 X-318.9337 Y108.5293
G3 X-319.5875 Y106.169 I3.9337 J-2.3602
G1 Y71.0961
G1 Y68.0086 Z0.8
G1 Y64.9211 Z-1.2
G1 Y55.5
G3 X-318.0 Y53.9125 I1.5875 J0.0
G1 X-317.5
G2 X-314.0875 Y50.5 I0.0 J-3.4125
G1 Y27.5
G2 X-317.5 Y24.0875 I-3.4125 J0.0
G1 X-318.0
G3 X-319.5875 Y22.5 I0.0 J-1.5875
G1 Y16.5
G3 X-318.0 Y14.9125 I1.5875 J0.0
G1 X-308.0875
G1 X-305.0 Z0.8
G1 X-301.9125 Z-1.2
G1 X-292.0
G3 X-290.4125 Y16.5 I0.0 J1.5875
G1 Y22.5
G3 X-292.0 Y24.0875 I-1.5875 J0.0
G1 X-292.5
G2 X-295.9125 Y27.5 I0.0 J3.4125
G1 Y50.5
G2 X-292.5 Y53.9125 I3.4125 J0.0
G1 X-292.0
G3 X-290.4125 Y55.5 I0.0 J1.5875
G1 Y64.9125
G1 Y64.9211 Z-1.1944
G1 Y68.0 Z0.8
G1 Y68.0086
G1 Y71.0875 Z-1.1944
G1 Y71.0961 Z-1.2
G1 Y106.169
G1 F200.0 Z-1.6
G3 F450.0 X-291.0663 Y108.5293 I-4.5875 J0.0
G1 X-293.2112 Y112.1042
G2 X-293.4125 Y112.831 I1.2112 J0.7267
G1 Y129.0
G3 X-297.9125 Y133.5867 I-4.5875 J0.0
G3 X-298.0 Y133.5875 Z-1.532 I-0.0875 J-4.5867
G1 X-301.0 Z0.8
G1 X-304.0875 Z-1.6
G1 X-304.2
G3 X-305.0 Y133.3712 I0.0 J-1.5875
G3 X-305.8 Y133.5875 I-0.8 J-1.3712
G1 X-312.0
G3 X-316.5875 Y129.0 I0.0 J-4.5875
G1 Y112.831
G2 X-316.7888 Y112.1042 I-1.4125 J0.0
G1 X-318.9337 Y108.5293
G3 X-319.5875 Y106.169 I3.9337 J-2.3602
G1 Y71.0961
G1 Y68.0086 Z0.8
G1 Y64.9211 Z-1.6
G1 Y55.5
G3 X-318.0 Y53.9125 I1.5875 J0.0
G1 X-317.5
G2 X-314.0875 Y50.5 I0.0 J-3.4125
G1 Y27.5
G2 X-317.5 Y24.0875 I-3.4125 J0.0
G1 X-318.0
G3 X-319.5875 Y22.5 I0.0 J-1.5875
G1 Y16.5
G3 X-318.0 Y14.9125 I1.5875 J0.0
G1 X-308.0875
G1 X-305.0 Z0.8
G1 X-301.9125 Z-1.6
G1 X-292.0
G3 X-290.4125 Y16.5 I0.0 J1.5875
G1 Y22.5
G3 X-292.0 Y24.0875 I-1.5875 J0.0
G1 X-292.5
G2 X-295.9125 Y27.5 I0.0 J3.4125
G1 Y50.5
G2 X-292.5 Y53.9125 I3.4125 J0.0
G1 X-292.0
G3 X-290.4125 Y55.5 I0.0 J1.5875
G1 Y64.9125
G1 Y64.9211 Z-1.5933
G1 Y68.0 Z0.8
G1 Y68.0086
G1 Y71.0875 Z-1.5933
G1 Y71.0961 Z-1.6
G1 Y106.169
G0 Z2.0
G0 X-259.5875
G1 F200.0 Z-1.2
G1 F450.0 Y71.0961
G1 Y71.0875 Z-1.1944
G1 Y68.0086 Z0.8
G1 Y68.0
G1 Y64.9211 Z-1.1944
G1 Y64.9125 Z-1.2
G1 Y55.5
G3 X-258.0 Y53.9125 I1.5875 J0.0
G1 X-257.5
G2 X-254.0875 Y50.5 I0.0 J-3.4125
G1 Y27.5
G2 X-257.5 Y24.0875 I-3.4125 J0.0
G1 X-258.0
G3 X-259.5875 Y22.5 I0.0 J-1.5875
G1 Y16.5
G3 X-258.0 Y14.9125 I1.5875 J0.0
G1 X-249.0875
G1 X-246.0 Z0.8
G1 X-242.9125 Z-1.2
G1 X-232.0
G3 X-230.4125 Y16.5 I0.0 J1.5875
G1 Y22.5
G3 X-232.0 Y24.0875 I-1.5875 J0.0
G1 X-232.5
G2 X-235.9125 Y27.5 I0.0 J3.4125
G1 Y50.5
G2 X-232.5 Y53.9125 I3.4125 J0.0
G1 X-232.0
G3 X-230.4125 Y55.5 I0.0 J1.5875
G1 Y64.9125
G1 Y64.9211 Z-1.1944
G1 Y68.0 Z0.8
G1 Y68.0086
G1 Y71.0875 Z-1.1944
G1 Y71.0961 Z-1.2
G1 Y106.169
G3 X-231.0663 Y108.5293 I-4.5875 J0.0
G1 X-233.2112 Y112.1042
G2 X-233.4125 Y112.831 I1.2112 J0.7267
G1 Y129.0
G3 X-237.9125 Y133.5867 I-4.5875 J0.0
G3 X-238.0 Y133.5875 Z-1.1433 I-0.0875 J-4.5867
G1 X-241.0 Z0.8
G1 X-244.0875 Z-1.2
G1 X-244.2
G3 X-245.0 Y133.3712 I0.0 J-1.5875
G3 X-245.8 Y133.5875 I-0.8 J-1.3712
G1 X-252.0
G3 X-256.5875 Y129.0 I0.0 J-4.5875
G1 Y112.831
G2 X-256.7888 Y112.1042 I-1.4125 J0.0
G1 X-258.9337 Y108.5293
G3 X-259.5875 Y106.169 I3.9337 J-2.3602
G1 F200.0 Z-1.6
G1 F450.0 Y71.0961
G1 Y71.0875 Z-1.5933
G1 Y68.0086 Z0.8
G1 Y68.0
G1 Y64.9211 Z-1.5933
G1 Y64.9125 Z-1.6
G1 Y55.5
G3 X-258.0 Y53.9125 I1.5875 J0.0
G1 X-257.5
G2 X-254.0875 Y50.5 I0.0 J-3.4125
G1 Y27.5
G2 X-257.5 Y24.0875 I-3.4125 J0.0
G1 X-258.0
G3 X-259.5875 Y22.5 I0.0 J-1.5875
G1 Y16.5
G3 X-258.0 Y14.9125 I1.5875 J0.0
G1 X-249.0875
G1 X-246.0 Z0.8
G1 X-242.9125 Z-1.6
G1 X-232.0
G3 X-230.4125 Y16.5 I0.0 J1.5875
G1 Y22.5
G3 X-232.0 Y24.0875 I-1.5875 J0.0
G1 X-232.5
G2 X-235.9125 Y27.5 I0.0 J3.4125
G1 Y50.5
G2 X-232.5 Y53.9125 I3.4125 J0.0
G1 X-232.0
G3 X-230.4125 Y55.5 I0.0 J1.5875
G1 Y64.9125
G1 Y64.9211 Z-1.5933
G1 Y68.0 Z0.8
G1 Y68.0086
G1 Y71.0875 Z-1.5933
G1 Y71.0961 Z-1.6
G1 Y106.169
G3 X-231.0663 Y108.5293 I-4.5875 J0.0
G1 X-233.2112 Y112.1042
G2 X-233.4125 Y112.831 I1.2112 J0.7267
G1 Y129.0
G3 X-237.9125 Y133.5867 I-4.5875 J0.0
G3 X-238.0 Y133.5875 Z-1.532 I-0.0875 J-4.5867
G1 X-241.0 Z0.8
G1 X-244.0875 Z-1.6
G1 X-244.2
G3 X-245.0 Y133.3712 I0.0 J-1.5875
G3 X-245.8 Y133.5875 I-0.8 J-1.3712
G1 X-252.0
G3 X-256.5875 Y129.0 I0.0 J-4.5875
G1 Y112.831
G2 X-256.7888 Y112.1042 I-1.4125 J0.0
G1 X-258.9337 Y108.5293
G3 X-259.5875 Y106.169 I3.9337 J-2.3602
G1 F200.0 X-260.4125
G3 F450.0 X-261.0663 Y108.5293 I-4.5875 J0.0
G1 X-263.2112 Y112.1042
G2 X-263.4125 Y112.831 I1.2112 J0.7267
G1 Y129.0
G3 X-267.9125 Y133.5867 I-4.5875 J0.0
G3 X-268.0 Y133.5875 Z-1.532 I-0.0875 J-4.5867
G1 X-271.0 Z0.8
G1 X-274.0875 Z-1.6
G1 X-274.2
G3 X-275.0 Y133.3712 I0.0 J-1.5875
G3 X-275.8 Y133.5875 I-0.8 J-1.3712
G1 X-282.0
G3 X-286.5875 Y129.0 I0.0 J-4.5875
G1 Y112.831
G2 X-286.7888 Y112.1042 I-1.4125 J0.0
G1 X-288.9337 Y108.5293
G3 X-289.5875 Y106.169 I3.9337 J-2.3602
G1 Y71.0961
G1 Y71.0875 Z-1.5933
G1 Y68.0086 Z0.8
G1 Y68.0
G1 Y64.9211 Z-1.5933
G1 Y64.9125 Z-1.6
G1 Y55.5
G3 X-288.0 Y53.9125 I1.5875 J0.0
G1 X-287.5
G2 X-284.0875 Y50.5 I0.0 J-3.4125
G1 Y27.5
G2 X-287.5 Y24.0875 I-3.4125 J0.0
G1 X-288.0
G3 X-289.5875 Y22.5 I0.0 J-1.5875
G1 Y16.5
G3 X-288.0 Y14.9125 I1.5875 J0.0
G1 X-278.0875
G1 X-275.0 Z0.8
G1 X-271.9125 Z-1.6
G1 X-262.0
G3 X-260.4125 Y16.5 I0.0 J1.5875
G1 Y22.5
G3 X-262.0 Y24.0875 I-1.5875 J0.0
G1 X-262.5
G2 X-265.9125 Y27.5 I0.0 J3.4125
G1 Y50.5
G2 X-262.5 Y53.9125 I3.4125 J0.0
G1 X-262.0
G3 X-260.4125 Y55.5 I0.0 J1.5875
G1 Y64.9125
G1 Y64.9211 Z-1.5933
G1 Y68.0 Z0.8
G1 Y68.0086
G1 Y71.0875 Z-1.5933
G1 Y71.0961 Z-1.6
G1 Y106.169
G1 F200.0 Z-2.0
G3 F450.0 X-261.0663 Y108.5293 I-4.5875 J0.0
G1 X-263.2112 Y112.1042
G2 X-263.4125 Y112.831 I1.2112 J0.7267
G1 Y129.0
G3 X-267.9125 Y133.5867 I-4.5875 J0.0
G3 X-268.0 Y133.5875 Z-1.9206 I-0.0875 J-4.5867
G1 X-271.0 Z0.8
G1 X-274.0875 Z-2.0
G1 X-274.2
G3 X-275.0 Y133.3712 I0.0 J-1.5875
G3 X-275.8 Y133.5875 I-0.8 J-1.3712
G1 X-282.0
G3 X-286.5875 Y129.0 I0.0 J-4.5875
G1 Y112.831
G2 X-286.7888 Y112.1042 I-1.4125 J0.0
G1 X-288.9337 Y108.5293
G3 X-289.5875 Y106.169 I3.9337 J-2.3602
G1 Y71.0961
G1 Y71.0875 Z-1.9922
G1 Y68.0086 Z0.8
G1 Y68.0
G1 Y64.9211 Z-1.9922
G1 Y64.9125 Z-2.0
G1 Y55.5
G3 X-288.0 Y53.9125 I1.5875 J0.0
G1 X-287.5
G2 X-284.0875 Y50.5 I0.0 J-3.4125
G1 Y27.5
G2 X-287.5 Y24.0875 I-3.4125 J0.0
G1 X-288.0
G3 X-289.5875 Y22.5 I0.0 J-1.5875
G1 Y16.5
G3 X-288.0 Y14.9125 I1.5875 J0.0
G1 X-278.0875
G1 X-275.0 Z0.8
G1 X-271.9125 Z-2.0
G1 X-262.0
G3 X-260.4125 Y16.5 I0.0 J1.5875
G1 Y22.5
G3 X-262.0 Y24.0875 I-1.5875 J0.0
G1 X-262.5
G2 X-265.9125 Y27.5 I0.0 J3.4125
G1 Y50.5
G2 X-262.5 Y53.9125 I3.4125 J0.0
G1 X-262.0
G3 X-260.4125 Y55.5 I0.0 J1.5875
G1 Y64.9125
G1 Y64.9211 Z-1.9922
G1 Y68.0 Z0.8
G1 Y68.0086
G1 Y71.0875 Z-1.9922
G1 Y71.0961 Z-2.0
G1 Y106.169
G0 Z2.0
G0 X-290.4125
G1 F200.0 Z-2.0
G3 F450.0 X-291.0663 Y108.5293 I-4.5875 J0.0
G1 X-293.2112 Y112.1042
G2 X-293.4125 Y112.831 I1.2112 J0.7267
G1 Y129.0
G3 X-297.9125 Y133.5867 I-4.5875 J0.0
G3 X-298.0 Y133.5875 Z-1.9206 I-0.0875 J-4.5867
G1 X-301.0 Z0.8
G1 X-304.0875 Z-2.0
G1 X-304.2
G3 X-305.0 Y133.3712 I0.0 J-1.5875
G3 X-305.8 Y133.5875 I-0.8 J-1.3712
G1 X-312.0
G3 X-316.5875 Y129.0 I0.0 J-4.5875
G1 Y112.831
G2 X-316.7888 Y112.1042 I-1.4125 J0.0
G1 X-318.9337 Y108.5293
G3 X-319.5875 Y106.169 I3.9337 J-2.3602
G1 Y71.0961
G1 Y68.0086 Z0.8
G1 Y64.9211 Z-2.0
G1 Y55.5
G3 X-318.0 Y53.9125 I1.5875 J0.0
G1 X-317.5
G2 X-314.0875 Y50.5 I0.0 J-3.4125
G1 Y27.5
G2 X-317.5 Y24.0875 I-3.4125 J0.0
G1 X-318.0
G3 X-319.5875 Y22.5 I0.0 J-1.5875
G1 Y16.5
G3 X-318.0 Y14.9125 I1.5875 J0.0
G1 X-308.0875
G1 X-305.0 Z0.8
G1 X-301.9125 Z-2.0
G1 X-292.0
G3 X-290.4125 Y16.5 I0.0 J1.5875
G1 Y22.5
G3 X-292.0 Y24.0875 I-1.5875 J0.0
G1 X-292.5
G2 X-295.9125 Y27.5 I0.0 J3.4125
G1 Y50.5
G2 X-292.5 Y53.9125 I3.4125 J0.0
G1 X-292.0
G3 X-290.4125 Y55.5 I0.0 J1.5875
G1 Y64.9125
G1 Y64.9211 Z-1.9922
G1 Y68.0 Z0.8
G1 Y68.0086
G1 Y71.0875 Z-1.9922
G1 Y71.0961 Z-2.0
G1 Y106.169
G1 F200.0 Z-2.4
G3 F450.0 X-291.0663 Y108.5293 I-4.5875 J0.0
G1 X-293.2112 Y112.1042
G2 X-293.4125 Y112.831 I1.2112 J0.7267
G1 Y129.0
G3 X-297.9125 Y133.5867 I-4.5875 J0.0
G3 X-298.0 Y133.5875 Z-2.3093 I-0.0875 J-4.5867
G1 X-301.0 Z0.8
G1 X-304.0875 Z-2.4
G1 X-304.2
G3 X-305.0 Y133.3712 I0.0 J-1.5875
G3 X-305.8 Y133.5875 I-0.8 J-1.3712
G1 X-312.0
G3 X-316.5875 Y129.0 I0.0 J-4.5875
G1 Y112.831
G2 X-316.7888 Y112.1042 I-1.4125 J0.0
G1 X-318.9337 Y108.5293
G3 X-319.5875 Y106.169 I3.9337 J-2.3602
G1 Y71.0961
G1 Y68.0086 Z0.8
G1 Y64.9211 Z-2.4
G1 Y55.5
G3 X-318.0 Y53.9125 I1.5875 J0.0
G1 X-317.5
G2 X-314.0875 Y50.5 I0.0 J-3.4125
G1 Y27.5
G2 X-317.5 Y24.0875 I-3.4125 J0.0
G1 X-318.0
G3 X-319.5875 Y22.5 I0.0 J-1.5875
G1 Y16.5
G3 X-318.0 Y14.9125 I1.5875 J0.0
G1 X-308.0875
G1 X-305.0 Z0.8
G1 X-301.9125 Z-2.4
G1 X-292.0
G3 X-290.4125 Y16.5 I0.0 J1.5875
G1 Y22.5
G3 X-292.0 Y24.0875 I-1.5875 J0.0
G1 X-292.5
G2 X-295.9125 Y27.5 I0.0 J3.4125
G1 Y50.5
G2 X-292.5 Y53.9125 I3.4125 J0.0
G1 X-292.0
G3 X-290.4125 Y55.5 I0.0 J1.5875
G1 Y64.9125
G1 Y64.9211 Z-2.391
G1 Y68.0 Z0.8
G1 Y68.0086
G1 Y71.0875 Z-2.391
G1 Y71.0961 Z-2.4
G1 Y106.169
G0 Z2.0
G0 X-229.5875
G1 F200.0 Z-1.6
G1 F450.0 Y71.0961
G1 Y71.0875 Z-1.5933
G1 Y68.0086 Z0.8
G1 Y68.0
G1 Y64.9211 Z-1.5933
G1 Y64.9125 Z-1.6
G1 Y55.5
G3 X-228.0 Y53.9125 I1.5875 J0.0
G1 X-227.5
G2 X-224.0875 Y50.5 I0.0 J-3.4125
G1 Y27.5
G2 X-227.5 Y24.0875 I-3.4125 J0.0
G1 X-228.0
G3 X-229.5875 Y22.5 I0.0 J-1.5875
G1 Y16.5
G3 X-228.0 Y14.9125 I1.5875 J0.0
G1 X-218.0875
G1 X-215.0 Z0.8
G1 X-211.9125 Z-1.6
G1 X-202.0
G3 X-200.4125 Y16.5 I0.0 J1.5875
G1 Y22.5
G3 X-202.0 Y24.0875 I-1.5875 J0.0
G1 X-202.5
G2 X-205.9125 Y27.5 I0.0 J3.4125
G1 Y50.5
G2 X-202.5 Y53.9125 I3.4125 J0.0
G1 X-202.0
G3 X-200.4125 Y55.5 I0.0 J1.5875
G1 Y64.9125
G1 Y64.9211 Z-1.5933
G1 Y68.0 Z0.8
G1 Y68.0086
G1 Y71.0875 Z-1.5933
G1 Y71.0961 Z-1.6
G1 Y106.169
G3 X-201.0663 Y108.5293 I-4.5875 J0.0
G1 X-203.2112 Y112.1042
G2 X-203.4125 Y112.831 I1.2112 J0.7267
G1 Y129.0
G3 X-207.9125 Y133.5867 I-4.5875 J0.0
G3 X-208.0 Y133.5875 Z-1.532 I-0.0875 J-4.5867
G1 X-211.0 Z0.8
G1 X-214.0875 Z-1.6
G1 X-214.2
G3 X-215.0 Y133.3712 I0.0 J-1.5875
G3 X-215.8 Y133.5875 I-0.8 J-1.3712
G1 X-222.0
G3 X-226.5875 Y129.0 I0.0 J-4.5875
G1 Y112.831
G2 X-226.7888 Y112.1042 I-1.4125 J0.0
G1 X-228.9337 Y108.5293
G3 X-229.5875 Y106.169 I3.9337 J-2.3602
G1 F200.0 Z-2.0
G1 F450.0 Y71.0961
G1 Y71.0875 Z-1.9922
G1 Y68.0086 Z0.8
G1 Y68.0
G1 Y64.9211 Z-1.9922
G1 Y64.9125 Z-2.0
G1 Y55.5
G3 X-228.0 Y53.9125 I1.5875 J0.0
G1 X-227.5
G2 X-224.0875 Y50.5 I0.0 J-3.4125
G1 Y27.5
G2 X-227.5 Y24.0875 I-3.4125 J0.0
G1 X-228.0
G3 X-229.5875 Y22.5 I0.0 J-1.5875
G1 Y16.5
G3 X-228.0 Y14.9125 I1.5875 J0.0
G1 X-218.0875
G1 X-215.0 Z0.8
G1 X-211.9125 Z-2.0
G1 X-202.0
G3 X-200.4125 Y16.5 I0.0 J1.5875
G1 Y22.5
G3 X-202.0 Y24.0875 I-1.5875 J0.0
G1 X-202.5
G2 X-205.9125 Y27.5 I0.0 J3.4125
G1 Y50.5
G2 X-202.5 Y53.9125 I3.4125 J0.0
G1 X-202.0
G3 X-200.4125 Y55.5 I0.0 J1.5875
G1 Y64.9125
G1 Y64.9211 Z-1.9922
G1 Y68.0 Z0.8
G1 Y68.0086
G1 Y71.0875 Z-1.9922
G1 Y71.0961 Z-2.0
G1 Y106.169
G3 X-201.0663 Y108.5293 I-4.5875 J0.0
G1 X-203.2112 Y112.1042
G2 X-203.4125 Y112.831 I1.2112 J0.7267
G1 Y129.0
G3 X-207.9125 Y133.5867 I-4.5875 J0.0
G3 X-208.0 Y133.5875 Z-1.9206 I-0.0875 J-4.5867
G1 X-211.0 Z0.8
G1 X-214.0875 Z-2.0
G1 X-214.2
G3 X-215.0 Y133.3712 I0.0 J-1.5875
G3 X-215.8 Y133.5875 I-0.8 J-1.3712
G1 X-222.0
G3 X-226.5875 Y129.0 I0.0 J-4.5875
G1 Y112.831
G2 X-226.7888 Y112.1042 I-1.4125 J0.0
G1 X-228.9337 Y108.5293
G3 X-229.5875 Y106.169 I3.9337 J-2.3602
G1 F200.0 X-230.4125
G3 F450.0 X-231.0663 Y108.5293 I-4.5875 J0.0
G1 X-233.2112 Y112.1042
G2 X-233.4125 Y112.831 I1.2112 J0.7267
G1 Y129.0
G3 X-237.9125 Y133.5867 I-4.5875 J0.0
G3 X-238.0 Y133.5875 Z-1.9206 I-0.0875 J-4.5867
G1 X-241.0 Z0.8
G1 X-244.0875 Z-2.0
G1 X-244.2
G3 X-245.0 Y133.3712 I0.0 J-1.5875
G3 X-245.8 Y133.5875 I-0.8 J-1.3712
G1 X-252.0
G3 X-256.5875 Y129.0 I0.0 J-4.5875
G1 Y112.831
G2 X-256.7888 Y112.1042 I-1.4125 J0.0
G1 X-258.9337 Y108.5293
G3 X-259.5875 Y106.169 I3.9337 J-2.3602
G1 Y71.0961
G1 Y71.0875 Z-1.9922
G1 Y68.0086 Z0.8
G1 Y68.0
G1 Y64.9211 Z-1.9922
G1 Y64.9125 Z-2.0
G1 Y55.5
G3 X-258.0 Y53.9125 I1.5875 J0.0
G1 X-257.5
G2 X-254.0875 Y50.5 I0.0 J-3.4125
G1 Y27.5
G2 X-257.5 Y24.0875 I-3.4125 J0.0
G1 X-258.0
G3 X-259.5875 Y22.5 I0.0 J-1.5875
G1 Y16.5
G3 X-258.0 Y14.9125 I1.5875 J0.0
G1 X-249.0875
G1 X-246.0 Z0.8
G1 X-242.9125 Z-2.0
G1 X-232.0
G3 X-230.4125 Y16.5 I0.0 J1.5875
G1 Y22.5
G3 X-232.0 Y24.0875 I-1.5875 J0.0
G1 X-232.5
G2 X-235.9125 Y27.5 I0.0 J3.4125
G1 Y50.5
G2 X-232.5 Y53.9125 I3.4125 J0.0
G1 X-232.0
G3 X-230.4125 Y55.5 I0.0 J1.5875
G1 Y64.9125
G1 Y64.9211 Z-1.9922
G1 Y68.0 Z0.8
G1 Y68.0086
G1 Y71.0875 Z-1.9922
G1 Y71.0961 Z-2.0
G1 Y106.169
G1 F200.0 Z-2.4
G3 F450.0 X-231.0663 Y108.5293 I-4.5875 J0.0
G1 X-233.2112 Y112.1042
G2 X-233.4125 Y112.831 I1.2112 J0.7267
G1 Y129.0
G3 X-237.9125 Y133.5867 I-4.5875 J0.0
G3 X-238.0 Y133.5875 Z-2.3093 I-0.0875 J-4.5867
G1 X-241.0 Z0.8
G1 X-244.0875 Z-2.4
G1 X-244.2
G3 X-245.0 Y133.3712 I0.0 J-1.5875
G3 X-245.8 Y133.5875 I-0.8 J-1.3712
G1 X-252.0
G3 X-256.5875 Y129.0 I0.0 J-4.5875
G1 Y112.831
G2 X-256.7888 Y112.1042 I-1.4125 J0.0
G1 X-258.9337 Y108.5293
G3 X-259.5875 Y106.169 I3.9337 J-2.3602
G1 Y71.0961
G1 Y71.0875 Z-2.391
G1 Y68.0086 Z0.8
G1 Y68.0
G1 Y64.9211 Z-2.391
G1 Y64.9125 Z-2.4
G1 Y55.5
G3 X-258.0 Y53.9125 I1.5875 J0.0
G1 X-257.5
G2 X-254.0875 Y50.5 I0.0 J-3.4125
G1 Y27.5
G2 X-257.5 Y24.0875 I-3.4125 J0.0
G1 X-258.0
G3 X-259.5875 Y22.5 I0.0 J-1.5875
G1 Y16.5
G3 X-258.0 Y14.9125 I1.5875 J0.0
G1 X-249.0875
G1 X-246.0 Z0.8
G1 X-242.9125 Z-2.4
G1 X-232.0
G3 X-230.4125 Y16.5 I0.0 J1.5875
G1 Y22.5
G3 X-232.0 Y24.0875 I-1.5875 J0.0
G1 X-232.5
G2 X-235.9125 Y27.5 I0.0 J3.4125
G1 Y50.5
G2 X-232.5 Y53.9125 I3.4125 J0.0
G1 X-232.0
G3 X-230.4125 Y55.5 I0.0 J1.5875
G1 Y64.9125
G1 Y64.9211 Z-2.391
G1 Y68.0 Z0.8
G1 Y68.0086
G1 Y71.0875 Z-2.391
G1 Y71.0961 Z-2.4
G1 Y106.169
G0 Z2.0
G0 X-260.4125
G1 F200.0 Z-2.4
G3 F450.0 X-261.0663 Y108.5293 I-4.5875 J0.0
G1 X-263.2112 Y112.1042
G2 X-263.4125 Y112.831 I1.2112 J0.7267
G1 Y129.0
G3 X-267.9125 Y133.5867 I-4.5875 J0.0
G3 X-268.0 Y133.5875 Z-2.3093 I-0.0875 J-4.5867
G1 X-271.0 Z0.8
G1 X-274.0875 Z-2.4
G1 X-274.2
G3 X-275.0 Y133.3712 I0.0 J-1.5875
G3 X-275.8 Y133.5875 I-0.8 J-1.3712
G1 X-282.0
G3 X-286.5875 Y129.0 I0.0 J-4.5875
G1 Y112.831
G2 X-286.7888 Y112.1042 I-1.4125 J0.0
G1 X-288.9337 Y108.5293
G3 X-289.5875 Y106.169 I3.9337 J-2.3602
G1 Y71.0961
G1 Y71.0875 Z-2.391
G1 Y68.0086 Z0.8
G1 Y68.0
G1 Y64.9211 Z-2.391
G1 Y64.9125 Z-2.4
G1 Y55.5
G3 X-288.0 Y53.9125 I1.5875 J0.0
G1 X-287.5
G2 X-284.0875 Y50.5 I0.0 J-3.4125
G1 Y27.5
G2 X-287.5 Y24.0875 I-3.4125 J0.0
G1 X-288.0
G3 X-289.5875 Y22.5 I0.0 J-1.5875
G1 Y16.5
G3 X-288.0 Y14.9125 I1.5875 J0.0
G1 X-278.0875
G1 X-275.0 Z0.8
G1 X-271.9125 Z-2.4
G1 X-262.0
G3 X-260.4125 Y16.5 I0.0 J1.5875
G1 Y22.5
G3 X-262.0 Y24.0875 I-1.5875 J0.0
G1 X-262.5
G2 X-265.9125 Y27.5 I0.0 J3.4125
G1 Y50.5
G2 X-262.5 Y53.9125 I3.4125 J0.0
G1 X-262.0
G3 X-260.4125 Y55.5 I0.0 J1.5875
G1 Y64.9125
G1 Y64.9211 Z-2.391
G1 Y68.0 Z0.8
G1 Y68.0086
G1 Y71.0875 Z-2.391
G1 Y71.0961 Z-2.4
G1 Y106.169
G0 Z2.0
G0 X-199.5875
G1 F200.0 Z-2.0
G1 F450.0 Y71.0961
G1 Y71.0875 Z-1.9922
G1 Y68.0086 Z0.8
G1 Y68.0
G1 Y64.9211 Z-1.9922
G1 Y64.9125 Z-2.0
G1 Y55.5
G3 X-198.0 Y53.9125 I1.5875 J0.0
G1 X-197.5
G2 X-194.0875 Y50.5 I0.0 J-3.4125
G1 Y27.5
G2 X-197.5 Y24.0875 I-3.4125 J0.0
G1 X-198.0
G3 X-199.5875 Y22.5 I0.0 J-1.5875
G1 Y16.5
G3 X-198.0 Y14.9125 I1.5875 J0.0
G1 X-188.0875
G1 X-185.0 Z0.8
G1 X-181.9125 Z-2.0
G1 X-172.0
G3 X-170.4125 Y16.5 I0.0 J1.5875
G1 Y22.5
G3 X-172.0 Y24.0875 I-1.5875 J0.0
G1 X-172.5
G2 X-175.9125 Y27.5 I0.0 J3.4125
G1 Y50.5
G2 X-172.5 Y53.9125 I3.4125 J0.0
G1 X-172.0
G3 X-170.4125 Y55.5 I0.0 J1.5875
G1 Y64.9125
G1 Y64.9211 Z-1.9922
G1 Y68.0 Z0.8
G1 Y68.0086
G1 Y71.0875 Z-1.9922
G1 Y71.0961 Z-2.0
G1 Y106.169
G3 X-171.0663 Y108.5293 I-4.5875 J0.0
G1 X-173.2112 Y112.1042
G2 X-173.4125 Y112.831 I1.2112 J0.7267
G1 Y129.0
G3 X-177.9125 Y133.5867 I-4.5875 J0.0
G3 X-178.0 Y133.5875 Z-1.9206 I-0.0875 J-4.5867
G1 X-181.0 Z0.8
G1 X-184.0875 Z-2.0
G1 X-184.2
G3 X-185.0 Y133.3712 I0.0 J-1.5875
G3 X-185.8 Y133.5875 I-0.8 J-1.3712
G1 X-192.0
G3 X-196.5875 Y129.0 I0.0 J-4.5875
G1 Y112.831
G2 X-196.7888 Y112.1042 I-1.4125 J0.0
G1 X-198.9337 Y108.5293
G3 X-199.5875 Y106.169 I3.9337 J-2.3602
G1 F200.0 Z-2.4
G1 F450.0 Y71.0961
G1 Y71.0875 Z-2.391
G1 Y68.0086 Z0.8
G1 Y68.0
G1 Y64.9211 Z-2.391
G1 Y64.9125 Z-2.4
G1 Y55.5
G3 X-198.0 Y53.9125 I1.5875 J0.0
G1 X-197.5
G2 X-194.0875 Y50.5 I0.0 J-3.4125
G1 Y27.5
G2 X-197.5 Y24.0875 I-3.4125 J0.0
G1 X-198.0
G3 X-199.5875 Y22.5 I0.0 J-1.5875
G1 Y16.5
G3 X-198.0 Y14.9125 I1.5875 J0.0
G1 X-188.0875
G1 X-185.0 Z0.8
G1 X-181.9125 Z-2.4
G1 X-172.0
G3 X-170.4125 Y16.5 I0.0 J1.5875
G1 Y22.5
G3 X-172.0 Y24.0875 I-1.5875 J0.0
G1 X-172.5
G2 X-175.9125 Y27.5 I0.0 J3.4125
G1 Y50.5
G2 X-172.5 Y53.9125 I3.4125 J0.0
G1 X-172.0
G3 X-170.4125 Y55.5 I0.0 J1.5875
G1 Y64.9125
G1 Y64.9211 Z-2.391
G1 Y68.0 Z0.8
G1 Y68.0086
G1 Y71.0875 Z-2.391
G1 Y71.0961 Z-2.4
G1 Y106.169
G3 X-171.0663 Y108.5293 I-4.5875 J0.0
G1 X-173.2112 Y112.1042
G2 X-173.4125 Y112.831 I1.2112 J0.7267
G1 Y129.0
G3 X-177.9125 Y133.5867 I-4.5875 J0.0
G3 X-178.0 Y133.5875 Z-2.3093 I-0.0875 J-4.5867
G1 X-181.0 Z0.8
G1 X-184.0875 Z-2.4
G1 X-184.2
G3 X-185.0 Y133.3712 I0.0 J-1.5875
G3 X-185.8 Y133.5875 I-0.8 J-1.3712
G1 X-192.0
G3 X-196.5875 Y129.0 I0.0 J-4.5875
G1 Y112.831
G2 X-196.7888 Y112.1042 I-1.4125 J0.0
G1 X-198.9337 Y108.5293
G3 X-199.5875 Y106.169 I3.9337 J-2.3602
G1 F200.0 X-200.4125
G3 F450.0 X-201.0663 Y108.5293 I-4.5875 J0.0
G1 X-203.2112 Y112.1042
G2 X-203.4125 Y112.831 I1.2112 J0.7267
G1 Y129.0
G3 X-207.9125 Y133.5867 I-4.5875 J0.0
G3 X-208.0 Y133.5875 Z-2.3093 I-0.0875 J-4.5867
G1 X-211.0 Z0.8
G1 X-214.0875 Z-2.4
G1 X-214.2
G3 X-215.0 Y133.3712 I0.0 J-1.5875
G3 X-215.8 Y133.5875 I-0.8 J-1.3712
G1 X-222.0
G3 X-226.5875 Y129.0 I0.0 J-4.5875
G1 Y112.831
G2 X-226.7888 Y112.1042 I-1.4125 J0.0
G1 X-228.9337 Y108.5293
G3 X-229.5875 Y106.169 I3.9337 J-2.3602
G1 Y71.0961
G1 Y71.0875 Z-2.391
G1 Y68.0086 Z0.8
G1 Y68.0
G1 Y64.9211 Z-2.391
G1 Y64.9125 Z-2.4
G1 Y55.5
G3 X-228.0 Y53.9125 I1.5875 J0.0
G1 X-227.5
G2 X-224.0875 Y50.5 I0.0 J-3.4125
G1 Y27.5
G2 X-227.5 Y24.0875 I-3.4125 J0.0
G1 X-228.0
G3 X-229.5875 Y22.5 I0.0 J-1.5875
G1 Y16.5
G3 X-228.0 Y14.9125 I1.5875 J0.0
G1 X-218.0875
G1 X-215.0 Z0.8
G1 X-211.9125 Z-2.4
G1 X-202.0
G3 X-200.4125 Y16.5 I0.0 J1.5875
G1 Y22.5
G3 X-202.0 Y24.0875 I-1.5875 J0.0
G1 X-202.5
G2 X-205.9125 Y27.5 I0.0 J3.4125
G1 Y50.5
G2 X-202.5 Y53.9125 I3.4125 J0.0
G1 X-202.0
G3 X-200.4125 Y55.5 I0.0 J1.5875
G1 Y64.9125
G1 Y64.9211 Z-2.391
G1 Y68.0 Z0.8
G1 Y68.0086
G1 Y71.0875 Z-2.391
G1 Y71.0961 Z-2.4
G1 Y106.169
G0 Z2.0
G0 X-169.5875
G1 F200.0 Z-2.4
G1 F450.0 Y71.0961
G1 Y71.0875 Z-2.391
G1 Y68.0086 Z0.8
G1 Y68.0
G1 Y64.9211 Z-2.391
G1 Y64.9125 Z-2.4
G1 Y55.5
G3 X-168.0 Y53.9125 I1.5875 J0.0
G1 X-167.5
G2 X-164.0875 Y50.5 I0.0 J-3.4125
G1 Y27.5
G2 X-167.5 Y24.0875 I-3.4125 J0.0
G1 X-168.0
G3 X-169.5875 Y22.5 I0.0 J-1.5875
G1 Y16.5
G3 X-168.0 Y14.9125 I1.5875 J0.0
G1 X-158.0875
G1 X-155.0 Z0.8
G1 X-151.9125 Z-2.4
G1 X-142.0
G3 X-140.4125 Y16.5 I0.0 J1.5875
G1 Y22.5
G3 X-142.0 Y24.0875 I-1.5875 J0.0
G1 X-142.5
G2 X-145.9125 Y27.5 I0.0 J3.4125
G1 Y50.5
G2 X-142.5 Y53.9125 I3.4125 J0.0
G1 X-142.0
G3 X-140.4125 Y55.5 I0.0 J1.5875
G1 Y64.9125
G1 Y64.9211 Z-2.391
G1 Y68.0 Z0.8
G1 Y68.0086
G1 Y71.0875 Z-2.391
G1 Y71.0961 Z-2.4
G1 Y106.169
G3 X-141.0663 Y108.5293 I-4.5875 J0.0
G1 X-143.2112 Y112.1042
G2 X-143.4125 Y112.831 I1.2112 J0.7267
G1 Y129.0
G3 X-147.9125 Y133.5867 I-4.5875 J0.0
G3 X-148.0 Y133.5875 Z-2.3093 I-0.0875 J-4.5867
G1 X-151.0 Z0.8
G1 X-154.0875 Z-2.4
G1 X-154.2
G3 X-155.0 Y133.3712 I0.0 J-1.5875
G3 X-155.8 Y133.5875 I-0.8 J-1.3712
G1 X-162.0
G3 X-166.5875 Y129.0 I0.0 J-4.5875
G1 Y112.831
G2 X-166.7888 Y112.1042 I-1.4125 J0.0
G1 X-168.9337 Y108.5293
G3 X-169.5875 Y106.169 I3.9337 J-2.3602
G0 Z2.0
M5
M30
