( Made using CamBam - http://www.cambam.co.uk )
( sheet2 3/19/2022 9:16:57 AM )
( T0 : 3.175 )
G21 G90 G40
G0 Z2.0
( T0 : 3.175 )
T0 M6
( 2_drill )
G17
M3 S1000
G0 X-14.0 Y128.0
G98
G81 X-14.0 Y128.0 Z-2.4 R2.0 F100.0
G81 X-26.0 Z-2.4
G81 Y116.0 Z-2.4
G81 X-14.0 Z-2.4
G81 X-12.2 Y104.0 Z-2.4
G81 X-30.0 Z-2.4
G81 X-42.2 Z-2.4
G81 X-44.0 Y116.0 Z-2.4
G81 X-56.0 Z-2.4
G81 Y128.0 Z-2.4
G81 X-44.0 Z-2.4
G81 X-60.0 Y104.0 Z-2.4
G81 X-72.2 Z-2.4
G81 X-74.0 Y116.0 Z-2.4
G81 Y128.0 Z-2.4
G81 X-86.0 Z-2.4
G81 Y116.0 Z-2.4
G81 X-90.0 Y104.0 Z-2.4
G81 X-102.2 Z-2.4
G81 X-104.0 Y116.0 Z-2.4
G81 Y128.0 Z-2.4
G81 X-116.0 Z-2.4
G81 Y116.0 Z-2.4
G81 X-120.0 Y104.0 Z-2.4
G81 X-132.2 Z-2.4
G81 X-134.0 Y116.0 Z-2.4
G81 Y128.0 Z-2.4
G81 X-146.0 Z-2.4
G81 Y116.0 Z-2.4
G81 X-150.0 Y104.0 Z-2.4
G81 X-162.2 Z-2.4
G81 X-164.0 Y116.0 Z-2.4
G81 Y128.0 Z-2.4
G81 X-176.0 Z-2.4
G81 Y116.0 Z-2.4
G81 X-180.0 Y104.0 Z-2.4
G81 X-162.2 Y78.4 Z-2.4
G81 X-160.0 Y58.5 Z-2.4
G81 X-150.0 Z-2.4
G81 X-130.0 Z-2.4
G81 X-120.0 Z-2.4
G81 X-100.0 Z-2.4
G81 X-90.0 Z-2.4
G81 X-70.0 Z-2.4
G81 X-60.0 Z-2.4
G81 X-40.0 Z-2.4
G81 X-30.0 Z-2.4
G81 X-10.0 Z-2.4
G81 X-12.2 Y78.4 Z-2.4
G81 X-42.2 Z-2.4
G81 X-72.2 Z-2.4
G81 X-102.2 Z-2.4
G81 X-132.2 Z-2.4
G81 X-180.0 Y58.5 Z-2.4
G81 X-198.0 Y75.0 Z-2.4
G81 X-215.0381 Y37.5233 Z-2.4
G81 X-206.5528 Y29.0381 Z-2.4
G81 X-215.0381 Y20.5528 Z-2.4
G81 X-223.5233 Y29.0381 Z-2.4
G81 X-242.0 Y50.5 Z-2.4
G81 X-261.0 Y38.0 Z-2.4
G81 X-300.0 Y50.5 Z-2.4
G81 X-310.2323 Y32.3084 Z-2.4
G81 X-303.6916 Y25.7677 Z-2.4
G81 X-324.0 Y75.0 Z-2.4
G81 X-300.0 Y99.5 Z-2.4
G81 X-306.9619 Y112.4767 Z-2.4
G81 X-315.4472 Y120.9619 Z-2.4
G81 X-306.9619 Y129.4472 Z-2.4
G81 X-298.4767 Y120.9619 Z-2.4
G81 X-261.0 Y112.0 Z-2.4
G81 X-242.0 Y99.5 Z-2.4
G81 X-218.3084 Y124.2323 Z-2.4
G81 X-211.7677 Y117.6916 Z-2.4
G81 X-180.0 Y19.5 Z-2.4
G81 X-160.0 Z-2.4
G81 X-150.0 Z-2.4
G81 X-130.0 Z-2.4
G81 X-120.0 Z-2.4
G81 X-100.0 Z-2.4
G81 X-90.0 Z-2.4
G81 X-70.0 Z-2.4
G81 X-60.0 Z-2.4
G81 X-40.0 Z-2.4
G81 X-30.0 Z-2.4
G81 X-10.0 Z-2.4
G80
M5
M30
