( Made using CamBam - http://www.cambam.co.uk )
( sheet1 3/19/2022 7:39:19 AM )
( T0 : 3.175 )
G21 G90 G40
G0 Z2.0
( T0 : 3.175 )
T0 M6
( 2_drill )
G17
M3 S1000
G0 X-29.0 Y128.0
G98
G81 X-29.0 Y128.0 Z-2.4 R2.0 F100.0
G81 X-41.0 Z-2.4
G81 Y116.0 Z-2.4
G81 X-29.0 Z-2.4
G81 X-27.2 Y104.0 Z-2.4
G81 X-45.0 Z-2.4
G81 X-57.2 Z-2.4
G81 X-59.0 Y116.0 Z-2.4
G81 X-71.0 Z-2.4
G81 Y128.0 Z-2.4
G81 X-59.0 Z-2.4
G81 X-75.0 Y104.0 Z-2.4
G81 X-87.2 Z-2.4
G81 X-89.0 Y116.0 Z-2.4
G81 X-101.0 Z-2.4
G81 Y128.0 Z-2.4
G81 X-89.0 Z-2.4
G81 X-105.0 Y104.0 Z-2.4
G81 X-117.2 Z-2.4
G81 X-119.0 Y116.0 Z-2.4
G81 Y128.0 Z-2.4
G81 X-131.0 Z-2.4
G81 Y116.0 Z-2.4
G81 X-135.0 Y104.0 Z-2.4
G81 X-147.2 Z-2.4
G81 X-149.0 Y116.0 Z-2.4
G81 Y128.0 Z-2.4
G81 X-161.0 Z-2.4
G81 Y116.0 Z-2.4
G81 X-165.0 Y104.0 Z-2.4
G81 X-177.2 Z-2.4
G81 X-179.0 Y116.0 Z-2.4
G81 Y128.0 Z-2.4
G81 X-191.0 Z-2.4
G81 Y116.0 Z-2.4
G81 X-195.0 Y104.0 Z-2.4
G81 X-207.2 Z-2.4
G81 X-209.0 Y116.0 Z-2.4
G81 Y128.0 Z-2.4
G81 X-221.0 Z-2.4
G81 Y116.0 Z-2.4
G81 X-225.0 Y104.0 Z-2.4
G81 X-237.2 Z-2.4
G81 X-239.0 Y116.0 Z-2.4
G81 Y128.0 Z-2.4
G81 X-251.0 Z-2.4
G81 Y116.0 Z-2.4
G81 X-255.0 Y104.0 Z-2.4
G81 X-267.2 Z-2.4
G81 X-269.0 Y116.0 Z-2.4
G81 Y128.0 Z-2.4
G81 X-281.0 Z-2.4
G81 Y116.0 Z-2.4
G81 X-285.0 Y104.0 Z-2.4
G81 X-297.2 Z-2.4
G81 X-299.0 Y116.0 Z-2.4
G81 X-311.0 Z-2.4
G81 Y128.0 Z-2.4
G81 X-299.0 Z-2.4
G81 X-315.0 Y104.0 Z-2.4
G81 X-297.2 Y78.4 Z-2.4
G81 X-295.0 Y58.5 Z-2.4
G81 X-285.0 Z-2.4
G81 X-265.0 Z-2.4
G81 X-255.0 Z-2.4
G81 X-235.0 Z-2.4
G81 X-225.0 Z-2.4
G81 X-205.0 Z-2.4
G81 X-195.0 Z-2.4
G81 X-175.0 Z-2.4
G81 X-165.0 Z-2.4
G81 X-145.0 Z-2.4
G81 X-135.0 Z-2.4
G81 X-115.0 Z-2.4
G81 X-105.0 Z-2.4
G81 X-85.0 Z-2.4
G81 X-75.0 Z-2.4
G81 X-55.0 Z-2.4
G81 X-45.0 Z-2.4
G81 X-25.0 Z-2.4
G81 X-27.2 Y78.4 Z-2.4
G81 X-57.2 Z-2.4
G81 X-87.2 Z-2.4
G81 X-117.2 Z-2.4
G81 X-147.2 Z-2.4
G81 X-177.2 Z-2.4
G81 X-207.2 Z-2.4
G81 X-237.2 Z-2.4
G81 X-267.2 Z-2.4
G81 X-315.0 Y58.5 Z-2.4
G81 Y19.5 Z-2.4
G81 X-295.0 Z-2.4
G81 X-285.0 Z-2.4
G81 X-265.0 Z-2.4
G81 X-255.0 Z-2.4
G81 X-235.0 Z-2.4
G81 X-225.0 Z-2.4
G81 X-205.0 Z-2.4
G81 X-195.0 Z-2.4
G81 X-175.0 Z-2.4
G81 X-165.0 Z-2.4
G81 X-145.0 Z-2.4
G81 X-135.0 Z-2.4
G81 X-115.0 Z-2.4
G81 X-105.0 Z-2.4
G81 X-85.0 Z-2.4
G81 X-75.0 Z-2.4
G81 X-55.0 Z-2.4
G81 X-45.0 Z-2.4
G81 X-25.0 Z-2.4
G80
M5
M30
