( Made using CamBam - http://www.cambam.co.uk )
( sheet2 3/19/2022 9:17:01 AM )
( T0 : 3.175 )
G21 G90 G40
G0 Z2.0
( T0 : 3.175 )
T0 M6
( 4_free )
G17
M3 S1000
G0 X-33.9337 Y108.5293
G1 F200.0 Z-0.4
G3 F450.0 X-34.5875 Y106.169 I3.9337 J-2.3602
G1 Y71.0961
G1 Y71.0875 Z-0.3966
G1 Y68.0086 Z0.8
G1 Y68.0
G1 Y64.9211 Z-0.3966
G1 Y64.9125 Z-0.4
G1 Y55.5
G3 X-33.0 Y53.9125 I1.5875 J0.0
G1 X-32.5
G2 X-29.0875 Y50.5 I0.0 J-3.4125
G1 Y27.5
G2 X-32.5 Y24.0875 I-3.4125 J0.0
G1 X-33.0
G3 X-34.5875 Y22.5 I0.0 J-1.5875
G1 Y16.5
G3 X-33.0 Y14.9125 I1.5875 J0.0
G1 X-22.0875
G1 X-19.0 Z0.8
G1 X-15.9125 Z-0.4
G1 X-7.0
G3 X-5.4125 Y16.5 I0.0 J1.5875
G1 Y22.5
G3 X-7.0 Y24.0875 I-1.5875 J0.0
G1 X-7.5
G2 X-10.9125 Y27.5 I0.0 J3.4125
G1 Y50.5
G2 X-7.5 Y53.9125 I3.4125 J0.0
G1 X-7.0
G3 X-5.4125 Y55.5 I0.0 J1.5875
G1 Y64.9125
G1 Y68.0 Z0.8
G1 Y71.0875 Z-0.4
G1 Y106.169
G3 X-6.0663 Y108.5293 I-4.5875 J0.0
G1 X-8.2112 Y112.1042
G2 X-8.4125 Y112.831 I1.2112 J0.7267
G1 Y129.0
G3 X-12.9125 Y133.5867 I-4.5875 J0.0
G3 X-13.0 Y133.5875 Z-0.366 I-0.0875 J-4.5867
G1 X-16.0 Z0.8
G1 X-19.0875 Z-0.4
G1 X-19.2
G3 X-20.0 Y133.3712 I0.0 J-1.5875
G3 X-20.8 Y133.5875 I-0.8 J-1.3712
G1 X-27.0
G3 X-31.5875 Y129.0 I0.0 J-4.5875
G1 Y112.831
G2 X-31.7888 Y112.1042 I-1.4125 J0.0
G1 X-33.9337 Y108.5293
G1 F200.0 X-35.7247 Y107.8325
G3 F450.0 X-36.0663 Y108.5293 I-4.2753 J-1.6634
G1 X-38.2112 Y112.1042
G2 X-38.4125 Y112.831 I1.2112 J0.7267
G1 Y129.0
G3 X-42.9125 Y133.5867 I-4.5875 J0.0
G3 X-43.0 Y133.5875 Z-0.366 I-0.0875 J-4.5867
G1 X-46.0 Z0.8
G1 X-49.0875 Z-0.4
G1 X-49.2
G3 X-50.0 Y133.3712 I0.0 J-1.5875
G3 X-50.8 Y133.5875 I-0.8 J-1.3712
G1 X-57.0
G3 X-61.5875 Y129.0 I0.0 J-4.5875
G1 Y112.831
G2 X-61.7888 Y112.1042 I-1.4125 J0.0
G1 X-63.9337 Y108.5293
G3 X-64.5875 Y106.169 I3.9337 J-2.3602
G1 Y71.0961
G1 Y71.0875 Z-0.3966
G1 Y68.0086 Z0.8
G1 Y68.0
G1 Y64.9211 Z-0.3966
G1 Y64.9125 Z-0.4
G1 Y55.5
G3 X-63.0 Y53.9125 I1.5875 J0.0
G1 X-62.5
G2 X-59.0875 Y50.5 I0.0 J-3.4125
G1 Y27.5
G2 X-62.5 Y24.0875 I-3.4125 J0.0
G1 X-63.0
G3 X-64.5875 Y22.5 I0.0 J-1.5875
G1 Y16.5
G3 X-63.0 Y14.9125 I1.5875 J0.0
G1 X-53.0875
G1 X-50.0 Z0.8
G1 X-46.9125 Z-0.4
G1 X-37.0
G3 X-35.4125 Y16.5 I0.0 J1.5875
G1 Y22.5
G3 X-37.0 Y24.0875 I-1.5875 J0.0
G1 X-37.5
G2 X-40.9125 Y27.5 I0.0 J3.4125
G1 Y50.5
G2 X-37.5 Y53.9125 I3.4125 J0.0
G1 X-37.0
G3 X-35.4125 Y55.5 I0.0 J1.5875
G1 Y64.9125
G1 Y64.9211 Z-0.3966
G1 Y68.0 Z0.8
G1 Y68.0086
G1 Y71.0875 Z-0.3966
G1 Y71.0961 Z-0.4
G1 Y106.169
G3 X-35.7247 Y107.8325 I-4.5875 J0.0
G1 F200.0 X-34.4053 Y107.4491
G1 Z-0.8
G3 F450.0 X-34.5875 Y106.169 I4.4053 J-1.28
G1 Y71.0961
G1 Y71.0875 Z-0.7955
G1 Y68.0086 Z0.8
G1 Y68.0
G1 Y64.9211 Z-0.7955
G1 Y64.9125 Z-0.8
G1 Y55.5
G3 X-33.0 Y53.9125 I1.5875 J0.0
G1 X-32.5
G2 X-29.0875 Y50.5 I0.0 J-3.4125
G1 Y27.5
G2 X-32.5 Y24.0875 I-3.4125 J0.0
G1 X-33.0
G3 X-34.5875 Y22.5 I0.0 J-1.5875
G1 Y16.5
G3 X-33.0 Y14.9125 I1.5875 J0.0
G1 X-22.0875
G1 X-19.0 Z0.8
G1 X-15.9125 Z-0.8
G1 X-7.0
G3 X-5.4125 Y16.5 I0.0 J1.5875
G1 Y22.5
G3 X-7.0 Y24.0875 I-1.5875 J0.0
G1 X-7.5
G2 X-10.9125 Y27.5 I0.0 J3.4125
G1 Y50.5
G2 X-7.5 Y53.9125 I3.4125 J0.0
G1 X-7.0
G3 X-5.4125 Y55.5 I0.0 J1.5875
G1 Y64.9125
G1 Y68.0 Z0.8
G1 Y71.0875 Z-0.8
G1 Y106.169
G3 X-6.0663 Y108.5293 I-4.5875 J0.0
G1 X-8.2112 Y112.1042
G2 X-8.4125 Y112.831 I1.2112 J0.7267
G1 Y129.0
G3 X-12.9125 Y133.5867 I-4.5875 J0.0
G3 X-13.0 Y133.5875 Z-0.7547 I-0.0875 J-4.5867
G1 X-16.0 Z0.8
G1 X-19.0875 Z-0.8
G1 X-19.2
G3 X-20.0 Y133.3712 I0.0 J-1.5875
G3 X-20.8 Y133.5875 I-0.8 J-1.3712
G1 X-27.0
G3 X-31.5875 Y129.0 I0.0 J-4.5875
G1 Y112.831
G2 X-31.7888 Y112.1042 I-1.4125 J0.0
G1 X-33.9337 Y108.5293
G3 X-34.4053 Y107.4491 I3.9337 J-2.3602
G0 Z2.0
G0 X-65.4155 Y106.3339
G1 F200.0 Z-0.4
G3 F450.0 X-66.0663 Y108.5293 I-4.5845 J-0.1649
G1 X-68.2112 Y112.1042
G2 X-68.4125 Y112.831 I1.2112 J0.7267
G1 Y129.0
G3 X-72.9125 Y133.5867 I-4.5875 J0.0
G3 X-73.0 Y133.5875 Z-0.366 I-0.0875 J-4.5867
G1 X-76.0 Z0.8
G1 X-79.0875 Z-0.4
G1 X-79.2
G3 X-80.0 Y133.3712 I0.0 J-1.5875
G3 X-80.8 Y133.5875 I-0.8 J-1.3712
G1 X-87.0
G3 X-91.5875 Y129.0 I0.0 J-4.5875
G1 Y112.831
G2 X-91.7888 Y112.1042 I-1.4125 J0.0
G1 X-93.9337 Y108.5293
G3 X-94.5875 Y106.169 I3.9337 J-2.3602
G1 Y71.0961
G1 Y71.0875 Z-0.3966
G1 Y68.0086 Z0.8
G1 Y68.0
G1 Y64.9211 Z-0.3966
G1 Y64.9125 Z-0.4
G1 Y55.5
G3 X-93.0 Y53.9125 I1.5875 J0.0
G1 X-92.5
G2 X-89.0875 Y50.5 I0.0 J-3.4125
G1 Y27.5
G2 X-92.5 Y24.0875 I-3.4125 J0.0
G1 X-93.0
G3 X-94.5875 Y22.5 I0.0 J-1.5875
G1 Y16.5
G3 X-93.0 Y14.9125 I1.5875 J0.0
G1 X-83.0875
G1 X-80.0 Z0.8
G1 X-76.9125 Z-0.4
G1 X-67.0
G3 X-65.4125 Y16.5 I0.0 J1.5875
G1 Y22.5
G3 X-67.0 Y24.0875 I-1.5875 J0.0
G1 X-67.5
G2 X-70.9125 Y27.5 I0.0 J3.4125
G1 Y50.5
G2 X-67.5 Y53.9125 I3.4125 J0.0
G1 X-67.0
G3 X-65.4125 Y55.5 I0.0 J1.5875
G1 Y64.9125
G1 Y64.9211 Z-0.3966
G1 Y68.0 Z0.8
G1 Y68.0086
G1 Y71.0875 Z-0.3966
G1 Y71.0961 Z-0.4
G1 Y106.169
G3 X-65.4155 Y106.3339 I-4.5875 J0.0
G1 F200.0 X-64.5854 Y106.3086
G1 Z-0.8
G3 F450.0 X-64.5875 Y106.169 I4.5854 J-0.1396
G1 Y71.0961
G1 Y71.0875 Z-0.7955
G1 Y68.0086 Z0.8
G1 Y68.0
G1 Y64.9211 Z-0.7955
G1 Y64.9125 Z-0.8
G1 Y55.5
G3 X-63.0 Y53.9125 I1.5875 J0.0
G1 X-62.5
G2 X-59.0875 Y50.5 I0.0 J-3.4125
G1 Y27.5
G2 X-62.5 Y24.0875 I-3.4125 J0.0
G1 X-63.0
G3 X-64.5875 Y22.5 I0.0 J-1.5875
G1 Y16.5
G3 X-63.0 Y14.9125 I1.5875 J0.0
G1 X-53.0875
G1 X-50.0 Z0.8
G1 X-46.9125 Z-0.8
G1 X-37.0
G3 X-35.4125 Y16.5 I0.0 J1.5875
G1 Y22.5
G3 X-37.0 Y24.0875 I-1.5875 J0.0
G1 X-37.5
G2 X-40.9125 Y27.5 I0.0 J3.4125
G1 Y50.5
G2 X-37.5 Y53.9125 I3.4125 J0.0
G1 X-37.0
G3 X-35.4125 Y55.5 I0.0 J1.5875
G1 Y64.9125
G1 Y64.9211 Z-0.7955
G1 Y68.0 Z0.8
G1 Y68.0086
G1 Y71.0875 Z-0.7955
G1 Y71.0961 Z-0.8
G1 Y106.169
G3 X-36.0663 Y108.5293 I-4.5875 J0.0
G1 X-38.2112 Y112.1042
G2 X-38.4125 Y112.831 I1.2112 J0.7267
G1 Y129.0
G3 X-42.9125 Y133.5867 I-4.5875 J0.0
G3 X-43.0 Y133.5875 Z-0.7547 I-0.0875 J-4.5867
G1 X-46.0 Z0.8
G1 X-49.0875 Z-0.8
G1 X-49.2
G3 X-50.0 Y133.3712 I0.0 J-1.5875
G3 X-50.8 Y133.5875 I-0.8 J-1.3712
G1 X-57.0
G3 X-61.5875 Y129.0 I0.0 J-4.5875
G1 Y112.831
G2 X-61.7888 Y112.1042 I-1.4125 J0.0
G1 X-63.9337 Y108.5293
G3 X-64.5854 Y106.3086 I3.9337 J-2.3602
G0 Z2.0
G0 X-34.5875 Y106.1876
G1 F200.0 Z-1.2
G3 F450.0 Y106.169 I4.5875 J-0.0185
G1 Y71.0961
G1 Y71.0875 Z-1.1944
G1 Y68.0086 Z0.8
G1 Y68.0
G1 Y64.9211 Z-1.1944
G1 Y64.9125 Z-1.2
G1 Y55.5
G3 X-33.0 Y53.9125 I1.5875 J0.0
G1 X-32.5
G2 X-29.0875 Y50.5 I0.0 J-3.4125
G1 Y27.5
G2 X-32.5 Y24.0875 I-3.4125 J0.0
G1 X-33.0
G3 X-34.5875 Y22.5 I0.0 J-1.5875
G1 Y16.5
G3 X-33.0 Y14.9125 I1.5875 J0.0
G1 X-22.0875
G1 X-19.0 Z0.8
G1 X-15.9125 Z-1.2
G1 X-7.0
G3 X-5.4125 Y16.5 I0.0 J1.5875
G1 Y22.5
G3 X-7.0 Y24.0875 I-1.5875 J0.0
G1 X-7.5
G2 X-10.9125 Y27.5 I0.0 J3.4125
G1 Y50.5
G2 X-7.5 Y53.9125 I3.4125 J0.0
G1 X-7.0
G3 X-5.4125 Y55.5 I0.0 J1.5875
G1 Y64.9125
G1 Y68.0 Z0.8
G1 Y71.0875 Z-1.2
G1 Y106.169
G3 X-6.0663 Y108.5293 I-4.5875 J0.0
G1 X-8.2112 Y112.1042
G2 X-8.4125 Y112.831 I1.2112 J0.7267
G1 Y129.0
G3 X-12.9125 Y133.5867 I-4.5875 J0.0
G3 X-13.0 Y133.5875 Z-1.1433 I-0.0875 J-4.5867
G1 X-16.0 Z0.8
G1 X-19.0875 Z-1.2
G1 X-19.2
G3 X-20.0 Y133.3712 I0.0 J-1.5875
G3 X-20.8 Y133.5875 I-0.8 J-1.3712
G1 X-27.0
G3 X-31.5875 Y129.0 I0.0 J-4.5875
G1 Y112.831
G2 X-31.7888 Y112.1042 I-1.4125 J0.0
G1 X-33.9337 Y108.5293
G3 X-34.5875 Y106.1876 I3.9337 J-2.3602
G0 Z2.0
G0 X-95.4125 Y106.1703
G1 F200.0 Z-0.4
G3 F450.0 X-96.0663 Y108.5293 I-4.5875 J-0.0013
G1 X-98.2112 Y112.1042
G2 X-98.4125 Y112.831 I1.2112 J0.7267
G1 Y129.0
G3 X-102.9125 Y133.5867 I-4.5875 J0.0
G3 X-103.0 Y133.5875 Z-0.366 I-0.0875 J-4.5867
G1 X-106.0 Z0.8
G1 X-109.0875 Z-0.4
G1 X-109.2
G3 X-110.0 Y133.3712 I0.0 J-1.5875
G3 X-110.8 Y133.5875 I-0.8 J-1.3712
G1 X-117.0
G3 X-121.5875 Y129.0 I0.0 J-4.5875
G1 Y112.831
G2 X-121.7888 Y112.1042 I-1.4125 J0.0
G1 X-123.9337 Y108.5293
G3 X-124.5875 Y106.169 I3.9337 J-2.3602
G1 Y71.0961
G1 Y71.0875 Z-0.3966
G1 Y68.0086 Z0.8
G1 Y68.0
G1 Y64.9211 Z-0.3966
G1 Y64.9125 Z-0.4
G1 Y55.5
G3 X-123.0 Y53.9125 I1.5875 J0.0
G1 X-122.5
G2 X-119.0875 Y50.5 I0.0 J-3.4125
G1 Y27.5
G2 X-122.5 Y24.0875 I-3.4125 J0.0
G1 X-123.0
G3 X-124.5875 Y22.5 I0.0 J-1.5875
G1 Y16.5
G3 X-123.0 Y14.9125 I1.5875 J0.0
G1 X-113.0875
G1 X-110.0 Z0.8
G1 X-106.9125 Z-0.4
G1 X-97.0
G3 X-95.4125 Y16.5 I0.0 J1.5875
G1 Y22.5
G3 X-97.0 Y24.0875 I-1.5875 J0.0
G1 X-97.5
G2 X-100.9125 Y27.5 I0.0 J3.4125
G1 Y50.5
G2 X-97.5 Y53.9125 I3.4125 J0.0
G1 X-97.0
G3 X-95.4125 Y55.5 I0.0 J1.5875
G1 Y64.9125
G1 Y64.9211 Z-0.3966
G1 Y68.0 Z0.8
G1 Y68.0086
G1 Y71.0875 Z-0.3966
G1 Y71.0961 Z-0.4
G1 Y106.169
G3 Y106.1703 I-4.5875 J0.0
G1 F200.0 X-94.5875 Y106.1701
G1 Z-0.8
G3 F450.0 Y106.169 I4.5875 J-0.0011
G1 Y71.0961
G1 Y71.0875 Z-0.7955
G1 Y68.0086 Z0.8
G1 Y68.0
G1 Y64.9211 Z-0.7955
G1 Y64.9125 Z-0.8
G1 Y55.5
G3 X-93.0 Y53.9125 I1.5875 J0.0
G1 X-92.5
G2 X-89.0875 Y50.5 I0.0 J-3.4125
G1 Y27.5
G2 X-92.5 Y24.0875 I-3.4125 J0.0
G1 X-93.0
G3 X-94.5875 Y22.5 I0.0 J-1.5875
G1 Y16.5
G3 X-93.0 Y14.9125 I1.5875 J0.0
G1 X-83.0875
G1 X-80.0 Z0.8
G1 X-76.9125 Z-0.8
G1 X-67.0
G3 X-65.4125 Y16.5 I0.0 J1.5875
G1 Y22.5
G3 X-67.0 Y24.0875 I-1.5875 J0.0
G1 X-67.5
G2 X-70.9125 Y27.5 I0.0 J3.4125
G1 Y50.5
G2 X-67.5 Y53.9125 I3.4125 J0.0
G1 X-67.0
G3 X-65.4125 Y55.5 I0.0 J1.5875
G1 Y64.9125
G1 Y64.9211 Z-0.7955
G1 Y68.0 Z0.8
G1 Y68.0086
G1 Y71.0875 Z-0.7955
G1 Y71.0961 Z-0.8
G1 Y106.169
G3 X-66.0663 Y108.5293 I-4.5875 J0.0
G1 X-68.2112 Y112.1042
G2 X-68.4125 Y112.831 I1.2112 J0.7267
G1 Y129.0
G3 X-72.9125 Y133.5867 I-4.5875 J0.0
G3 X-73.0 Y133.5875 Z-0.7547 I-0.0875 J-4.5867
G1 X-76.0 Z0.8
G1 X-79.0875 Z-0.8
G1 X-79.2
G3 X-80.0 Y133.3712 I0.0 J-1.5875
G3 X-80.8 Y133.5875 I-0.8 J-1.3712
G1 X-87.0
G3 X-91.5875 Y129.0 I0.0 J-4.5875
G1 Y112.831
G2 X-91.7888 Y112.1042 I-1.4125 J0.0
G1 X-93.9337 Y108.5293
G3 X-94.5875 Y106.1701 I3.9337 J-2.3602
G0 Z2.0
G0 X-64.5875 Y106.1692
G1 F200.0 Z-1.2
G1 F450.0 Y106.169
G1 Y71.0961
G1 Y71.0875 Z-1.1944
G1 Y68.0086 Z0.8
G1 Y68.0
G1 Y64.9211 Z-1.1944
G1 Y64.9125 Z-1.2
G1 Y55.5
G3 X-63.0 Y53.9125 I1.5875 J0.0
G1 X-62.5
G2 X-59.0875 Y50.5 I0.0 J-3.4125
G1 Y27.5
G2 X-62.5 Y24.0875 I-3.4125 J0.0
G1 X-63.0
G3 X-64.5875 Y22.5 I0.0 J-1.5875
G1 Y16.5
G3 X-63.0 Y14.9125 I1.5875 J0.0
G1 X-53.0875
G1 X-50.0 Z0.8
G1 X-46.9125 Z-1.2
G1 X-37.0
G3 X-35.4125 Y16.5 I0.0 J1.5875
G1 Y22.5
G3 X-37.0 Y24.0875 I-1.5875 J0.0
G1 X-37.5
G2 X-40.9125 Y27.5 I0.0 J3.4125
G1 Y50.5
G2 X-37.5 Y53.9125 I3.4125 J0.0
G1 X-37.0
G3 X-35.4125 Y55.5 I0.0 J1.5875
G1 Y64.9125
G1 Y64.9211 Z-1.1944
G1 Y68.0 Z0.8
G1 Y68.0086
G1 Y71.0875 Z-1.1944
G1 Y71.0961 Z-1.2
G1 Y106.169
G3 X-36.0663 Y108.5293 I-4.5875 J0.0
G1 X-38.2112 Y112.1042
G2 X-38.4125 Y112.831 I1.2112 J0.7267
G1 Y129.0
G3 X-42.9125 Y133.5867 I-4.5875 J0.0
G3 X-43.0 Y133.5875 Z-1.1433 I-0.0875 J-4.5867
G1 X-46.0 Z0.8
G1 X-49.0875 Z-1.2
G1 X-49.2
G3 X-50.0 Y133.3712 I0.0 J-1.5875
G3 X-50.8 Y133.5875 I-0.8 J-1.3712
G1 X-57.0
G3 X-61.5875 Y129.0 I0.0 J-4.5875
G1 Y112.831
G2 X-61.7888 Y112.1042 I-1.4125 J0.0
G1 X-63.9337 Y108.5293
G3 X-64.5875 Y106.1692 I3.9337 J-2.3602
G0 Z2.0
G0 X-34.5875 Y106.1691
G1 F200.0 Z-1.6
G1 F450.0 Y106.169
G1 Y71.0961
G1 Y71.0875 Z-1.5933
G1 Y68.0086 Z0.8
G1 Y68.0
G1 Y64.9211 Z-1.5933
G1 Y64.9125 Z-1.6
G1 Y55.5
G3 X-33.0 Y53.9125 I1.5875 J0.0
G1 X-32.5
G2 X-29.0875 Y50.5 I0.0 J-3.4125
G1 Y27.5
G2 X-32.5 Y24.0875 I-3.4125 J0.0
G1 X-33.0
G3 X-34.5875 Y22.5 I0.0 J-1.5875
G1 Y16.5
G3 X-33.0 Y14.9125 I1.5875 J0.0
G1 X-22.0875
G1 X-19.0 Z0.8
G1 X-15.9125 Z-1.6
G1 X-7.0
G3 X-5.4125 Y16.5 I0.0 J1.5875
G1 Y22.5
G3 X-7.0 Y24.0875 I-1.5875 J0.0
G1 X-7.5
G2 X-10.9125 Y27.5 I0.0 J3.4125
G1 Y50.5
G2 X-7.5 Y53.9125 I3.4125 J0.0
G1 X-7.0
G3 X-5.4125 Y55.5 I0.0 J1.5875
G1 Y64.9125
G1 Y68.0 Z0.8
G1 Y71.0875 Z-1.6
G1 Y106.169
G3 X-6.0663 Y108.5293 I-4.5875 J0.0
G1 X-8.2112 Y112.1042
G2 X-8.4125 Y112.831 I1.2112 J0.7267
G1 Y129.0
G3 X-12.9125 Y133.5867 I-4.5875 J0.0
G3 X-13.0 Y133.5875 Z-1.532 I-0.0875 J-4.5867
G1 X-16.0 Z0.8
G1 X-19.0875 Z-1.6
G1 X-19.2
G3 X-20.0 Y133.3712 I0.0 J-1.5875
G3 X-20.8 Y133.5875 I-0.8 J-1.3712
G1 X-27.0
G3 X-31.5875 Y129.0 I0.0 J-4.5875
G1 Y112.831
G2 X-31.7888 Y112.1042 I-1.4125 J0.0
G1 X-33.9337 Y108.5293
G3 X-34.5875 Y106.1691 I3.9337 J-2.3602
G0 Z2.0
G0 X-125.4125 Y106.169
G1 F200.0 Z-0.4
G3 F450.0 X-126.0663 Y108.5293 I-4.5875 J0.0
G1 X-128.2112 Y112.1042
G2 X-128.4125 Y112.831 I1.2112 J0.7267
G1 Y129.0
G3 X-132.9125 Y133.5867 I-4.5875 J0.0
G3 X-133.0 Y133.5875 Z-0.366 I-0.0875 J-4.5867
G1 X-136.0 Z0.8
G1 X-139.0875 Z-0.4
G1 X-139.2
G3 X-140.0 Y133.3712 I0.0 J-1.5875
G3 X-140.8 Y133.5875 I-0.8 J-1.3712
G1 X-147.0
G3 X-151.5875 Y129.0 I0.0 J-4.5875
G1 Y112.831
G2 X-151.7888 Y112.1042 I-1.4125 J0.0
G1 X-153.9337 Y108.5293
G3 X-154.5875 Y106.169 I3.9337 J-2.3602
G1 Y71.0961
G1 Y71.0875 Z-0.3966
G1 Y68.0086 Z0.8
G1 Y68.0
G1 Y64.9211 Z-0.3966
G1 Y64.9125 Z-0.4
G1 Y55.5
G3 X-153.0 Y53.9125 I1.5875 J0.0
G1 X-152.5
G2 X-149.0875 Y50.5 I0.0 J-3.4125
G1 Y27.5
G2 X-152.5 Y24.0875 I-3.4125 J0.0
G1 X-153.0
G3 X-154.5875 Y22.5 I0.0 J-1.5875
G1 Y16.5
G3 X-153.0 Y14.9125 I1.5875 J0.0
G1 X-143.0875
G1 X-140.0 Z0.8
G1 X-136.9125 Z-0.4
G1 X-127.0
G3 X-125.4125 Y16.5 I0.0 J1.5875
G1 Y22.5
G3 X-127.0 Y24.0875 I-1.5875 J0.0
G1 X-127.5
G2 X-130.9125 Y27.5 I0.0 J3.4125
G1 Y50.5
G2 X-127.5 Y53.9125 I3.4125 J0.0
G1 X-127.0
G3 X-125.4125 Y55.5 I0.0 J1.5875
G1 Y64.9125
G1 Y64.9211 Z-0.3966
G1 Y68.0 Z0.8
G1 Y68.0086
G1 Y71.0875 Z-0.3966
G1 Y71.0961 Z-0.4
G1 Y106.169
G1 F200.0 X-124.5875
G1 Z-0.8
G1 F450.0 Y71.0961
G1 Y71.0875 Z-0.7955
G1 Y68.0086 Z0.8
G1 Y68.0
G1 Y64.9211 Z-0.7955
G1 Y64.9125 Z-0.8
G1 Y55.5
G3 X-123.0 Y53.9125 I1.5875 J0.0
G1 X-122.5
G2 X-119.0875 Y50.5 I0.0 J-3.4125
G1 Y27.5
G2 X-122.5 Y24.0875 I-3.4125 J0.0
G1 X-123.0
G3 X-124.5875 Y22.5 I0.0 J-1.5875
G1 Y16.5
G3 X-123.0 Y14.9125 I1.5875 J0.0
G1 X-113.0875
G1 X-110.0 Z0.8
G1 X-106.9125 Z-0.8
G1 X-97.0
G3 X-95.4125 Y16.5 I0.0 J1.5875
G1 Y22.5
G3 X-97.0 Y24.0875 I-1.5875 J0.0
G1 X-97.5
G2 X-100.9125 Y27.5 I0.0 J3.4125
G1 Y50.5
G2 X-97.5 Y53.9125 I3.4125 J0.0
G1 X-97.0
G3 X-95.4125 Y55.5 I0.0 J1.5875
G1 Y64.9125
G1 Y64.9211 Z-0.7955
G1 Y68.0 Z0.8
G1 Y68.0086
G1 Y71.0875 Z-0.7955
G1 Y71.0961 Z-0.8
G1 Y106.169
G3 X-96.0663 Y108.5293 I-4.5875 J0.0
G1 X-98.2112 Y112.1042
G2 X-98.4125 Y112.831 I1.2112 J0.7267
G1 Y129.0
G3 X-102.9125 Y133.5867 I-4.5875 J0.0
G3 X-103.0 Y133.5875 Z-0.7547 I-0.0875 J-4.5867
G1 X-106.0 Z0.8
G1 X-109.0875 Z-0.8
G1 X-109.2
G3 X-110.0 Y133.3712 I0.0 J-1.5875
G3 X-110.8 Y133.5875 I-0.8 J-1.3712
G1 X-117.0
G3 X-121.5875 Y129.0 I0.0 J-4.5875
G1 Y112.831
G2 X-121.7888 Y112.1042 I-1.4125 J0.0
G1 X-123.9337 Y108.5293
G3 X-124.5875 Y106.169 I3.9337 J-2.3602
G0 Z2.0
G0 X-94.5875
G1 F200.0 Z-1.2
G1 F450.0 Y71.0961
G1 Y71.0875 Z-1.1944
G1 Y68.0086 Z0.8
G1 Y68.0
G1 Y64.9211 Z-1.1944
G1 Y64.9125 Z-1.2
G1 Y55.5
G3 X-93.0 Y53.9125 I1.5875 J0.0
G1 X-92.5
G2 X-89.0875 Y50.5 I0.0 J-3.4125
G1 Y27.5
G2 X-92.5 Y24.0875 I-3.4125 J0.0
G1 X-93.0
G3 X-94.5875 Y22.5 I0.0 J-1.5875
G1 Y16.5
G3 X-93.0 Y14.9125 I1.5875 J0.0
G1 X-83.0875
G1 X-80.0 Z0.8
G1 X-76.9125 Z-1.2
G1 X-67.0
G3 X-65.4125 Y16.5 I0.0 J1.5875
G1 Y22.5
G3 X-67.0 Y24.0875 I-1.5875 J0.0
G1 X-67.5
G2 X-70.9125 Y27.5 I0.0 J3.4125
G1 Y50.5
G2 X-67.5 Y53.9125 I3.4125 J0.0
G1 X-67.0
G3 X-65.4125 Y55.5 I0.0 J1.5875
G1 Y64.9125
G1 Y64.9211 Z-1.1944
G1 Y68.0 Z0.8
G1 Y68.0086
G1 Y71.0875 Z-1.1944
G1 Y71.0961 Z-1.2
G1 Y106.169
G3 X-66.0663 Y108.5293 I-4.5875 J0.0
G1 X-68.2112 Y112.1042
G2 X-68.4125 Y112.831 I1.2112 J0.7267
G1 Y129.0
G3 X-72.9125 Y133.5867 I-4.5875 J0.0
G3 X-73.0 Y133.5875 Z-1.1433 I-0.0875 J-4.5867
G1 X-76.0 Z0.8
G1 X-79.0875 Z-1.2
G1 X-79.2
G3 X-80.0 Y133.3712 I0.0 J-1.5875
G3 X-80.8 Y133.5875 I-0.8 J-1.3712
G1 X-87.0
G3 X-91.5875 Y129.0 I0.0 J-4.5875
G1 Y112.831
G2 X-91.7888 Y112.1042 I-1.4125 J0.0
G1 X-93.9337 Y108.5293
G3 X-94.5875 Y106.169 I3.9337 J-2.3602
G0 Z2.0
G0 X-64.5875
G1 F200.0 Z-1.6
G1 F450.0 Y71.0961
G1 Y71.0875 Z-1.5933
G1 Y68.0086 Z0.8
G1 Y68.0
G1 Y64.9211 Z-1.5933
G1 Y64.9125 Z-1.6
G1 Y55.5
G3 X-63.0 Y53.9125 I1.5875 J0.0
G1 X-62.5
G2 X-59.0875 Y50.5 I0.0 J-3.4125
G1 Y27.5
G2 X-62.5 Y24.0875 I-3.4125 J0.0
G1 X-63.0
G3 X-64.5875 Y22.5 I0.0 J-1.5875
G1 Y16.5
G3 X-63.0 Y14.9125 I1.5875 J0.0
G1 X-53.0875
G1 X-50.0 Z0.8
G1 X-46.9125 Z-1.6
G1 X-37.0
G3 X-35.4125 Y16.5 I0.0 J1.5875
G1 Y22.5
G3 X-37.0 Y24.0875 I-1.5875 J0.0
G1 X-37.5
G2 X-40.9125 Y27.5 I0.0 J3.4125
G1 Y50.5
G2 X-37.5 Y53.9125 I3.4125 J0.0
G1 X-37.0
G3 X-35.4125 Y55.5 I0.0 J1.5875
G1 Y64.9125
G1 Y64.9211 Z-1.5933
G1 Y68.0 Z0.8
G1 Y68.0086
G1 Y71.0875 Z-1.5933
G1 Y71.0961 Z-1.6
G1 Y106.169
G3 X-36.0663 Y108.5293 I-4.5875 J0.0
G1 X-38.2112 Y112.1042
G2 X-38.4125 Y112.831 I1.2112 J0.7267
G1 Y129.0
G3 X-42.9125 Y133.5867 I-4.5875 J0.0
G3 X-43.0 Y133.5875 Z-1.532 I-0.0875 J-4.5867
G1 X-46.0 Z0.8
G1 X-49.0875 Z-1.6
G1 X-49.2
G3 X-50.0 Y133.3712 I0.0 J-1.5875
G3 X-50.8 Y133.5875 I-0.8 J-1.3712
G1 X-57.0
G3 X-61.5875 Y129.0 I0.0 J-4.5875
G1 Y112.831
G2 X-61.7888 Y112.1042 I-1.4125 J0.0
G1 X-63.9337 Y108.5293
G3 X-64.5875 Y106.169 I3.9337 J-2.3602
G0 Z2.0
G0 X-34.5875
G1 F200.0 Z-2.0
G1 F450.0 Y71.0961
G1 Y71.0875 Z-1.9922
G1 Y68.0086 Z0.8
G1 Y68.0
G1 Y64.9211 Z-1.9922
G1 Y64.9125 Z-2.0
G1 Y55.5
G3 X-33.0 Y53.9125 I1.5875 J0.0
G1 X-32.5
G2 X-29.0875 Y50.5 I0.0 J-3.4125
G1 Y27.5
G2 X-32.5 Y24.0875 I-3.4125 J0.0
G1 X-33.0
G3 X-34.5875 Y22.5 I0.0 J-1.5875
G1 Y16.5
G3 X-33.0 Y14.9125 I1.5875 J0.0
G1 X-22.0875
G1 X-19.0 Z0.8
G1 X-15.9125 Z-2.0
G1 X-7.0
G3 X-5.4125 Y16.5 I0.0 J1.5875
G1 Y22.5
G3 X-7.0 Y24.0875 I-1.5875 J0.0
G1 X-7.5
G2 X-10.9125 Y27.5 I0.0 J3.4125
G1 Y50.5
G2 X-7.5 Y53.9125 I3.4125 J0.0
G1 X-7.0
G3 X-5.4125 Y55.5 I0.0 J1.5875
G1 Y64.9125
G1 Y68.0 Z0.8
G1 Y71.0875 Z-2.0
G1 Y106.169
G3 X-6.0663 Y108.5293 I-4.5875 J0.0
G1 X-8.2112 Y112.1042
G2 X-8.4125 Y112.831 I1.2112 J0.7267
G1 Y129.0
G3 X-12.9125 Y133.5867 I-4.5875 J0.0
G3 X-13.0 Y133.5875 Z-1.9206 I-0.0875 J-4.5867
G1 X-16.0 Z0.8
G1 X-19.0875 Z-2.0
G1 X-19.2
G3 X-20.0 Y133.3712 I0.0 J-1.5875
G3 X-20.8 Y133.5875 I-0.8 J-1.3712
G1 X-27.0
G3 X-31.5875 Y129.0 I0.0 J-4.5875
G1 Y112.831
G2 X-31.7888 Y112.1042 I-1.4125 J0.0
G1 X-33.9337 Y108.5293
G3 X-34.5875 Y106.169 I3.9337 J-2.3602
G0 Z2.0
G0 X-155.4125
G1 F200.0 Z-0.4
G3 F450.0 X-156.0663 Y108.5293 I-4.5875 J0.0
G1 X-158.2112 Y112.1042
G2 X-158.4125 Y112.831 I1.2112 J0.7267
G1 Y129.0
G3 X-162.9125 Y133.5867 I-4.5875 J0.0
G3 X-163.0 Y133.5875 Z-0.366 I-0.0875 J-4.5867
G1 X-166.0 Z0.8
G1 X-169.0875 Z-0.4
G1 X-169.2
G3 X-170.0 Y133.3712 I0.0 J-1.5875
G3 X-170.8 Y133.5875 I-0.8 J-1.3712
G1 X-177.0
G3 X-181.5875 Y129.0 I0.0 J-4.5875
G1 Y112.831
G2 X-181.7888 Y112.1042 I-1.4125 J0.0
G1 X-183.9337 Y108.5293
G3 X-184.5875 Y106.169 I3.9337 J-2.3602
G1 Y71.0961
G1 Y68.0086 Z0.8
G1 Y64.9211 Z-0.4
G1 Y55.5
G3 X-183.0 Y53.9125 I1.5875 J0.0
G1 X-182.5
G2 X-179.0875 Y50.5 I0.0 J-3.4125
G1 Y27.5
G2 X-182.5 Y24.0875 I-3.4125 J0.0
G1 X-183.0
G3 X-184.5875 Y22.5 I0.0 J-1.5875
G1 Y16.5
G3 X-183.0 Y14.9125 I1.5875 J0.0
G1 X-173.0875
G1 X-170.0 Z0.8
G1 X-166.9125 Z-0.4
G1 X-157.0
G3 X-155.4125 Y16.5 I0.0 J1.5875
G1 Y22.5
G3 X-157.0 Y24.0875 I-1.5875 J0.0
G1 X-157.5
G2 X-160.9125 Y27.5 I0.0 J3.4125
G1 Y50.5
G2 X-157.5 Y53.9125 I3.4125 J0.0
G1 X-157.0
G3 X-155.4125 Y55.5 I0.0 J1.5875
G1 Y64.9125
G1 Y64.9211 Z-0.3966
G1 Y68.0 Z0.8
G1 Y68.0086
G1 Y71.0875 Z-0.3966
G1 Y71.0961 Z-0.4
G1 Y106.169
G1 F200.0 Z-0.8
G3 F450.0 X-156.0663 Y108.5293 I-4.5875 J0.0
G1 X-158.2112 Y112.1042
G2 X-158.4125 Y112.831 I1.2112 J0.7267
G1 Y129.0
G3 X-162.9125 Y133.5867 I-4.5875 J0.0
G3 X-163.0 Y133.5875 Z-0.7547 I-0.0875 J-4.5867
G1 X-166.0 Z0.8
G1 X-169.0875 Z-0.8
G1 X-169.2
G3 X-170.0 Y133.3712 I0.0 J-1.5875
G3 X-170.8 Y133.5875 I-0.8 J-1.3712
G1 X-177.0
G3 X-181.5875 Y129.0 I0.0 J-4.5875
G1 Y112.831
G2 X-181.7888 Y112.1042 I-1.4125 J0.0
G1 X-183.9337 Y108.5293
G3 X-184.5875 Y106.169 I3.9337 J-2.3602
G1 Y71.0961
G1 Y68.0086 Z0.8
G1 Y64.9211 Z-0.8
G1 Y55.5
G3 X-183.0 Y53.9125 I1.5875 J0.0
G1 X-182.5
G2 X-179.0875 Y50.5 I0.0 J-3.4125
G1 Y27.5
G2 X-182.5 Y24.0875 I-3.4125 J0.0
G1 X-183.0
G3 X-184.5875 Y22.5 I0.0 J-1.5875
G1 Y16.5
G3 X-183.0 Y14.9125 I1.5875 J0.0
G1 X-173.0875
G1 X-170.0 Z0.8
G1 X-166.9125 Z-0.8
G1 X-157.0
G3 X-155.4125 Y16.5 I0.0 J1.5875
G1 Y22.5
G3 X-157.0 Y24.0875 I-1.5875 J0.0
G1 X-157.5
G2 X-160.9125 Y27.5 I0.0 J3.4125
G1 Y50.5
G2 X-157.5 Y53.9125 I3.4125 J0.0
G1 X-157.0
G3 X-155.4125 Y55.5 I0.0 J1.5875
G1 Y64.9125
G1 Y64.9211 Z-0.7955
G1 Y68.0 Z0.8
G1 Y68.0086
G1 Y71.0875 Z-0.7955
G1 Y71.0961 Z-0.8
G1 Y106.169
G1 F200.0 X-154.5875
G1 F450.0 Y71.0961
G1 Y71.0875 Z-0.7955
G1 Y68.0086 Z0.8
G1 Y68.0
G1 Y64.9211 Z-0.7955
G1 Y64.9125 Z-0.8
G1 Y55.5
G3 X-153.0 Y53.9125 I1.5875 J0.0
G1 X-152.5
G2 X-149.0875 Y50.5 I0.0 J-3.4125
G1 Y27.5
G2 X-152.5 Y24.0875 I-3.4125 J0.0
G1 X-153.0
G3 X-154.5875 Y22.5 I0.0 J-1.5875
G1 Y16.5
G3 X-153.0 Y14.9125 I1.5875 J0.0
G1 X-143.0875
G1 X-140.0 Z0.8
G1 X-136.9125 Z-0.8
G1 X-127.0
G3 X-125.4125 Y16.5 I0.0 J1.5875
G1 Y22.5
G3 X-127.0 Y24.0875 I-1.5875 J0.0
G1 X-127.5
G2 X-130.9125 Y27.5 I0.0 J3.4125
G1 Y50.5
G2 X-127.5 Y53.9125 I3.4125 J0.0
G1 X-127.0
G3 X-125.4125 Y55.5 I0.0 J1.5875
G1 Y64.9125
G1 Y64.9211 Z-0.7955
G1 Y68.0 Z0.8
G1 Y68.0086
G1 Y71.0875 Z-0.7955
G1 Y71.0961 Z-0.8
G1 Y106.169
G3 X-126.0663 Y108.5293 I-4.5875 J0.0
G1 X-128.2112 Y112.1042
G2 X-128.4125 Y112.831 I1.2112 J0.7267
G1 Y129.0
G3 X-132.9125 Y133.5867 I-4.5875 J0.0
G3 X-133.0 Y133.5875 Z-0.7547 I-0.0875 J-4.5867
G1 X-136.0 Z0.8
G1 X-139.0875 Z-0.8
G1 X-139.2
G3 X-140.0 Y133.3712 I0.0 J-1.5875
G3 X-140.8 Y133.5875 I-0.8 J-1.3712
G1 X-147.0
G3 X-151.5875 Y129.0 I0.0 J-4.5875
G1 Y112.831
G2 X-151.7888 Y112.1042 I-1.4125 J0.0
G1 X-153.9337 Y108.5293
G3 X-154.5875 Y106.169 I3.9337 J-2.3602
G1 F200.0 Z-1.2
G1 F450.0 Y71.0961
G1 Y71.0875 Z-1.1944
G1 Y68.0086 Z0.8
G1 Y68.0
G1 Y64.9211 Z-1.1944
G1 Y64.9125 Z-1.2
G1 Y55.5
G3 X-153.0 Y53.9125 I1.5875 J0.0
G1 X-152.5
G2 X-149.0875 Y50.5 I0.0 J-3.4125
G1 Y27.5
G2 X-152.5 Y24.0875 I-3.4125 J0.0
G1 X-153.0
G3 X-154.5875 Y22.5 I0.0 J-1.5875
G1 Y16.5
G3 X-153.0 Y14.9125 I1.5875 J0.0
G1 X-143.0875
G1 X-140.0 Z0.8
G1 X-136.9125 Z-1.2
G1 X-127.0
G3 X-125.4125 Y16.5 I0.0 J1.5875
G1 Y22.5
G3 X-127.0 Y24.0875 I-1.5875 J0.0
G1 X-127.5
G2 X-130.9125 Y27.5 I0.0 J3.4125
G1 Y50.5
G2 X-127.5 Y53.9125 I3.4125 J0.0
G1 X-127.0
G3 X-125.4125 Y55.5 I0.0 J1.5875
G1 Y64.9125
G1 Y64.9211 Z-1.1944
G1 Y68.0 Z0.8
G1 Y68.0086
G1 Y71.0875 Z-1.1944
G1 Y71.0961 Z-1.2
G1 Y106.169
G3 X-126.0663 Y108.5293 I-4.5875 J0.0
G1 X-128.2112 Y112.1042
G2 X-128.4125 Y112.831 I1.2112 J0.7267
G1 Y129.0
G3 X-132.9125 Y133.5867 I-4.5875 J0.0
G3 X-133.0 Y133.5875 Z-1.1433 I-0.0875 J-4.5867
G1 X-136.0 Z0.8
G1 X-139.0875 Z-1.2
G1 X-139.2
G3 X-140.0 Y133.3712 I0.0 J-1.5875
G3 X-140.8 Y133.5875 I-0.8 J-1.3712
G1 X-147.0
G3 X-151.5875 Y129.0 I0.0 J-4.5875
G1 Y112.831
G2 X-151.7888 Y112.1042 I-1.4125 J0.0
G1 X-153.9337 Y108.5293
G3 X-154.5875 Y106.169 I3.9337 J-2.3602
G1 F200.0 X-155.4125
G3 F450.0 X-156.0663 Y108.5293 I-4.5875 J0.0
G1 X-158.2112 Y112.1042
G2 X-158.4125 Y112.831 I1.2112 J0.7267
G1 Y129.0
G3 X-162.9125 Y133.5867 I-4.5875 J0.0
G3 X-163.0 Y133.5875 Z-1.1433 I-0.0875 J-4.5867
G1 X-166.0 Z0.8
G1 X-169.0875 Z-1.2
G1 X-169.2
G3 X-170.0 Y133.3712 I0.0 J-1.5875
G3 X-170.8 Y133.5875 I-0.8 J-1.3712
G1 X-177.0
G3 X-181.5875 Y129.0 I0.0 J-4.5875
G1 Y112.831
G2 X-181.7888 Y112.1042 I-1.4125 J0.0
G1 X-183.9337 Y108.5293
G3 X-184.5875 Y106.169 I3.9337 J-2.3602
G1 Y71.0961
G1 Y68.0086 Z0.8
G1 Y64.9211 Z-1.2
G1 Y55.5
G3 X-183.0 Y53.9125 I1.5875 J0.0
G1 X-182.5
G2 X-179.0875 Y50.5 I0.0 J-3.4125
G1 Y27.5
G2 X-182.5 Y24.0875 I-3.4125 J0.0
G1 X-183.0
G3 X-184.5875 Y22.5 I0.0 J-1.5875
G1 Y16.5
G3 X-183.0 Y14.9125 I1.5875 J0.0
G1 X-173.0875
G1 X-170.0 Z0.8
G1 X-166.9125 Z-1.2
G1 X-157.0
G3 X-155.4125 Y16.5 I0.0 J1.5875
G1 Y22.5
G3 X-157.0 Y24.0875 I-1.5875 J0.0
G1 X-157.5
G2 X-160.9125 Y27.5 I0.0 J3.4125
G1 Y50.5
G2 X-157.5 Y53.9125 I3.4125 J0.0
G1 X-157.0
G3 X-155.4125 Y55.5 I0.0 J1.5875
G1 Y64.9125
G1 Y64.9211 Z-1.1944
G1 Y68.0 Z0.8
G1 Y68.0086
G1 Y71.0875 Z-1.1944
G1 Y71.0961 Z-1.2
G1 Y106.169
G1 F200.0 Z-1.6
G3 F450.0 X-156.0663 Y108.5293 I-4.5875 J0.0
G1 X-158.2112 Y112.1042
G2 X-158.4125 Y112.831 I1.2112 J0.7267
G1 Y129.0
G3 X-162.9125 Y133.5867 I-4.5875 J0.0
G3 X-163.0 Y133.5875 Z-1.532 I-0.0875 J-4.5867
G1 X-166.0 Z0.8
G1 X-169.0875 Z-1.6
G1 X-169.2
G3 X-170.0 Y133.3712 I0.0 J-1.5875
G3 X-170.8 Y133.5875 I-0.8 J-1.3712
G1 X-177.0
G3 X-181.5875 Y129.0 I0.0 J-4.5875
G1 Y112.831
G2 X-181.7888 Y112.1042 I-1.4125 J0.0
G1 X-183.9337 Y108.5293
G3 X-184.5875 Y106.169 I3.9337 J-2.3602
G1 Y71.0961
G1 Y68.0086 Z0.8
G1 Y64.9211 Z-1.6
G1 Y55.5
G3 X-183.0 Y53.9125 I1.5875 J0.0
G1 X-182.5
G2 X-179.0875 Y50.5 I0.0 J-3.4125
G1 Y27.5
G2 X-182.5 Y24.0875 I-3.4125 J0.0
G1 X-183.0
G3 X-184.5875 Y22.5 I0.0 J-1.5875
G1 Y16.5
G3 X-183.0 Y14.9125 I1.5875 J0.0
G1 X-173.0875
G1 X-170.0 Z0.8
G1 X-166.9125 Z-1.6
G1 X-157.0
G3 X-155.4125 Y16.5 I0.0 J1.5875
G1 Y22.5
G3 X-157.0 Y24.0875 I-1.5875 J0.0
G1 X-157.5
G2 X-160.9125 Y27.5 I0.0 J3.4125
G1 Y50.5
G2 X-157.5 Y53.9125 I3.4125 J0.0
G1 X-157.0
G3 X-155.4125 Y55.5 I0.0 J1.5875
G1 Y64.9125
G1 Y64.9211 Z-1.5933
G1 Y68.0 Z0.8
G1 Y68.0086
G1 Y71.0875 Z-1.5933
G1 Y71.0961 Z-1.6
G1 Y106.169
G0 Z2.0
G0 X-124.5875
G1 F200.0 Z-1.2
G1 F450.0 Y71.0961
G1 Y71.0875 Z-1.1944
G1 Y68.0086 Z0.8
G1 Y68.0
G1 Y64.9211 Z-1.1944
G1 Y64.9125 Z-1.2
G1 Y55.5
G3 X-123.0 Y53.9125 I1.5875 J0.0
G1 X-122.5
G2 X-119.0875 Y50.5 I0.0 J-3.4125
G1 Y27.5
G2 X-122.5 Y24.0875 I-3.4125 J0.0
G1 X-123.0
G3 X-124.5875 Y22.5 I0.0 J-1.5875
G1 Y16.5
G3 X-123.0 Y14.9125 I1.5875 J0.0
G1 X-113.0875
G1 X-110.0 Z0.8
G1 X-106.9125 Z-1.2
G1 X-97.0
G3 X-95.4125 Y16.5 I0.0 J1.5875
G1 Y22.5
G3 X-97.0 Y24.0875 I-1.5875 J0.0
G1 X-97.5
G2 X-100.9125 Y27.5 I0.0 J3.4125
G1 Y50.5
G2 X-97.5 Y53.9125 I3.4125 J0.0
G1 X-97.0
G3 X-95.4125 Y55.5 I0.0 J1.5875
G1 Y64.9125
G1 Y64.9211 Z-1.1944
G1 Y68.0 Z0.8
G1 Y68.0086
G1 Y71.0875 Z-1.1944
G1 Y71.0961 Z-1.2
G1 Y106.169
G3 X-96.0663 Y108.5293 I-4.5875 J0.0
G1 X-98.2112 Y112.1042
G2 X-98.4125 Y112.831 I1.2112 J0.7267
G1 Y129.0
G3 X-102.9125 Y133.5867 I-4.5875 J0.0
G3 X-103.0 Y133.5875 Z-1.1433 I-0.0875 J-4.5867
G1 X-106.0 Z0.8
G1 X-109.0875 Z-1.2
G1 X-109.2
G3 X-110.0 Y133.3712 I0.0 J-1.5875
G3 X-110.8 Y133.5875 I-0.8 J-1.3712
G1 X-117.0
G3 X-121.5875 Y129.0 I0.0 J-4.5875
G1 Y112.831
G2 X-121.7888 Y112.1042 I-1.4125 J0.0
G1 X-123.9337 Y108.5293
G3 X-124.5875 Y106.169 I3.9337 J-2.3602
G1 F200.0 Z-1.6
G1 F450.0 Y71.0961
G1 Y71.0875 Z-1.5933
G1 Y68.0086 Z0.8
G1 Y68.0
G1 Y64.9211 Z-1.5933
G1 Y64.9125 Z-1.6
G1 Y55.5
G3 X-123.0 Y53.9125 I1.5875 J0.0
G1 X-122.5
G2 X-119.0875 Y50.5 I0.0 J-3.4125
G1 Y27.5
G2 X-122.5 Y24.0875 I-3.4125 J0.0
G1 X-123.0
G3 X-124.5875 Y22.5 I0.0 J-1.5875
G1 Y16.5
G3 X-123.0 Y14.9125 I1.5875 J0.0
G1 X-113.0875
G1 X-110.0 Z0.8
G1 X-106.9125 Z-1.6
G1 X-97.0
G3 X-95.4125 Y16.5 I0.0 J1.5875
G1 Y22.5
G3 X-97.0 Y24.0875 I-1.5875 J0.0
G1 X-97.5
G2 X-100.9125 Y27.5 I0.0 J3.4125
G1 Y50.5
G2 X-97.5 Y53.9125 I3.4125 J0.0
G1 X-97.0
G3 X-95.4125 Y55.5 I0.0 J1.5875
G1 Y64.9125
G1 Y64.9211 Z-1.5933
G1 Y68.0 Z0.8
G1 Y68.0086
G1 Y71.0875 Z-1.5933
G1 Y71.0961 Z-1.6
G1 Y106.169
G3 X-96.0663 Y108.5293 I-4.5875 J0.0
G1 X-98.2112 Y112.1042
G2 X-98.4125 Y112.831 I1.2112 J0.7267
G1 Y129.0
G3 X-102.9125 Y133.5867 I-4.5875 J0.0
G3 X-103.0 Y133.5875 Z-1.532 I-0.0875 J-4.5867
G1 X-106.0 Z0.8
G1 X-109.0875 Z-1.6
G1 X-109.2
G3 X-110.0 Y133.3712 I0.0 J-1.5875
G3 X-110.8 Y133.5875 I-0.8 J-1.3712
G1 X-117.0
G3 X-121.5875 Y129.0 I0.0 J-4.5875
G1 Y112.831
G2 X-121.7888 Y112.1042 I-1.4125 J0.0
G1 X-123.9337 Y108.5293
G3 X-124.5875 Y106.169 I3.9337 J-2.3602
G1 F200.0 X-125.4125
G3 F450.0 X-126.0663 Y108.5293 I-4.5875 J0.0
G1 X-128.2112 Y112.1042
G2 X-128.4125 Y112.831 I1.2112 J0.7267
G1 Y129.0
G3 X-132.9125 Y133.5867 I-4.5875 J0.0
G3 X-133.0 Y133.5875 Z-1.532 I-0.0875 J-4.5867
G1 X-136.0 Z0.8
G1 X-139.0875 Z-1.6
G1 X-139.2
G3 X-140.0 Y133.3712 I0.0 J-1.5875
G3 X-140.8 Y133.5875 I-0.8 J-1.3712
G1 X-147.0
G3 X-151.5875 Y129.0 I0.0 J-4.5875
G1 Y112.831
G2 X-151.7888 Y112.1042 I-1.4125 J0.0
G1 X-153.9337 Y108.5293
G3 X-154.5875 Y106.169 I3.9337 J-2.3602
G1 Y71.0961
G1 Y71.0875 Z-1.5933
G1 Y68.0086 Z0.8
G1 Y68.0
G1 Y64.9211 Z-1.5933
G1 Y64.9125 Z-1.6
G1 Y55.5
G3 X-153.0 Y53.9125 I1.5875 J0.0
G1 X-152.5
G2 X-149.0875 Y50.5 I0.0 J-3.4125
G1 Y27.5
G2 X-152.5 Y24.0875 I-3.4125 J0.0
G1 X-153.0
G3 X-154.5875 Y22.5 I0.0 J-1.5875
G1 Y16.5
G3 X-153.0 Y14.9125 I1.5875 J0.0
G1 X-143.0875
G1 X-140.0 Z0.8
G1 X-136.9125 Z-1.6
G1 X-127.0
G3 X-125.4125 Y16.5 I0.0 J1.5875
G1 Y22.5
G3 X-127.0 Y24.0875 I-1.5875 J0.0
G1 X-127.5
G2 X-130.9125 Y27.5 I0.0 J3.4125
G1 Y50.5
G2 X-127.5 Y53.9125 I3.4125 J0.0
G1 X-127.0
G3 X-125.4125 Y55.5 I0.0 J1.5875
G1 Y64.9125
G1 Y64.9211 Z-1.5933
G1 Y68.0 Z0.8
G1 Y68.0086
G1 Y71.0875 Z-1.5933
G1 Y71.0961 Z-1.6
G1 Y106.169
G1 F200.0 Z-2.0
G3 F450.0 X-126.0663 Y108.5293 I-4.5875 J0.0
G1 X-128.2112 Y112.1042
G2 X-128.4125 Y112.831 I1.2112 J0.7267
G1 Y129.0
G3 X-132.9125 Y133.5867 I-4.5875 J0.0
G3 X-133.0 Y133.5875 Z-1.9206 I-0.0875 J-4.5867
G1 X-136.0 Z0.8
G1 X-139.0875 Z-2.0
G1 X-139.2
G3 X-140.0 Y133.3712 I0.0 J-1.5875
G3 X-140.8 Y133.5875 I-0.8 J-1.3712
G1 X-147.0
G3 X-151.5875 Y129.0 I0.0 J-4.5875
G1 Y112.831
G2 X-151.7888 Y112.1042 I-1.4125 J0.0
G1 X-153.9337 Y108.5293
G3 X-154.5875 Y106.169 I3.9337 J-2.3602
G1 Y71.0961
G1 Y71.0875 Z-1.9922
G1 Y68.0086 Z0.8
G1 Y68.0
G1 Y64.9211 Z-1.9922
G1 Y64.9125 Z-2.0
G1 Y55.5
G3 X-153.0 Y53.9125 I1.5875 J0.0
G1 X-152.5
G2 X-149.0875 Y50.5 I0.0 J-3.4125
G1 Y27.5
G2 X-152.5 Y24.0875 I-3.4125 J0.0
G1 X-153.0
G3 X-154.5875 Y22.5 I0.0 J-1.5875
G1 Y16.5
G3 X-153.0 Y14.9125 I1.5875 J0.0
G1 X-143.0875
G1 X-140.0 Z0.8
G1 X-136.9125 Z-2.0
G1 X-127.0
G3 X-125.4125 Y16.5 I0.0 J1.5875
G1 Y22.5
G3 X-127.0 Y24.0875 I-1.5875 J0.0
G1 X-127.5
G2 X-130.9125 Y27.5 I0.0 J3.4125
G1 Y50.5
G2 X-127.5 Y53.9125 I3.4125 J0.0
G1 X-127.0
G3 X-125.4125 Y55.5 I0.0 J1.5875
G1 Y64.9125
G1 Y64.9211 Z-1.9922
G1 Y68.0 Z0.8
G1 Y68.0086
G1 Y71.0875 Z-1.9922
G1 Y71.0961 Z-2.0
G1 Y106.169
G0 Z2.0
G0 X-155.4125
G1 F200.0 Z-2.0
G3 F450.0 X-156.0663 Y108.5293 I-4.5875 J0.0
G1 X-158.2112 Y112.1042
G2 X-158.4125 Y112.831 I1.2112 J0.7267
G1 Y129.0
G3 X-162.9125 Y133.5867 I-4.5875 J0.0
G3 X-163.0 Y133.5875 Z-1.9206 I-0.0875 J-4.5867
G1 X-166.0 Z0.8
G1 X-169.0875 Z-2.0
G1 X-169.2
G3 X-170.0 Y133.3712 I0.0 J-1.5875
G3 X-170.8 Y133.5875 I-0.8 J-1.3712
G1 X-177.0
G3 X-181.5875 Y129.0 I0.0 J-4.5875
G1 Y112.831
G2 X-181.7888 Y112.1042 I-1.4125 J0.0
G1 X-183.9337 Y108.5293
G3 X-184.5875 Y106.169 I3.9337 J-2.3602
G1 Y71.0961
G1 Y68.0086 Z0.8
G1 Y64.9211 Z-2.0
G1 Y55.5
G3 X-183.0 Y53.9125 I1.5875 J0.0
G1 X-182.5
G2 X-179.0875 Y50.5 I0.0 J-3.4125
G1 Y27.5
G2 X-182.5 Y24.0875 I-3.4125 J0.0
G1 X-183.0
G3 X-184.5875 Y22.5 I0.0 J-1.5875
G1 Y16.5
G3 X-183.0 Y14.9125 I1.5875 J0.0
G1 X-173.0875
G1 X-170.0 Z0.8
G1 X-166.9125 Z-2.0
G1 X-157.0
G3 X-155.4125 Y16.5 I0.0 J1.5875
G1 Y22.5
G3 X-157.0 Y24.0875 I-1.5875 J0.0
G1 X-157.5
G2 X-160.9125 Y27.5 I0.0 J3.4125
G1 Y50.5
G2 X-157.5 Y53.9125 I3.4125 J0.0
G1 X-157.0
G3 X-155.4125 Y55.5 I0.0 J1.5875
G1 Y64.9125
G1 Y64.9211 Z-1.9922
G1 Y68.0 Z0.8
G1 Y68.0086
G1 Y71.0875 Z-1.9922
G1 Y71.0961 Z-2.0
G1 Y106.169
G1 F200.0 Z-2.4
G3 F450.0 X-156.0663 Y108.5293 I-4.5875 J0.0
G1 X-158.2112 Y112.1042
G2 X-158.4125 Y112.831 I1.2112 J0.7267
G1 Y129.0
G3 X-162.9125 Y133.5867 I-4.5875 J0.0
G3 X-163.0 Y133.5875 Z-2.3093 I-0.0875 J-4.5867
G1 X-166.0 Z0.8
G1 X-169.0875 Z-2.4
G1 X-169.2
G3 X-170.0 Y133.3712 I0.0 J-1.5875
G3 X-170.8 Y133.5875 I-0.8 J-1.3712
G1 X-177.0
G3 X-181.5875 Y129.0 I0.0 J-4.5875
G1 Y112.831
G2 X-181.7888 Y112.1042 I-1.4125 J0.0
G1 X-183.9337 Y108.5293
G3 X-184.5875 Y106.169 I3.9337 J-2.3602
G1 Y71.0961
G1 Y68.0086 Z0.8
G1 Y64.9211 Z-2.4
G1 Y55.5
G3 X-183.0 Y53.9125 I1.5875 J0.0
G1 X-182.5
G2 X-179.0875 Y50.5 I0.0 J-3.4125
G1 Y27.5
G2 X-182.5 Y24.0875 I-3.4125 J0.0
G1 X-183.0
G3 X-184.5875 Y22.5 I0.0 J-1.5875
G1 Y16.5
G3 X-183.0 Y14.9125 I1.5875 J0.0
G1 X-173.0875
G1 X-170.0 Z0.8
G1 X-166.9125 Z-2.4
G1 X-157.0
G3 X-155.4125 Y16.5 I0.0 J1.5875
G1 Y22.5
G3 X-157.0 Y24.0875 I-1.5875 J0.0
G1 X-157.5
G2 X-160.9125 Y27.5 I0.0 J3.4125
G1 Y50.5
G2 X-157.5 Y53.9125 I3.4125 J0.0
G1 X-157.0
G3 X-155.4125 Y55.5 I0.0 J1.5875
G1 Y64.9125
G1 Y64.9211 Z-2.391
G1 Y68.0 Z0.8
G1 Y68.0086
G1 Y71.0875 Z-2.391
G1 Y71.0961 Z-2.4
G1 Y106.169
G0 Z2.0
G0 X-94.5875
G1 F200.0 Z-1.6
G1 F450.0 Y71.0961
G1 Y71.0875 Z-1.5933
G1 Y68.0086 Z0.8
G1 Y68.0
G1 Y64.9211 Z-1.5933
G1 Y64.9125 Z-1.6
G1 Y55.5
G3 X-93.0 Y53.9125 I1.5875 J0.0
G1 X-92.5
G2 X-89.0875 Y50.5 I0.0 J-3.4125
G1 Y27.5
G2 X-92.5 Y24.0875 I-3.4125 J0.0
G1 X-93.0
G3 X-94.5875 Y22.5 I0.0 J-1.5875
G1 Y16.5
G3 X-93.0 Y14.9125 I1.5875 J0.0
G1 X-83.0875
G1 X-80.0 Z0.8
G1 X-76.9125 Z-1.6
G1 X-67.0
G3 X-65.4125 Y16.5 I0.0 J1.5875
G1 Y22.5
G3 X-67.0 Y24.0875 I-1.5875 J0.0
G1 X-67.5
G2 X-70.9125 Y27.5 I0.0 J3.4125
G1 Y50.5
G2 X-67.5 Y53.9125 I3.4125 J0.0
G1 X-67.0
G3 X-65.4125 Y55.5 I0.0 J1.5875
G1 Y64.9125
G1 Y64.9211 Z-1.5933
G1 Y68.0 Z0.8
G1 Y68.0086
G1 Y71.0875 Z-1.5933
G1 Y71.0961 Z-1.6
G1 Y106.169
G3 X-66.0663 Y108.5293 I-4.5875 J0.0
G1 X-68.2112 Y112.1042
G2 X-68.4125 Y112.831 I1.2112 J0.7267
G1 Y129.0
G3 X-72.9125 Y133.5867 I-4.5875 J0.0
G3 X-73.0 Y133.5875 Z-1.532 I-0.0875 J-4.5867
G1 X-76.0 Z0.8
G1 X-79.0875 Z-1.6
G1 X-79.2
G3 X-80.0 Y133.3712 I0.0 J-1.5875
G3 X-80.8 Y133.5875 I-0.8 J-1.3712
G1 X-87.0
G3 X-91.5875 Y129.0 I0.0 J-4.5875
G1 Y112.831
G2 X-91.7888 Y112.1042 I-1.4125 J0.0
G1 X-93.9337 Y108.5293
G3 X-94.5875 Y106.169 I3.9337 J-2.3602
G1 F200.0 Z-2.0
G1 F450.0 Y71.0961
G1 Y71.0875 Z-1.9922
G1 Y68.0086 Z0.8
G1 Y68.0
G1 Y64.9211 Z-1.9922
G1 Y64.9125 Z-2.0
G1 Y55.5
G3 X-93.0 Y53.9125 I1.5875 J0.0
G1 X-92.5
G2 X-89.0875 Y50.5 I0.0 J-3.4125
G1 Y27.5
G2 X-92.5 Y24.0875 I-3.4125 J0.0
G1 X-93.0
G3 X-94.5875 Y22.5 I0.0 J-1.5875
G1 Y16.5
G3 X-93.0 Y14.9125 I1.5875 J0.0
G1 X-83.0875
G1 X-80.0 Z0.8
G1 X-76.9125 Z-2.0
G1 X-67.0
G3 X-65.4125 Y16.5 I0.0 J1.5875
G1 Y22.5
G3 X-67.0 Y24.0875 I-1.5875 J0.0
G1 X-67.5
G2 X-70.9125 Y27.5 I0.0 J3.4125
G1 Y50.5
G2 X-67.5 Y53.9125 I3.4125 J0.0
G1 X-67.0
G3 X-65.4125 Y55.5 I0.0 J1.5875
G1 Y64.9125
G1 Y64.9211 Z-1.9922
G1 Y68.0 Z0.8
G1 Y68.0086
G1 Y71.0875 Z-1.9922
G1 Y71.0961 Z-2.0
G1 Y106.169
G3 X-66.0663 Y108.5293 I-4.5875 J0.0
G1 X-68.2112 Y112.1042
G2 X-68.4125 Y112.831 I1.2112 J0.7267
G1 Y129.0
G3 X-72.9125 Y133.5867 I-4.5875 J0.0
G3 X-73.0 Y133.5875 Z-1.9206 I-0.0875 J-4.5867
G1 X-76.0 Z0.8
G1 X-79.0875 Z-2.0
G1 X-79.2
G3 X-80.0 Y133.3712 I0.0 J-1.5875
G3 X-80.8 Y133.5875 I-0.8 J-1.3712
G1 X-87.0
G3 X-91.5875 Y129.0 I0.0 J-4.5875
G1 Y112.831
G2 X-91.7888 Y112.1042 I-1.4125 J0.0
G1 X-93.9337 Y108.5293
G3 X-94.5875 Y106.169 I3.9337 J-2.3602
G1 F200.0 X-95.4125
G3 F450.0 X-96.0663 Y108.5293 I-4.5875 J0.0
G1 X-98.2112 Y112.1042
G2 X-98.4125 Y112.831 I1.2112 J0.7267
G1 Y129.0
G3 X-102.9125 Y133.5867 I-4.5875 J0.0
G3 X-103.0 Y133.5875 Z-1.9206 I-0.0875 J-4.5867
G1 X-106.0 Z0.8
G1 X-109.0875 Z-2.0
G1 X-109.2
G3 X-110.0 Y133.3712 I0.0 J-1.5875
G3 X-110.8 Y133.5875 I-0.8 J-1.3712
G1 X-117.0
G3 X-121.5875 Y129.0 I0.0 J-4.5875
G1 Y112.831
G2 X-121.7888 Y112.1042 I-1.4125 J0.0
G1 X-123.9337 Y108.5293
G3 X-124.5875 Y106.169 I3.9337 J-2.3602
G1 Y71.0961
G1 Y71.0875 Z-1.9922
G1 Y68.0086 Z0.8
G1 Y68.0
G1 Y64.9211 Z-1.9922
G1 Y64.9125 Z-2.0
G1 Y55.5
G3 X-123.0 Y53.9125 I1.5875 J0.0
G1 X-122.5
G2 X-119.0875 Y50.5 I0.0 J-3.4125
G1 Y27.5
G2 X-122.5 Y24.0875 I-3.4125 J0.0
G1 X-123.0
G3 X-124.5875 Y22.5 I0.0 J-1.5875
G1 Y16.5
G3 X-123.0 Y14.9125 I1.5875 J0.0
G1 X-113.0875
G1 X-110.0 Z0.8
G1 X-106.9125 Z-2.0
G1 X-97.0
G3 X-95.4125 Y16.5 I0.0 J1.5875
G1 Y22.5
G3 X-97.0 Y24.0875 I-1.5875 J0.0
G1 X-97.5
G2 X-100.9125 Y27.5 I0.0 J3.4125
G1 Y50.5
G2 X-97.5 Y53.9125 I3.4125 J0.0
G1 X-97.0
G3 X-95.4125 Y55.5 I0.0 J1.5875
G1 Y64.9125
G1 Y64.9211 Z-1.9922
G1 Y68.0 Z0.8
G1 Y68.0086
G1 Y71.0875 Z-1.9922
G1 Y71.0961 Z-2.0
G1 Y106.169
G1 F200.0 Z-2.4
G3 F450.0 X-96.0663 Y108.5293 I-4.5875 J0.0
G1 X-98.2112 Y112.1042
G2 X-98.4125 Y112.831 I1.2112 J0.7267
G1 Y129.0
G3 X-102.9125 Y133.5867 I-4.5875 J0.0
G3 X-103.0 Y133.5875 Z-2.3093 I-0.0875 J-4.5867
G1 X-106.0 Z0.8
G1 X-109.0875 Z-2.4
G1 X-109.2
G3 X-110.0 Y133.3712 I0.0 J-1.5875
G3 X-110.8 Y133.5875 I-0.8 J-1.3712
G1 X-117.0
G3 X-121.5875 Y129.0 I0.0 J-4.5875
G1 Y112.831
G2 X-121.7888 Y112.1042 I-1.4125 J0.0
G1 X-123.9337 Y108.5293
G3 X-124.5875 Y106.169 I3.9337 J-2.3602
G1 Y71.0961
G1 Y71.0875 Z-2.391
G1 Y68.0086 Z0.8
G1 Y68.0
G1 Y64.9211 Z-2.391
G1 Y64.9125 Z-2.4
G1 Y55.5
G3 X-123.0 Y53.9125 I1.5875 J0.0
G1 X-122.5
G2 X-119.0875 Y50.5 I0.0 J-3.4125
G1 Y27.5
G2 X-122.5 Y24.0875 I-3.4125 J0.0
G1 X-123.0
G3 X-124.5875 Y22.5 I0.0 J-1.5875
G1 Y16.5
G3 X-123.0 Y14.9125 I1.5875 J0.0
G1 X-113.0875
G1 X-110.0 Z0.8
G1 X-106.9125 Z-2.4
G1 X-97.0
G3 X-95.4125 Y16.5 I0.0 J1.5875
G1 Y22.5
G3 X-97.0 Y24.0875 I-1.5875 J0.0
G1 X-97.5
G2 X-100.9125 Y27.5 I0.0 J3.4125
G1 Y50.5
G2 X-97.5 Y53.9125 I3.4125 J0.0
G1 X-97.0
G3 X-95.4125 Y55.5 I0.0 J1.5875
G1 Y64.9125
G1 Y64.9211 Z-2.391
G1 Y68.0 Z0.8
G1 Y68.0086
G1 Y71.0875 Z-2.391
G1 Y71.0961 Z-2.4
G1 Y106.169
G0 Z2.0
G0 X-125.4125
G1 F200.0 Z-2.4
G3 F450.0 X-126.0663 Y108.5293 I-4.5875 J0.0
G1 X-128.2112 Y112.1042
G2 X-128.4125 Y112.831 I1.2112 J0.7267
G1 Y129.0
G3 X-132.9125 Y133.5867 I-4.5875 J0.0
G3 X-133.0 Y133.5875 Z-2.3093 I-0.0875 J-4.5867
G1 X-136.0 Z0.8
G1 X-139.0875 Z-2.4
G1 X-139.2
G3 X-140.0 Y133.3712 I0.0 J-1.5875
G3 X-140.8 Y133.5875 I-0.8 J-1.3712
G1 X-147.0
G3 X-151.5875 Y129.0 I0.0 J-4.5875
G1 Y112.831
G2 X-151.7888 Y112.1042 I-1.4125 J0.0
G1 X-153.9337 Y108.5293
G3 X-154.5875 Y106.169 I3.9337 J-2.3602
G1 Y71.0961
G1 Y71.0875 Z-2.391
G1 Y68.0086 Z0.8
G1 Y68.0
G1 Y64.9211 Z-2.391
G1 Y64.9125 Z-2.4
G1 Y55.5
G3 X-153.0 Y53.9125 I1.5875 J0.0
G1 X-152.5
G2 X-149.0875 Y50.5 I0.0 J-3.4125
G1 Y27.5
G2 X-152.5 Y24.0875 I-3.4125 J0.0
G1 X-153.0
G3 X-154.5875 Y22.5 I0.0 J-1.5875
G1 Y16.5
G3 X-153.0 Y14.9125 I1.5875 J0.0
G1 X-143.0875
G1 X-140.0 Z0.8
G1 X-136.9125 Z-2.4
G1 X-127.0
G3 X-125.4125 Y16.5 I0.0 J1.5875
G1 Y22.5
G3 X-127.0 Y24.0875 I-1.5875 J0.0
G1 X-127.5
G2 X-130.9125 Y27.5 I0.0 J3.4125
G1 Y50.5
G2 X-127.5 Y53.9125 I3.4125 J0.0
G1 X-127.0
G3 X-125.4125 Y55.5 I0.0 J1.5875
G1 Y64.9125
G1 Y64.9211 Z-2.391
G1 Y68.0 Z0.8
G1 Y68.0086
G1 Y71.0875 Z-2.391
G1 Y71.0961 Z-2.4
G1 Y106.169
G0 Z2.0
G0 X-64.5875
G1 F200.0 Z-2.0
G1 F450.0 Y71.0961
G1 Y71.0875 Z-1.9922
G1 Y68.0086 Z0.8
G1 Y68.0
G1 Y64.9211 Z-1.9922
G1 Y64.9125 Z-2.0
G1 Y55.5
G3 X-63.0 Y53.9125 I1.5875 J0.0
G1 X-62.5
G2 X-59.0875 Y50.5 I0.0 J-3.4125
G1 Y27.5
G2 X-62.5 Y24.0875 I-3.4125 J0.0
G1 X-63.0
G3 X-64.5875 Y22.5 I0.0 J-1.5875
G1 Y16.5
G3 X-63.0 Y14.9125 I1.5875 J0.0
G1 X-53.0875
G1 X-50.0 Z0.8
G1 X-46.9125 Z-2.0
G1 X-37.0
G3 X-35.4125 Y16.5 I0.0 J1.5875
G1 Y22.5
G3 X-37.0 Y24.0875 I-1.5875 J0.0
G1 X-37.5
G2 X-40.9125 Y27.5 I0.0 J3.4125
G1 Y50.5
G2 X-37.5 Y53.9125 I3.4125 J0.0
G1 X-37.0
G3 X-35.4125 Y55.5 I0.0 J1.5875
G1 Y64.9125
G1 Y64.9211 Z-1.9922
G1 Y68.0 Z0.8
G1 Y68.0086
G1 Y71.0875 Z-1.9922
G1 Y71.0961 Z-2.0
G1 Y106.169
G3 X-36.0663 Y108.5293 I-4.5875 J0.0
G1 X-38.2112 Y112.1042
G2 X-38.4125 Y112.831 I1.2112 J0.7267
G1 Y129.0
G3 X-42.9125 Y133.5867 I-4.5875 J0.0
G3 X-43.0 Y133.5875 Z-1.9206 I-0.0875 J-4.5867
G1 X-46.0 Z0.8
G1 X-49.0875 Z-2.0
G1 X-49.2
G3 X-50.0 Y133.3712 I0.0 J-1.5875
G3 X-50.8 Y133.5875 I-0.8 J-1.3712
G1 X-57.0
G3 X-61.5875 Y129.0 I0.0 J-4.5875
G1 Y112.831
G2 X-61.7888 Y112.1042 I-1.4125 J0.0
G1 X-63.9337 Y108.5293
G3 X-64.5875 Y106.169 I3.9337 J-2.3602
G1 F200.0 Z-2.4
G1 F450.0 Y71.0961
G1 Y71.0875 Z-2.391
G1 Y68.0086 Z0.8
G1 Y68.0
G1 Y64.9211 Z-2.391
G1 Y64.9125 Z-2.4
G1 Y55.5
G3 X-63.0 Y53.9125 I1.5875 J0.0
G1 X-62.5
G2 X-59.0875 Y50.5 I0.0 J-3.4125
G1 Y27.5
G2 X-62.5 Y24.0875 I-3.4125 J0.0
G1 X-63.0
G3 X-64.5875 Y22.5 I0.0 J-1.5875
G1 Y16.5
G3 X-63.0 Y14.9125 I1.5875 J0.0
G1 X-53.0875
G1 X-50.0 Z0.8
G1 X-46.9125 Z-2.4
G1 X-37.0
G3 X-35.4125 Y16.5 I0.0 J1.5875
G1 Y22.5
G3 X-37.0 Y24.0875 I-1.5875 J0.0
G1 X-37.5
G2 X-40.9125 Y27.5 I0.0 J3.4125
G1 Y50.5
G2 X-37.5 Y53.9125 I3.4125 J0.0
G1 X-37.0
G3 X-35.4125 Y55.5 I0.0 J1.5875
G1 Y64.9125
G1 Y64.9211 Z-2.391
G1 Y68.0 Z0.8
G1 Y68.0086
G1 Y71.0875 Z-2.391
G1 Y71.0961 Z-2.4
G1 Y106.169
G3 X-36.0663 Y108.5293 I-4.5875 J0.0
G1 X-38.2112 Y112.1042
G2 X-38.4125 Y112.831 I1.2112 J0.7267
G1 Y129.0
G3 X-42.9125 Y133.5867 I-4.5875 J0.0
G3 X-43.0 Y133.5875 Z-2.3093 I-0.0875 J-4.5867
G1 X-46.0 Z0.8
G1 X-49.0875 Z-2.4
G1 X-49.2
G3 X-50.0 Y133.3712 I0.0 J-1.5875
G3 X-50.8 Y133.5875 I-0.8 J-1.3712
G1 X-57.0
G3 X-61.5875 Y129.0 I0.0 J-4.5875
G1 Y112.831
G2 X-61.7888 Y112.1042 I-1.4125 J0.0
G1 X-63.9337 Y108.5293
G3 X-64.5875 Y106.169 I3.9337 J-2.3602
G1 F200.0 X-65.4125
G3 F450.0 X-66.0663 Y108.5293 I-4.5875 J0.0
G1 X-68.2112 Y112.1042
G2 X-68.4125 Y112.831 I1.2112 J0.7267
G1 Y129.0
G3 X-72.9125 Y133.5867 I-4.5875 J0.0
G3 X-73.0 Y133.5875 Z-2.3093 I-0.0875 J-4.5867
G1 X-76.0 Z0.8
G1 X-79.0875 Z-2.4
G1 X-79.2
G3 X-80.0 Y133.3712 I0.0 J-1.5875
G3 X-80.8 Y133.5875 I-0.8 J-1.3712
G1 X-87.0
G3 X-91.5875 Y129.0 I0.0 J-4.5875
G1 Y112.831
G2 X-91.7888 Y112.1042 I-1.4125 J0.0
G1 X-93.9337 Y108.5293
G3 X-94.5875 Y106.169 I3.9337 J-2.3602
G1 Y71.0961
G1 Y71.0875 Z-2.391
G1 Y68.0086 Z0.8
G1 Y68.0
G1 Y64.9211 Z-2.391
G1 Y64.9125 Z-2.4
G1 Y55.5
G3 X-93.0 Y53.9125 I1.5875 J0.0
G1 X-92.5
G2 X-89.0875 Y50.5 I0.0 J-3.4125
G1 Y27.5
G2 X-92.5 Y24.0875 I-3.4125 J0.0
G1 X-93.0
G3 X-94.5875 Y22.5 I0.0 J-1.5875
G1 Y16.5
G3 X-93.0 Y14.9125 I1.5875 J0.0
G1 X-83.0875
G1 X-80.0 Z0.8
G1 X-76.9125 Z-2.4
G1 X-67.0
G3 X-65.4125 Y16.5 I0.0 J1.5875
G1 Y22.5
G3 X-67.0 Y24.0875 I-1.5875 J0.0
G1 X-67.5
G2 X-70.9125 Y27.5 I0.0 J3.4125
G1 Y50.5
G2 X-67.5 Y53.9125 I3.4125 J0.0
G1 X-67.0
G3 X-65.4125 Y55.5 I0.0 J1.5875
G1 Y64.9125
G1 Y64.9211 Z-2.391
G1 Y68.0 Z0.8
G1 Y68.0086
G1 Y71.0875 Z-2.391
G1 Y71.0961 Z-2.4
G1 Y106.169
G0 Z2.0
G0 X-34.5875
G1 F200.0 Z-2.4
G1 F450.0 Y71.0961
G1 Y71.0875 Z-2.391
G1 Y68.0086 Z0.8
G1 Y68.0
G1 Y64.9211 Z-2.391
G1 Y64.9125 Z-2.4
G1 Y55.5
G3 X-33.0 Y53.9125 I1.5875 J0.0
G1 X-32.5
G2 X-29.0875 Y50.5 I0.0 J-3.4125
G1 Y27.5
G2 X-32.5 Y24.0875 I-3.4125 J0.0
G1 X-33.0
G3 X-34.5875 Y22.5 I0.0 J-1.5875
G1 Y16.5
G3 X-33.0 Y14.9125 I1.5875 J0.0
G1 X-22.0875
G1 X-19.0 Z0.8
G1 X-15.9125 Z-2.4
G1 X-7.0
G3 X-5.4125 Y16.5 I0.0 J1.5875
G1 Y22.5
G3 X-7.0 Y24.0875 I-1.5875 J0.0
G1 X-7.5
G2 X-10.9125 Y27.5 I0.0 J3.4125
G1 Y50.5
G2 X-7.5 Y53.9125 I3.4125 J0.0
G1 X-7.0
G3 X-5.4125 Y55.5 I0.0 J1.5875
G1 Y64.9125
G1 Y68.0 Z0.8
G1 Y71.0875 Z-2.4
G1 Y106.169
G3 X-6.0663 Y108.5293 I-4.5875 J0.0
G1 X-8.2112 Y112.1042
G2 X-8.4125 Y112.831 I1.2112 J0.7267
G1 Y129.0
G3 X-12.9125 Y133.5867 I-4.5875 J0.0
G3 X-13.0 Y133.5875 Z-2.3093 I-0.0875 J-4.5867
G1 X-16.0 Z0.8
G1 X-19.0875 Z-2.4
G1 X-19.2
G3 X-20.0 Y133.3712 I0.0 J-1.5875
G3 X-20.8 Y133.5875 I-0.8 J-1.3712
G1 X-27.0
G3 X-31.5875 Y129.0 I0.0 J-4.5875
G1 Y112.831
G2 X-31.7888 Y112.1042 I-1.4125 J0.0
G1 X-33.9337 Y108.5293
G3 X-34.5875 Y106.169 I3.9337 J-2.3602
G0 Z2.0
G0 X-188.42 Y97.3737
G1 F200.0 Z-0.4
G3 F450.0 X-188.8483 Y99.0634 I-4.58 J-0.2619
G1 X-199.4592 Y121.6373
G3 X-200.4369 Y122.4816 I-1.4367 J-0.6753
G3 X-200.8341 Y123.1451 I-1.5197 J-0.459
G1 X-212.8549 Y135.1659
G3 X-213.5184 Y135.5631 I-1.1225 J-1.1225
G3 X-214.3627 Y136.5408 I-1.5197 J-0.459
G1 X-230.0485 Y143.9139
G3 X-236.5875 Y139.7622 I-1.9515 J-4.1517
G1 Y123.0
G2 X-238.0 Y121.5875 I-1.4125 J0.0
G1 X-257.9125
G1 X-261.0 Z0.8
G1 X-264.0875 Z-0.4
G1 X-284.0
G2 X-285.4125 Y123.0 I0.0 J1.4125
G1 Y139.7622
G3 X-291.9515 Y143.9139 I-4.5875 J0.0
G1 X-307.1628 Y136.7638
G3 X-308.4552 Y135.8559 I1.9515 J-4.1517
G1 X-314.6252 Y129.6859
G3 X-315.0224 Y129.0224 I1.1225 J-1.1225
G3 X-315.6859 Y128.6252 I0.459 J-1.5197
G1 X-321.8559 Y122.4552
G3 X-322.7638 Y121.1628 I3.2439 J-3.2439
G1 X-333.1517 Y99.0634
G3 X-333.5875 Y97.1118 I4.1517 J-1.9515
G1 Y78.0875
G1 Y75.0 Z0.8
G1 Y71.9125 Z-0.4
G1 Y52.8882
G3 X-333.1517 Y50.9366 I4.5875 J0.0
G1 X-322.5408 Y28.3627
G3 X-321.5631 Y27.5184 I1.4367 J0.6753
G3 X-321.1659 Y26.8549 I1.5197 J0.459
G1 X-309.1451 Y14.8341
G3 X-308.4816 Y14.4369 I1.1225 J1.1225
G3 X-307.6373 Y13.4592 I1.5197 J0.459
G1 X-291.9515 Y6.0861
G3 X-285.4125 Y10.2378 I1.9515 J4.1517
G1 Y27.0
G2 X-284.0 Y28.4125 I1.4125 J0.0
G1 X-264.0875
G1 X-261.0 Z0.8
G1 X-257.9125 Z-0.4
G1 X-238.0
G2 X-236.5875 Y27.0 I0.0 J-1.4125
G1 Y10.2378
G3 X-230.0485 Y6.0861 I4.5875 J0.0
G1 X-214.8372 Y13.2362
G3 X-213.5448 Y14.1441 I-1.9515 J4.1517
G1 X-207.3748 Y20.3141
G3 X-206.9776 Y20.9776 I-1.1225 J1.1225
G3 X-206.3141 Y21.3748 I-0.459 J1.5197
G1 X-200.1441 Y27.5448
G3 X-199.2362 Y28.8372 I-3.2439 J3.2439
G1 X-188.8483 Y50.9366
G3 X-188.4125 Y52.8882 I-4.1517 J1.9515
G1 Y64.9125
G1 Y68.0 Z0.8
G1 Y71.0875 Z-0.4
G1 Y97.1118
G3 X-188.42 Y97.3737 I-4.5875 J0.0
G1 F200.0 Z-0.8
G3 F450.0 X-188.8483 Y99.0634 I-4.58 J-0.2619
G1 X-199.4592 Y121.6373
G3 X-200.4369 Y122.4816 I-1.4367 J-0.6753
G3 X-200.8341 Y123.1451 I-1.5197 J-0.459
G1 X-212.8549 Y135.1659
G3 X-213.5184 Y135.5631 I-1.1225 J-1.1225
G3 X-214.3627 Y136.5408 I-1.5197 J-0.459
G1 X-230.0485 Y143.9139
G3 X-236.5875 Y139.7622 I-1.9515 J-4.1517
G1 Y123.0
G2 X-238.0 Y121.5875 I-1.4125 J0.0
G1 X-257.9125
G1 X-261.0 Z0.8
G1 X-264.0875 Z-0.8
G1 X-284.0
G2 X-285.4125 Y123.0 I0.0 J1.4125
G1 Y139.7622
G3 X-291.9515 Y143.9139 I-4.5875 J0.0
G1 X-307.1628 Y136.7638
G3 X-308.4552 Y135.8559 I1.9515 J-4.1517
G1 X-314.6252 Y129.6859
G3 X-315.0224 Y129.0224 I1.1225 J-1.1225
G3 X-315.6859 Y128.6252 I0.459 J-1.5197
G1 X-321.8559 Y122.4552
G3 X-322.7638 Y121.1628 I3.2439 J-3.2439
G1 X-333.1517 Y99.0634
G3 X-333.5875 Y97.1118 I4.1517 J-1.9515
G1 Y78.0875
G1 Y75.0 Z0.8
G1 Y71.9125 Z-0.8
G1 Y52.8882
G3 X-333.1517 Y50.9366 I4.5875 J0.0
G1 X-322.5408 Y28.3627
G3 X-321.5631 Y27.5184 I1.4367 J0.6753
G3 X-321.1659 Y26.8549 I1.5197 J0.459
G1 X-309.1451 Y14.8341
G3 X-308.4816 Y14.4369 I1.1225 J1.1225
G3 X-307.6373 Y13.4592 I1.5197 J0.459
G1 X-291.9515 Y6.0861
G3 X-285.4125 Y10.2378 I1.9515 J4.1517
G1 Y27.0
G2 X-284.0 Y28.4125 I1.4125 J0.0
G1 X-264.0875
G1 X-261.0 Z0.8
G1 X-257.9125 Z-0.8
G1 X-238.0
G2 X-236.5875 Y27.0 I0.0 J-1.4125
G1 Y10.2378
G3 X-230.0485 Y6.0861 I4.5875 J0.0
G1 X-214.8372 Y13.2362
G3 X-213.5448 Y14.1441 I-1.9515 J4.1517
G1 X-207.3748 Y20.3141
G3 X-206.9776 Y20.9776 I-1.1225 J1.1225
G3 X-206.3141 Y21.3748 I-0.459 J1.5197
G1 X-200.1441 Y27.5448
G3 X-199.2362 Y28.8372 I-3.2439 J3.2439
G1 X-188.8483 Y50.9366
G3 X-188.4125 Y52.8882 I-4.1517 J1.9515
G1 Y64.9125
G1 Y68.0 Z0.8
G1 Y71.0875 Z-0.8
G1 Y97.1118
G3 X-188.42 Y97.3737 I-4.5875 J0.0
G1 F200.0 Z-1.2
G3 F450.0 X-188.8483 Y99.0634 I-4.58 J-0.2619
G1 X-199.4592 Y121.6373
G3 X-200.4369 Y122.4816 I-1.4367 J-0.6753
G3 X-200.8341 Y123.1451 I-1.5197 J-0.459
G1 X-212.8549 Y135.1659
G3 X-213.5184 Y135.5631 I-1.1225 J-1.1225
G3 X-214.3627 Y136.5408 I-1.5197 J-0.459
G1 X-230.0485 Y143.9139
G3 X-236.5875 Y139.7622 I-1.9515 J-4.1517
G1 Y123.0
G2 X-238.0 Y121.5875 I-1.4125 J0.0
G1 X-257.9125
G1 X-261.0 Z0.8
G1 X-264.0875 Z-1.2
G1 X-284.0
G2 X-285.4125 Y123.0 I0.0 J1.4125
G1 Y139.7622
G3 X-291.9515 Y143.9139 I-4.5875 J0.0
G1 X-307.1628 Y136.7638
G3 X-308.4552 Y135.8559 I1.9515 J-4.1517
G1 X-314.6252 Y129.6859
G3 X-315.0224 Y129.0224 I1.1225 J-1.1225
G3 X-315.6859 Y128.6252 I0.459 J-1.5197
G1 X-321.8559 Y122.4552
G3 X-322.7638 Y121.1628 I3.2439 J-3.2439
G1 X-333.1517 Y99.0634
G3 X-333.5875 Y97.1118 I4.1517 J-1.9515
G1 Y78.0875
G1 Y75.0 Z0.8
G1 Y71.9125 Z-1.2
G1 Y52.8882
G3 X-333.1517 Y50.9366 I4.5875 J0.0
G1 X-322.5408 Y28.3627
G3 X-321.5631 Y27.5184 I1.4367 J0.6753
G3 X-321.1659 Y26.8549 I1.5197 J0.459
G1 X-309.1451 Y14.8341
G3 X-308.4816 Y14.4369 I1.1225 J1.1225
G3 X-307.6373 Y13.4592 I1.5197 J0.459
G1 X-291.9515 Y6.0861
G3 X-285.4125 Y10.2378 I1.9515 J4.1517
G1 Y27.0
G2 X-284.0 Y28.4125 I1.4125 J0.0
G1 X-264.0875
G1 X-261.0 Z0.8
G1 X-257.9125 Z-1.2
G1 X-238.0
G2 X-236.5875 Y27.0 I0.0 J-1.4125
G1 Y10.2378
G3 X-230.0485 Y6.0861 I4.5875 J0.0
G1 X-214.8372 Y13.2362
G3 X-213.5448 Y14.1441 I-1.9515 J4.1517
G1 X-207.3748 Y20.3141
G3 X-206.9776 Y20.9776 I-1.1225 J1.1225
G3 X-206.3141 Y21.3748 I-0.459 J1.5197
G1 X-200.1441 Y27.5448
G3 X-199.2362 Y28.8372 I-3.2439 J3.2439
G1 X-188.8483 Y50.9366
G3 X-188.4125 Y52.8882 I-4.1517 J1.9515
G1 Y64.9125
G1 Y68.0 Z0.8
G1 Y71.0875 Z-1.2
G1 Y97.1118
G3 X-188.42 Y97.3737 I-4.5875 J0.0
G1 F200.0 Z-1.6
G3 F450.0 X-188.8483 Y99.0634 I-4.58 J-0.2619
G1 X-199.4592 Y121.6373
G3 X-200.4369 Y122.4816 I-1.4367 J-0.6753
G3 X-200.8341 Y123.1451 I-1.5197 J-0.459
G1 X-212.8549 Y135.1659
G3 X-213.5184 Y135.5631 I-1.1225 J-1.1225
G3 X-214.3627 Y136.5408 I-1.5197 J-0.459
G1 X-230.0485 Y143.9139
G3 X-236.5875 Y139.7622 I-1.9515 J-4.1517
G1 Y123.0
G2 X-238.0 Y121.5875 I-1.4125 J0.0
G1 X-257.9125
G1 X-261.0 Z0.8
G1 X-264.0875 Z-1.6
G1 X-284.0
G2 X-285.4125 Y123.0 I0.0 J1.4125
G1 Y139.7622
G3 X-291.9515 Y143.9139 I-4.5875 J0.0
G1 X-307.1628 Y136.7638
G3 X-308.4552 Y135.8559 I1.9515 J-4.1517
G1 X-314.6252 Y129.6859
G3 X-315.0224 Y129.0224 I1.1225 J-1.1225
G3 X-315.6859 Y128.6252 I0.459 J-1.5197
G1 X-321.8559 Y122.4552
G3 X-322.7638 Y121.1628 I3.2439 J-3.2439
G1 X-333.1517 Y99.0634
G3 X-333.5875 Y97.1118 I4.1517 J-1.9515
G1 Y78.0875
G1 Y75.0 Z0.8
G1 Y71.9125 Z-1.6
G1 Y52.8882
G3 X-333.1517 Y50.9366 I4.5875 J0.0
G1 X-322.5408 Y28.3627
G3 X-321.5631 Y27.5184 I1.4367 J0.6753
G3 X-321.1659 Y26.8549 I1.5197 J0.459
G1 X-309.1451 Y14.8341
G3 X-308.4816 Y14.4369 I1.1225 J1.1225
G3 X-307.6373 Y13.4592 I1.5197 J0.459
G1 X-291.9515 Y6.0861
G3 X-285.4125 Y10.2378 I1.9515 J4.1517
G1 Y27.0
G2 X-284.0 Y28.4125 I1.4125 J0.0
G1 X-264.0875
G1 X-261.0 Z0.8
G1 X-257.9125 Z-1.6
G1 X-238.0
G2 X-236.5875 Y27.0 I0.0 J-1.4125
G1 Y10.2378
G3 X-230.0485 Y6.0861 I4.5875 J0.0
G1 X-214.8372 Y13.2362
G3 X-213.5448 Y14.1441 I-1.9515 J4.1517
G1 X-207.3748 Y20.3141
G3 X-206.9776 Y20.9776 I-1.1225 J1.1225
G3 X-206.3141 Y21.3748 I-0.459 J1.5197
G1 X-200.1441 Y27.5448
G3 X-199.2362 Y28.8372 I-3.2439 J3.2439
G1 X-188.8483 Y50.9366
G3 X-188.4125 Y52.8882 I-4.1517 J1.9515
G1 Y64.9125
G1 Y68.0 Z0.8
G1 Y71.0875 Z-1.6
G1 Y97.1118
G3 X-188.42 Y97.3737 I-4.5875 J0.0
G1 F200.0 Z-2.0
G3 F450.0 X-188.8483 Y99.0634 I-4.58 J-0.2619
G1 X-199.4592 Y121.6373
G3 X-200.4369 Y122.4816 I-1.4367 J-0.6753
G3 X-200.8341 Y123.1451 I-1.5197 J-0.459
G1 X-212.8549 Y135.1659
G3 X-213.5184 Y135.5631 I-1.1225 J-1.1225
G3 X-214.3627 Y136.5408 I-1.5197 J-0.459
G1 X-230.0485 Y143.9139
G3 X-236.5875 Y139.7622 I-1.9515 J-4.1517
G1 Y123.0
G2 X-238.0 Y121.5875 I-1.4125 J0.0
G1 X-257.9125
G1 X-261.0 Z0.8
G1 X-264.0875 Z-2.0
G1 X-284.0
G2 X-285.4125 Y123.0 I0.0 J1.4125
G1 Y139.7622
G3 X-291.9515 Y143.9139 I-4.5875 J0.0
G1 X-307.1628 Y136.7638
G3 X-308.4552 Y135.8559 I1.9515 J-4.1517
G1 X-314.6252 Y129.6859
G3 X-315.0224 Y129.0224 I1.1225 J-1.1225
G3 X-315.6859 Y128.6252 I0.459 J-1.5197
G1 X-321.8559 Y122.4552
G3 X-322.7638 Y121.1628 I3.2439 J-3.2439
G1 X-333.1517 Y99.0634
G3 X-333.5875 Y97.1118 I4.1517 J-1.9515
G1 Y78.0875
G1 Y75.0 Z0.8
G1 Y71.9125 Z-2.0
G1 Y52.8882
G3 X-333.1517 Y50.9366 I4.5875 J0.0
G1 X-322.5408 Y28.3627
G3 X-321.5631 Y27.5184 I1.4367 J0.6753
G3 X-321.1659 Y26.8549 I1.5197 J0.459
G1 X-309.1451 Y14.8341
G3 X-308.4816 Y14.4369 I1.1225 J1.1225
G3 X-307.6373 Y13.4592 I1.5197 J0.459
G1 X-291.9515 Y6.0861
G3 X-285.4125 Y10.2378 I1.9515 J4.1517
G1 Y27.0
G2 X-284.0 Y28.4125 I1.4125 J0.0
G1 X-264.0875
G1 X-261.0 Z0.8
G1 X-257.9125 Z-2.0
G1 X-238.0
G2 X-236.5875 Y27.0 I0.0 J-1.4125
G1 Y10.2378
G3 X-230.0485 Y6.0861 I4.5875 J0.0
G1 X-214.8372 Y13.2362
G3 X-213.5448 Y14.1441 I-1.9515 J4.1517
G1 X-207.3748 Y20.3141
G3 X-206.9776 Y20.9776 I-1.1225 J1.1225
G3 X-206.3141 Y21.3748 I-0.459 J1.5197
G1 X-200.1441 Y27.5448
G3 X-199.2362 Y28.8372 I-3.2439 J3.2439
G1 X-188.8483 Y50.9366
G3 X-188.4125 Y52.8882 I-4.1517 J1.9515
G1 Y64.9125
G1 Y68.0 Z0.8
G1 Y71.0875 Z-2.0
G1 Y97.1118
G3 X-188.42 Y97.3737 I-4.5875 J0.0
G1 F200.0 Z-2.4
G3 F450.0 X-188.8483 Y99.0634 I-4.58 J-0.2619
G1 X-199.4592 Y121.6373
G3 X-200.4369 Y122.4816 I-1.4367 J-0.6753
G3 X-200.8341 Y123.1451 I-1.5197 J-0.459
G1 X-212.8549 Y135.1659
G3 X-213.5184 Y135.5631 I-1.1225 J-1.1225
G3 X-214.3627 Y136.5408 I-1.5197 J-0.459
G1 X-230.0485 Y143.9139
G3 X-236.5875 Y139.7622 I-1.9515 J-4.1517
G1 Y123.0
G2 X-238.0 Y121.5875 I-1.4125 J0.0
G1 X-257.9125
G1 X-261.0 Z0.8
G1 X-264.0875 Z-2.4
G1 X-284.0
G2 X-285.4125 Y123.0 I0.0 J1.4125
G1 Y139.7622
G3 X-291.9515 Y143.9139 I-4.5875 J0.0
G1 X-307.1628 Y136.7638
G3 X-308.4552 Y135.8559 I1.9515 J-4.1517
G1 X-314.6252 Y129.6859
G3 X-315.0224 Y129.0224 I1.1225 J-1.1225
G3 X-315.6859 Y128.6252 I0.459 J-1.5197
G1 X-321.8559 Y122.4552
G3 X-322.7638 Y121.1628 I3.2439 J-3.2439
G1 X-333.1517 Y99.0634
G3 X-333.5875 Y97.1118 I4.1517 J-1.9515
G1 Y78.0875
G1 Y75.0 Z0.8
G1 Y71.9125 Z-2.4
G1 Y52.8882
G3 X-333.1517 Y50.9366 I4.5875 J0.0
G1 X-322.5408 Y28.3627
G3 X-321.5631 Y27.5184 I1.4367 J0.6753
G3 X-321.1659 Y26.8549 I1.5197 J0.459
G1 X-309.1451 Y14.8341
G3 X-308.4816 Y14.4369 I1.1225 J1.1225
G3 X-307.6373 Y13.4592 I1.5197 J0.459
G1 X-291.9515 Y6.0861
G3 X-285.4125 Y10.2378 I1.9515 J4.1517
G1 Y27.0
G2 X-284.0 Y28.4125 I1.4125 J0.0
G1 X-264.0875
G1 X-261.0 Z0.8
G1 X-257.9125 Z-2.4
G1 X-238.0
G2 X-236.5875 Y27.0 I0.0 J-1.4125
G1 Y10.2378
G3 X-230.0485 Y6.0861 I4.5875 J0.0
G1 X-214.8372 Y13.2362
G3 X-213.5448 Y14.1441 I-1.9515 J4.1517
G1 X-207.3748 Y20.3141
G3 X-206.9776 Y20.9776 I-1.1225 J1.1225
G3 X-206.3141 Y21.3748 I-0.459 J1.5197
G1 X-200.1441 Y27.5448
G3 X-199.2362 Y28.8372 I-3.2439 J3.2439
G1 X-188.8483 Y50.9366
G3 X-188.4125 Y52.8882 I-4.1517 J1.9515
G1 Y64.9125
G1 Y68.0 Z0.8
G1 Y71.0875 Z-2.4
G1 Y97.1118
G3 X-188.42 Y97.3737 I-4.5875 J0.0
G0 Z2.0
M5
M30
