( Made using CamBam - http://www.cambam.co.uk )
( sheet3 3/19/2022 10:35:18 AM )
( T0 : 3.175 )
G21 G90 G40
G0 Z2.0
( T0 : 3.175 )
T0 M6
( 2_drill )
G17
M3 S1000
G0 X-24.0 Y75.0
G98
G81 X-24.0 Y75.0 Z-2.4 R2.0 F100.0
G81 X-41.0381 Y37.5233 Z-2.4
G81 X-32.5528 Y29.0381 Z-2.4
G81 X-49.0381 Y20.5528 Z-2.4
G81 X-57.5233 Y29.0381 Z-2.4
G81 X-95.0 Y12.0 Z-2.4
G81 X-137.6916 Y25.7677 Z-2.4
G81 X-144.2323 Y32.3084 Z-2.4
G81 X-158.0 Y75.0 Z-2.4
G81 X-182.0 Z-2.4
G81 X-199.0381 Y37.5233 Z-2.4
G81 X-190.5528 Y29.0381 Z-2.4
G81 X-207.0381 Y20.5528 Z-2.4
G81 X-215.5233 Y29.0381 Z-2.4
G81 X-253.0 Y12.0 Z-2.4
G81 X-295.6916 Y25.7677 Z-2.4
G81 X-302.2323 Y32.3084 Z-2.4
G81 X-316.0 Y75.0 Z-2.4
G81 X-298.9619 Y112.4767 Z-2.4
G81 X-307.4472 Y120.9619 Z-2.4
G81 X-290.9619 Y129.4472 Z-2.4
G81 X-282.4767 Y120.9619 Z-2.4
G81 X-245.0 Y138.0 Z-2.4
G81 X-202.3084 Y124.2323 Z-2.4
G81 X-195.7677 Y117.6916 Z-2.4
G81 X-149.4472 Y120.9619 Z-2.4
G81 X-140.9619 Y112.4767 Z-2.4
G81 X-124.4767 Y120.9619 Z-2.4
G81 X-132.9619 Y129.4472 Z-2.4
G81 X-87.0 Y138.0 Z-2.4
G81 X-44.3084 Y124.2323 Z-2.4
G81 X-37.7677 Y117.6916 Z-2.4
G80
M5
M30
