( Made using CamBam - http://www.cambam.co.uk )
( sheet2 3/19/2022 9:16:54 AM )
( T0 : 1.6 )
G21 G90 G40
G0 Z2.0
( T0 : 1.6 )
T0 M6
( 1_slit )
G17
M3 S1000
G0 X-20.0 Y118.0
G1 F200.0 Z-0.4
G1 F450.0 Y133.0
G1 F200.0 Z-0.8
G1 F450.0 Y118.0
G1 F200.0 Z-1.2
G1 F450.0 Y133.0
G1 F200.0 Z-1.6
G1 F450.0 Y118.0
G1 F200.0 Z-2.0
G1 F450.0 Y133.0
G1 F200.0 Z-2.4
G1 F450.0 Y118.0
G0 Z2.0
G0 X-50.0
G1 F200.0 Z-0.4
G1 F450.0 Y133.0
G1 F200.0 Z-0.8
G1 F450.0 Y118.0
G1 F200.0 Z-1.2
G1 F450.0 Y133.0
G1 F200.0 Z-1.6
G1 F450.0 Y118.0
G1 F200.0 Z-2.0
G1 F450.0 Y133.0
G1 F200.0 Z-2.4
G1 F450.0 Y118.0
G0 Z2.0
G0 X-80.0
G1 F200.0 Z-0.4
G1 F450.0 Y133.0
G1 F200.0 Z-0.8
G1 F450.0 Y118.0
G1 F200.0 Z-1.2
G1 F450.0 Y133.0
G1 F200.0 Z-1.6
G1 F450.0 Y118.0
G1 F200.0 Z-2.0
G1 F450.0 Y133.0
G1 F200.0 Z-2.4
G1 F450.0 Y118.0
G0 Z2.0
G0 X-110.0
G1 F200.0 Z-0.4
G1 F450.0 Y133.0
G1 F200.0 Z-0.8
G1 F450.0 Y118.0
G1 F200.0 Z-1.2
G1 F450.0 Y133.0
G1 F200.0 Z-1.6
G1 F450.0 Y118.0
G1 F200.0 Z-2.0
G1 F450.0 Y133.0
G1 F200.0 Z-2.4
G1 F450.0 Y118.0
G0 Z2.0
G0 X-140.0
G1 F200.0 Z-0.4
G1 F450.0 Y133.0
G1 F200.0 Z-0.8
G1 F450.0 Y118.0
G1 F200.0 Z-1.2
G1 F450.0 Y133.0
G1 F200.0 Z-1.6
G1 F450.0 Y118.0
G1 F200.0 Z-2.0
G1 F450.0 Y133.0
G1 F200.0 Z-2.4
G1 F450.0 Y118.0
G0 Z2.0
G0 X-170.0
G1 F200.0 Z-0.4
G1 F450.0 Y133.0
G1 F200.0 Z-0.8
G1 F450.0 Y118.0
G1 F200.0 Z-1.2
G1 F450.0 Y133.0
G1 F200.0 Z-1.6
G1 F450.0 Y118.0
G1 F200.0 Z-2.0
G1 F450.0 Y133.0
G1 F200.0 Z-2.4
G1 F450.0 Y118.0
G0 Z2.0
G0 X-200.7191 Y122.1994
G1 F200.0 Z-0.4
G1 F450.0 X-205.6689 Y117.2496
G1 F200.0 Z-0.8
G1 F450.0 X-200.7191 Y122.1994
G1 F200.0 Z-1.2
G1 F450.0 X-205.6689 Y117.2496
G1 F200.0 Z-1.6
G1 F450.0 X-200.7191 Y122.1994
G1 F200.0 Z-2.0
G1 F450.0 X-205.6689 Y117.2496
G1 F200.0 Z-2.4
G1 F450.0 X-200.7191 Y122.1994
G0 Z2.0
G0 X-213.8006 Y135.2809
G1 F200.0 Z-0.4
G1 F450.0 X-218.7504 Y130.3311
G1 F200.0 Z-0.8
G1 F450.0 X-213.8006 Y135.2809
G1 F200.0 Z-1.2
G1 F450.0 X-218.7504 Y130.3311
G1 F200.0 Z-1.6
G1 F450.0 X-213.8006 Y135.2809
G1 F200.0 Z-2.0
G1 F450.0 X-218.7504 Y130.3311
G1 F200.0 Z-2.4
G1 F450.0 X-213.8006 Y135.2809
G0 Z2.0
G0 X-299.8909 Y113.8909
G1 F200.0 Z-0.4
G1 F450.0 X-314.7401 Y128.7401
G1 F200.0 Z-0.8
G1 F450.0 X-299.8909 Y113.8909
G1 F200.0 Z-1.2
G1 F450.0 X-314.7401 Y128.7401
G1 F200.0 Z-1.6
G1 F450.0 X-299.8909 Y113.8909
G1 F200.0 Z-2.0
G1 F450.0 X-314.7401 Y128.7401
G1 F200.0 Z-2.4
G1 F450.0 X-299.8909 Y113.8909
G0 Z2.0
G0 X-316.3311 Y32.7504
G1 F200.0 Z-0.4
G1 F450.0 X-321.2809 Y27.8006
G1 F200.0 Z-0.8
G1 F450.0 X-316.3311 Y32.7504
G1 F200.0 Z-1.2
G1 F450.0 X-321.2809 Y27.8006
G1 F200.0 Z-1.6
G1 F450.0 X-316.3311 Y32.7504
G1 F200.0 Z-2.0
G1 F450.0 X-321.2809 Y27.8006
G1 F200.0 Z-2.4
G1 F450.0 X-316.3311 Y32.7504
G0 Z2.0
G0 X-303.2496 Y19.6689
G1 F200.0 Z-0.4
G1 F450.0 X-308.1994 Y14.7191
G1 F200.0 Z-0.8
G1 F450.0 X-303.2496 Y19.6689
G1 F200.0 Z-1.2
G1 F450.0 X-308.1994 Y14.7191
G1 F200.0 Z-1.6
G1 F450.0 X-303.2496 Y19.6689
G1 F200.0 Z-2.0
G1 F450.0 X-308.1994 Y14.7191
G1 F200.0 Z-2.4
G1 F450.0 X-303.2496 Y19.6689
G0 Z2.0
G0 X-222.1091 Y36.1091
G1 F200.0 Z-0.4
G1 F450.0 X-207.2599 Y21.2599
G1 F200.0 Z-0.8
G1 F450.0 X-222.1091 Y36.1091
G1 F200.0 Z-1.2
G1 F450.0 X-207.2599 Y21.2599
G1 F200.0 Z-1.6
G1 F450.0 X-222.1091 Y36.1091
G1 F200.0 Z-2.0
G1 F450.0 X-207.2599 Y21.2599
G1 F200.0 Z-2.4
G1 F450.0 X-222.1091 Y36.1091
G0 Z2.0
M5
M30
