( Made using CamBam - http://www.cambam.co.uk )
( m_brush 2/2/2022 3:02:05 PM )
( T0 : 3.125 )
G21 G90 G40
G0 Z5.0
( T0 : 3.125 )
T0 M6
( Profile1 )
G17
M3 S1000
G0 X-5.4375 Y19.5
G1 F400.0 Z-0.5
G3 F1200.0 X-8.0 Y22.0625 I-2.5625 J0.0
G1 X-36.0
G3 X-38.5625 Y19.5 I0.0 J-2.5625
G1 Y6.5
G3 X-36.0 Y3.9375 I2.5625 J0.0
G1 X-8.0
G3 X-5.4375 Y6.5 I0.0 J2.5625
G1 Y19.5
G0 Z5.0
G0 X-6.9935 Y23.1434
G1 F400.0 Z-0.5
G3 F1200.0 X-5.4375 Y25.5 I-1.0065 J2.3566
G1 Y38.5
G3 X-8.0 Y41.0625 I-2.5625 J0.0
G1 X-36.0
G3 X-38.5625 Y38.5 I0.0 J-2.5625
G1 Y25.5
G3 X-36.0 Y22.9375 I2.5625 J0.0
G1 X-8.0
G3 X-6.9935 Y23.1434 I0.0 J2.5625
G1 F400.0 X-7.3177 Y21.97
G1 Z-1.0
G3 F1200.0 X-8.0 Y22.0625 I-0.6823 J-2.47
G1 X-36.0
G3 X-38.5625 Y19.5 I0.0 J-2.5625
G1 Y6.5
G3 X-36.0 Y3.9375 I2.5625 J0.0
G1 X-8.0
G3 X-5.4375 Y6.5 I0.0 J2.5625
G1 Y19.5
G3 X-7.3177 Y21.97 I-2.5625 J0.0
G0 Z5.0
G0 X-7.9224 Y41.9387
G1 F400.0 Z-0.5
G3 F1200.0 X-5.4375 Y44.5 I-0.0776 J2.5613
G1 Y57.5
G3 X-8.0 Y60.0625 I-2.5625 J0.0
G1 X-36.0
G3 X-38.5625 Y57.5 I0.0 J-2.5625
G1 Y44.5
G3 X-36.0 Y41.9375 I2.5625 J0.0
G1 X-8.0
G3 X-7.9224 Y41.9387 I0.0 J2.5625
G1 F400.0 X-7.9422 Y41.0618
G1 Z-1.0
G3 F1200.0 X-8.0 Y41.0625 I-0.0578 J-2.5618
G1 X-36.0
G3 X-38.5625 Y38.5 I0.0 J-2.5625
G1 Y25.5
G3 X-36.0 Y22.9375 I2.5625 J0.0
G1 X-8.0
G3 X-5.4375 Y25.5 I0.0 J2.5625
G1 Y38.5
G3 X-7.9422 Y41.0618 I-2.5625 J0.0
G0 Z5.0
G0 X-7.9931 Y22.0625
G1 F400.0 Z-1.5
G3 F1200.0 X-8.0 I-0.0069 J-2.5625
G1 X-36.0
G3 X-38.5625 Y19.5 I0.0 J-2.5625
G1 Y6.5
G3 X-36.0 Y3.9375 I2.5625 J0.0
G1 X-8.0
G3 X-5.4375 Y6.5 I0.0 J2.5625
G1 Y19.5
G3 X-7.9931 Y22.0625 I-2.5625 J0.0
G0 Z5.0
G0 X-7.9996 Y60.9375
G1 F400.0 Z-0.5
G3 F1200.0 X-5.4375 Y63.5 I-0.0004 J2.5625
G1 Y76.5
G3 X-8.0 Y79.0625 I-2.5625 J0.0
G1 X-36.0
G3 X-38.5625 Y76.5 I0.0 J-2.5625
G1 Y63.5
G3 X-36.0 Y60.9375 I2.5625 J0.0
G1 X-8.0
G3 X-7.9996 I0.0 J2.5625
G1 F400.0 X-7.9997 Y60.0625
G1 Z-1.0
G3 F1200.0 X-8.0 I-0.0003 J-2.5625
G1 X-36.0
G3 X-38.5625 Y57.5 I0.0 J-2.5625
G1 Y44.5
G3 X-36.0 Y41.9375 I2.5625 J0.0
G1 X-8.0
G3 X-5.4375 Y44.5 I0.0 J2.5625
G1 Y57.5
G3 X-7.9997 Y60.0625 I-2.5625 J0.0
G0 Z5.0
G0 X-8.0 Y41.0625
G1 F400.0 Z-1.5
G1 F1200.0 X-36.0
G3 X-38.5625 Y38.5 I0.0 J-2.5625
G1 Y25.5
G3 X-36.0 Y22.9375 I2.5625 J0.0
G1 X-8.0
G3 X-5.4375 Y25.5 I0.0 J2.5625
G1 Y38.5
G3 X-8.0 Y41.0625 I-2.5625 J0.0
G0 Z5.0
G0 Y22.0625
G1 F400.0 Z-2.0
G1 F1200.0 X-36.0
G3 X-38.5625 Y19.5 I0.0 J-2.5625
G1 Y6.5
G3 X-36.0 Y3.9375 I2.5625 J0.0
G1 X-8.0
G3 X-5.4375 Y6.5 I0.0 J2.5625
G1 Y19.5
G3 X-8.0 Y22.0625 I-2.5625 J0.0
G0 Z5.0
G0 Y79.9375
G1 F400.0 Z-0.5
G3 F1200.0 X-5.4375 Y82.5 I0.0 J2.5625
G1 Y95.5
G3 X-8.0 Y98.0625 I-2.5625 J0.0
G1 X-36.0
G3 X-38.5625 Y95.5 I0.0 J-2.5625
G1 Y82.5
G3 X-36.0 Y79.9375 I2.5625 J0.0
G1 X-8.0
G1 F400.0 Y79.0625
G1 Z-1.0
G1 F1200.0 X-36.0
G3 X-38.5625 Y76.5 I0.0 J-2.5625
G1 Y63.5
G3 X-36.0 Y60.9375 I2.5625 J0.0
G1 X-8.0
G3 X-5.4375 Y63.5 I0.0 J2.5625
G1 Y76.5
G3 X-8.0 Y79.0625 I-2.5625 J0.0
G0 Z5.0
G0 Y60.0625
G1 F400.0 Z-1.5
G1 F1200.0 X-36.0
G3 X-38.5625 Y57.5 I0.0 J-2.5625
G1 Y44.5
G3 X-36.0 Y41.9375 I2.5625 J0.0
G1 X-8.0
G3 X-5.4375 Y44.5 I0.0 J2.5625
G1 Y57.5
G3 X-8.0 Y60.0625 I-2.5625 J0.0
G0 Z5.0
G0 Y41.0625
G1 F400.0 Z-2.0
G1 F1200.0 X-36.0
G3 X-38.5625 Y38.5 I0.0 J-2.5625
G1 Y25.5
G3 X-36.0 Y22.9375 I2.5625 J0.0
G1 X-8.0
G3 X-5.4375 Y25.5 I0.0 J2.5625
G1 Y38.5
G3 X-8.0 Y41.0625 I-2.5625 J0.0
G0 Z5.0
G0 Y98.9375
G1 F400.0 Z-0.5
G3 F1200.0 X-5.4375 Y101.5 I0.0 J2.5625
G1 Y114.5
G3 X-8.0 Y117.0625 I-2.5625 J0.0
G1 X-36.0
G3 X-38.5625 Y114.5 I0.0 J-2.5625
G1 Y101.5
G3 X-36.0 Y98.9375 I2.5625 J0.0
G1 X-8.0
G1 F400.0 Y98.0625
G1 Z-1.0
G1 F1200.0 X-36.0
G3 X-38.5625 Y95.5 I0.0 J-2.5625
G1 Y82.5
G3 X-36.0 Y79.9375 I2.5625 J0.0
G1 X-8.0
G3 X-5.4375 Y82.5 I0.0 J2.5625
G1 Y95.5
G3 X-8.0 Y98.0625 I-2.5625 J0.0
G0 Z5.0
G0 Y79.0625
G1 F400.0 Z-1.5
G1 F1200.0 X-36.0
G3 X-38.5625 Y76.5 I0.0 J-2.5625
G1 Y63.5
G3 X-36.0 Y60.9375 I2.5625 J0.0
G1 X-8.0
G3 X-5.4375 Y63.5 I0.0 J2.5625
G1 Y76.5
G3 X-8.0 Y79.0625 I-2.5625 J0.0
G0 Z5.0
G0 Y60.0625
G1 F400.0 Z-2.0
G1 F1200.0 X-36.0
G3 X-38.5625 Y57.5 I0.0 J-2.5625
G1 Y44.5
G3 X-36.0 Y41.9375 I2.5625 J0.0
G1 X-8.0
G3 X-5.4375 Y44.5 I0.0 J2.5625
G1 Y57.5
G3 X-8.0 Y60.0625 I-2.5625 J0.0
G0 Z5.0
G0 Y117.9375
G1 F400.0 Z-0.5
G3 F1200.0 X-5.4375 Y120.5 I0.0 J2.5625
G1 Y133.5
G3 X-8.0 Y136.0625 I-2.5625 J0.0
G1 X-36.0
G3 X-38.5625 Y133.5 I0.0 J-2.5625
G1 Y120.5
G3 X-36.0 Y117.9375 I2.5625 J0.0
G1 X-8.0
G1 F400.0 Y117.0625
G1 Z-1.0
G1 F1200.0 X-36.0
G3 X-38.5625 Y114.5 I0.0 J-2.5625
G1 Y101.5
G3 X-36.0 Y98.9375 I2.5625 J0.0
G1 X-8.0
G3 X-5.4375 Y101.5 I0.0 J2.5625
G1 Y114.5
G3 X-8.0 Y117.0625 I-2.5625 J0.0
G0 Z5.0
G0 Y98.0625
G1 F400.0 Z-1.5
G1 F1200.0 X-36.0
G3 X-38.5625 Y95.5 I0.0 J-2.5625
G1 Y82.5
G3 X-36.0 Y79.9375 I2.5625 J0.0
G1 X-8.0
G3 X-5.4375 Y82.5 I0.0 J2.5625
G1 Y95.5
G3 X-8.0 Y98.0625 I-2.5625 J0.0
G0 Z5.0
G0 Y79.0625
G1 F400.0 Z-2.0
G1 F1200.0 X-36.0
G3 X-38.5625 Y76.5 I0.0 J-2.5625
G1 Y63.5
G3 X-36.0 Y60.9375 I2.5625 J0.0
G1 X-8.0
G3 X-5.4375 Y63.5 I0.0 J2.5625
G1 Y76.5
G3 X-8.0 Y79.0625 I-2.5625 J0.0
G0 Z5.0
G0 Y136.9375
G1 F400.0 Z-0.5
G3 F1200.0 X-5.4375 Y139.5 I0.0 J2.5625
G1 Y152.5
G3 X-8.0 Y155.0625 I-2.5625 J0.0
G1 X-36.0
G3 X-38.5625 Y152.5 I0.0 J-2.5625
G1 Y139.5
G3 X-36.0 Y136.9375 I2.5625 J0.0
G1 X-8.0
G1 F400.0 Z-1.0
G3 F1200.0 X-5.4375 Y139.5 I0.0 J2.5625
G1 Y152.5
G3 X-8.0 Y155.0625 I-2.5625 J0.0
G1 X-36.0
G3 X-38.5625 Y152.5 I0.0 J-2.5625
G1 Y139.5
G3 X-36.0 Y136.9375 I2.5625 J0.0
G1 X-8.0
G1 F400.0 Y136.0625
G1 F1200.0 X-36.0
G3 X-38.5625 Y133.5 I0.0 J-2.5625
G1 Y120.5
G3 X-36.0 Y117.9375 I2.5625 J0.0
G1 X-8.0
G3 X-5.4375 Y120.5 I0.0 J2.5625
G1 Y133.5
G3 X-8.0 Y136.0625 I-2.5625 J0.0
G1 F400.0 Z-1.5
G1 F1200.0 X-36.0
G3 X-38.5625 Y133.5 I0.0 J-2.5625
G1 Y120.5
G3 X-36.0 Y117.9375 I2.5625 J0.0
G1 X-8.0
G3 X-5.4375 Y120.5 I0.0 J2.5625
G1 Y133.5
G3 X-8.0 Y136.0625 I-2.5625 J0.0
G1 F400.0 Y136.9375
G3 F1200.0 X-5.4375 Y139.5 I0.0 J2.5625
G1 Y152.5
G3 X-8.0 Y155.0625 I-2.5625 J0.0
G1 X-36.0
G3 X-38.5625 Y152.5 I0.0 J-2.5625
G1 Y139.5
G3 X-36.0 Y136.9375 I2.5625 J0.0
G1 X-8.0
G1 F400.0 Z-2.0
G3 F1200.0 X-5.4375 Y139.5 I0.0 J2.5625
G1 Y152.5
G3 X-8.0 Y155.0625 I-2.5625 J0.0
G1 X-36.0
G3 X-38.5625 Y152.5 I0.0 J-2.5625
G1 Y139.5
G3 X-36.0 Y136.9375 I2.5625 J0.0
G1 X-8.0
G0 Z5.0
G0 Y117.0625
G1 F400.0 Z-1.5
G1 F1200.0 X-36.0
G3 X-38.5625 Y114.5 I0.0 J-2.5625
G1 Y101.5
G3 X-36.0 Y98.9375 I2.5625 J0.0
G1 X-8.0
G3 X-5.4375 Y101.5 I0.0 J2.5625
G1 Y114.5
G3 X-8.0 Y117.0625 I-2.5625 J0.0
G1 F400.0 Z-2.0
G1 F1200.0 X-36.0
G3 X-38.5625 Y114.5 I0.0 J-2.5625
G1 Y101.5
G3 X-36.0 Y98.9375 I2.5625 J0.0
G1 X-8.0
G3 X-5.4375 Y101.5 I0.0 J2.5625
G1 Y114.5
G3 X-8.0 Y117.0625 I-2.5625 J0.0
G1 F400.0 Y117.9375
G3 F1200.0 X-5.4375 Y120.5 I0.0 J2.5625
G1 Y133.5
G3 X-8.0 Y136.0625 I-2.5625 J0.0
G1 X-36.0
G3 X-38.5625 Y133.5 I0.0 J-2.5625
G1 Y120.5
G3 X-36.0 Y117.9375 I2.5625 J0.0
G1 X-8.0
G0 Z5.0
G0 Y98.0625
G1 F400.0 Z-2.0
G1 F1200.0 X-36.0
G3 X-38.5625 Y95.5 I0.0 J-2.5625
G1 Y82.5
G3 X-36.0 Y79.9375 I2.5625 J0.0
G1 X-8.0
G3 X-5.4375 Y82.5 I0.0 J2.5625
G1 Y95.5
G3 X-8.0 Y98.0625 I-2.5625 J0.0
G0 Z5.0
M5
M30
