( Made using CamBam - http://www.cambam.co.uk )
( m_brush 2/2/2022 3:02:18 PM )
( T0 : 0.0 )
G21 G90 G40
G0 Z5.0
( T0 : 0.0 )
T0 M6
( Engrave1 )
G17
M3 S1000
G0 X-27.0 Y5.5
G1 F200.0 Z-0.2
G1 F600.0 Y20.5
G1 X-36.0
G3 X-37.0 Y19.5 I0.0 J-1.0
G1 Y6.5
G3 X-36.0 Y5.5 I1.0 J0.0
G1 X-8.0
G3 X-7.0 Y6.5 I0.0 J1.0
G1 Y19.5
G3 X-8.0 Y20.5 I-1.0 J0.0
G1 X-27.0
G0 Z5.0
G0 Y24.5
G1 F200.0 Z-0.2
G1 F600.0 Y39.5
G1 X-36.0
G3 X-37.0 Y38.5 I0.0 J-1.0
G1 Y25.5
G3 X-36.0 Y24.5 I1.0 J0.0
G1 X-8.0
G3 X-7.0 Y25.5 I0.0 J1.0
G1 Y38.5
G3 X-8.0 Y39.5 I-1.0 J0.0
G1 X-27.0
G0 Z5.0
G0 Y43.5
G1 F200.0 Z-0.2
G1 F600.0 Y58.5
G1 X-36.0
G3 X-37.0 Y57.5 I0.0 J-1.0
G1 Y44.5
G3 X-36.0 Y43.5 I1.0 J0.0
G1 X-8.0
G3 X-7.0 Y44.5 I0.0 J1.0
G1 Y57.5
G3 X-8.0 Y58.5 I-1.0 J0.0
G1 X-27.0
G0 Z5.0
G0 Y62.5
G1 F200.0 Z-0.2
G1 F600.0 Y77.5
G1 X-36.0
G3 X-37.0 Y76.5 I0.0 J-1.0
G1 Y63.5
G3 X-36.0 Y62.5 I1.0 J0.0
G1 X-8.0
G3 X-7.0 Y63.5 I0.0 J1.0
G1 Y76.5
G3 X-8.0 Y77.5 I-1.0 J0.0
G1 X-27.0
G0 Z5.0
G0 Y81.5
G1 F200.0 Z-0.2
G1 F600.0 Y96.5
G1 X-36.0
G3 X-37.0 Y95.5 I0.0 J-1.0
G1 Y82.5
G3 X-36.0 Y81.5 I1.0 J0.0
G1 X-8.0
G3 X-7.0 Y82.5 I0.0 J1.0
G1 Y95.5
G3 X-8.0 Y96.5 I-1.0 J0.0
G1 X-27.0
G0 Z5.0
G0 Y100.5
G1 F200.0 Z-0.2
G1 F600.0 Y115.5
G1 X-36.0
G3 X-37.0 Y114.5 I0.0 J-1.0
G1 Y101.5
G3 X-36.0 Y100.5 I1.0 J0.0
G1 X-8.0
G3 X-7.0 Y101.5 I0.0 J1.0
G1 Y114.5
G3 X-8.0 Y115.5 I-1.0 J0.0
G1 X-27.0
G0 Z5.0
G0 Y119.5
G1 F200.0 Z-0.2
G1 F600.0 Y134.5
G1 X-36.0
G3 X-37.0 Y133.5 I0.0 J-1.0
G1 Y120.5
G3 X-36.0 Y119.5 I1.0 J0.0
G1 X-8.0
G3 X-7.0 Y120.5 I0.0 J1.0
G1 Y133.5
G3 X-8.0 Y134.5 I-1.0 J0.0
G1 X-27.0
G0 Z5.0
G0 Y138.5
G1 F200.0 Z-0.2
G1 F600.0 Y153.5
G1 X-36.0
G3 X-37.0 Y152.5 I0.0 J-1.0
G1 Y139.5
G3 X-36.0 Y138.5 I1.0 J0.0
G1 X-8.0
G3 X-7.0 Y139.5 I0.0 J1.0
G1 Y152.5
G3 X-8.0 Y153.5 I-1.0 J0.0
G1 X-27.0
G0 Z5.0
G0 X-17.0
G1 F200.0 Z-0.2
G1 F600.0 Y138.5
G0 Z5.0
G0 Y134.5
G1 F200.0 Z-0.2
G1 F600.0 Y119.5
G0 Z5.0
G0 Y115.5
G1 F200.0 Z-0.2
G1 F600.0 Y100.5
G0 Z5.0
G0 Y96.5
G1 F200.0 Z-0.2
G1 F600.0 Y81.5
G0 Z5.0
G0 Y77.5
G1 F200.0 Z-0.2
G1 F600.0 Y62.5
G0 Z5.0
G0 Y58.5
G1 F200.0 Z-0.2
G1 F600.0 Y43.5
G0 Z5.0
G0 Y39.5
G1 F200.0 Z-0.2
G1 F600.0 Y24.5
G0 Z5.0
G0 Y20.5
G1 F200.0 Z-0.2
G1 F600.0 Y5.5
G0 Z5.0
M5
M30
