( Made using CamBam - http://www.cambam.co.uk )
( pcb_imu 4/4/2022 10:51:12 AM )
( T0 : 0.7 )
G21 G90 G40
G0 Z2.0
( T0 : 0.7 )
T0 M6
( 3_drill_07 )
G17
M3 S1000
G0 X-26.495 Y12.17
G81 X-26.495 Y12.17 Z-2.0 R2.0 F100.0
G81 X-24.995 Z-2.0
G81 X-23.495 Z-2.0
G81 X-19.74 Z-2.0
G81 X-18.24 Z-2.0
G81 X-16.74 Z-2.0
G81 X-15.24 Z-2.0
G81 X-27.995 Z-2.0
G81 X-31.75 Z-2.0
G81 X-33.25 Z-2.0
G81 X-34.75 Z-2.0
G81 X-36.25 Z-2.0
G81 X-40.005 Z-2.0
G81 X-41.505 Z-2.0
G81 X-43.005 Z-2.0
G81 X-44.505 Z-2.0
G81 X-48.26 Z-2.0
G81 X-49.76 Z-2.0
G81 X-51.26 Z-2.0
G81 X-52.76 Z-2.0
G80
M5
M30
