( Made using CamBam - http://www.cambam.co.uk )
( pcb_imu 4/4/2022 10:51:09 AM )
( T0 : 0.15 )
G21 G90 G40
G0 Z2.0
( T0 : 0.15 )
T0 M6
( 1_traces )
G17
M3 S1000
G0 X-25.8612 Y14.19
G1 F100.0 Z-0.15
G3 F300.0 X-25.9438 Y14.5029 I-0.6338 J0.0
G3 X-27.015 Y15.801 I-1.0712 J0.2071
G3 X-27.9598 Y14.1645 I0.0 J-1.091
G3 X-27.1288 Y13.625 I0.9448 J0.5455
G1 Y12.5173
G3 X-27.1209 Y11.8087 I0.6338 J-0.3473
G3 X-25.8691 I0.6259 J0.3614
G3 X-25.8612 Y12.5173 I-0.6259 J0.3614
G1 Y14.19
G1 F100.0 X-25.7438
G1 F300.0 Y12.17
G3 X-25.5768 Y11.7413 I0.6338 J0.0
G3 X-24.3691 Y11.8087 I0.5818 J0.4287
G3 X-24.4762 Y12.6731 I-0.6259 J0.3613
G1 Y15.345
G3 X-24.6618 Y15.7932 I-0.6338 J0.0
G1 X-25.9389 Y17.0702
G3 X-27.015 Y18.341 I-1.0761 J0.1798
G3 X-27.9598 Y16.7045 I0.0 J-1.091
G3 X-26.8352 Y16.1739 I0.9448 J0.5455
G1 X-25.7438 Y15.0825
G1 Y14.19
G0 Z2.0
G0 X-24.0326 Y12.6529
G1 F100.0 Z-0.15
G3 F300.0 X-24.1288 Y11.8227 I0.5376 J-0.4829
G1 Y10.2638
G1 X-31.1162
G1 Y11.8227
G3 X-31.75 Y12.8927 I-0.6338 J0.3473
G3 X-32.3838 Y11.8227 I0.0 J-0.7227
G1 Y10.2638
G1 X-39.3712
G1 Y11.8227
G3 X-40.005 Y12.8927 I-0.6338 J0.3473
G3 X-40.6388 Y11.8227 I0.0 J-0.7227
G1 Y10.2638
G1 X-47.6262
G1 Y11.8227
G3 X-48.26 Y12.8927 I-0.6338 J0.3473
G3 X-48.8938 Y11.8227 I0.0 J-0.7227
G1 Y9.63
G3 X-48.26 Y8.9962 I0.6338 J0.0
G1 X-40.005
G1 X-31.75
G1 X-23.495
G1 X-14.95
G3 X-14.3162 Y9.63 I0.0 J0.6338
G1 Y11.88
G1 Y12.46
G1 Y15.345
G3 X-14.5018 Y15.7932 I-0.6338 J0.0
G1 X-16.2212 Y17.5125
G1 Y20.172
G3 X-15.9102 Y20.5145 I-0.6338 J0.888
G3 X-16.855 Y22.151 I-0.9448 J0.5455
G3 X-17.7998 Y20.5145 I0.0 J-1.091
G3 X-17.4888 Y20.172 I0.9448 J0.5455
G1 Y17.25
G3 X-17.3032 Y16.8018 I0.6338 J0.0
G1 X-15.5838 Y15.0825
G1 Y12.8057
G3 X-15.8659 Y11.8087 I0.3438 J-0.6357
G3 X-15.5838 Y11.5343 I0.6259 J0.3614
G1 Y10.2638
G1 X-22.8612
G1 Y11.8227
G3 X-23.495 Y12.8927 I-0.6338 J0.3473
G3 X-24.0326 Y12.6529 I0.0 J-0.7227
G0 Z2.0
G0 X-20.816 Y15.8696
G1 F100.0 Z-0.15
G1 F300.0 X-19.8361 Y14.8898
G3 X-19.7048 Y14.1645 I1.0761 J-0.1798
G3 X-18.8738 Y13.625 I0.9448 J0.5455
G1 Y12.5173
G3 X-18.8659 Y11.8087 I0.6338 J-0.3473
G3 X-17.6141 I0.6259 J0.3614
G3 X-17.6062 Y12.5173 I-0.6259 J0.3614
G1 Y14.19
G3 X-17.6888 Y14.5029 I-0.6338 J0.0
G3 X-18.76 Y15.801 I-1.0712 J0.2071
G3 X-18.9398 Y15.7861 I0.0 J-1.091
G1 X-21.9362 Y18.7825
G1 Y22.33
G3 X-22.1218 Y22.7782 I-0.6338 J0.0
G1 X-22.7568 Y23.4132
G3 X-23.205 Y23.5988 I-0.4482 J-0.4482
G1 X-31.1975
G1 X-32.0962 Y24.4975
G1 Y25.2425
G1 X-31.0048 Y26.3339
G3 X-30.1954 Y26.519 I0.1798 J1.0761
G1 X-28.7332 Y25.0568
G3 X-28.285 Y24.8712 I0.4482 J0.4482
G1 X-20.03
G3 X-19.5818 Y25.0568 I0.0 J0.6338
G1 X-19.5748 Y25.0639
G3 X-18.4502 Y25.5945 I0.1798 J1.0761
G3 X-19.395 Y27.231 I-0.9448 J0.5455
G3 X-20.486 Y26.1388 I0.0 J-1.091
G1 X-28.0225
G1 X-29.7418 Y27.8582
G3 X-29.8866 Y27.9664 I-0.4482 J-0.4482
G3 X-30.825 Y28.501 I-0.9384 J-0.5564
G3 X-31.9011 Y27.2302 I0.0 J-1.091
G1 X-33.1782 Y25.9532
G3 X-33.3638 Y25.505 I0.4482 J-0.4482
G1 Y24.235
G3 X-33.1782 Y23.7868 I0.6338 J0.0
G1 X-31.9082 Y22.5168
G3 X-31.46 Y22.3312 I0.4482 J0.4482
G1 X-23.4675
G1 X-23.2038 Y22.0675
G1 Y18.52
G3 X-23.0182 Y18.0718 I0.6338 J0.0
G1 X-20.816 Y15.8696
G0 Z2.0
G0 X-19.6658 Y16.6419
G1 F100.0 Z-0.15
G3 F300.0 X-18.5802 Y16.1739 I0.9058 J0.6081
G1 X-17.4888 Y15.0825
G1 Y12.17
G3 X-17.3218 Y11.7413 I0.6338 J0.0
G3 X-16.1141 Y11.8087 I0.5818 J0.4287
G3 X-16.2212 Y12.6731 I-0.6259 J0.3614
G1 Y15.345
G3 X-16.4068 Y15.7932 I-0.6338 J0.0
G1 X-17.6839 Y17.0702
G3 X-18.76 Y18.341 I-1.0761 J0.1798
G3 X-18.9398 Y18.3261 I0.0 J-1.091
G1 X-20.6662 Y20.0525
G1 Y22.965
G1 Y23.6012
G1 X-20.486
G3 X-20.3398 Y23.0545 I1.091 J-0.0012
G3 X-18.4502 I0.9448 J0.5455
G3 X-19.395 Y24.691 I-0.9448 J0.5455
G3 X-19.5748 Y24.6761 I0.0 J-1.091
G1 X-19.5818 Y24.6832
G3 X-20.03 Y24.8688 I-0.4482 J-0.4482
G1 X-21.3
G1 X-22.57
G1 X-28.6575
G1 X-29.1068 Y25.3182
G3 X-29.555 Y25.5038 I-0.4482 J-0.4482
G1 X-29.937
G3 X-30.825 Y25.961 I-0.888 J-0.6338
G3 X-31.7698 Y24.3245 I0.0 J-1.091
G3 X-29.937 Y24.2362 I0.9448 J0.5455
G1 X-29.8175
G1 X-29.3682 Y23.7868
G3 X-28.92 Y23.6012 I0.4482 J0.4482
G1 X-22.8325
G1 X-21.9338 Y22.7025
G1 Y19.79
G3 X-21.7482 Y19.3418 I0.6338 J0.0
G1 X-19.8361 Y17.4298
G3 X-19.7048 Y16.7045 I1.0761 J-0.1798
G3 X-19.6658 Y16.6419 I0.9448 J0.5455
G0 Z2.0
G0 X-19.4617 Y19.971
G1 F100.0 Z-0.15
G3 F300.0 X-18.4502 Y20.5145 I0.0667 J1.089
G3 X-18.3189 Y21.2398 I-0.9448 J0.5455
G1 X-17.0418 Y22.5168
G3 X-16.8562 Y22.965 I-0.4482 J0.4482
G1 Y26.775
G3 X-17.0418 Y27.2232 I-0.6338 J0.0
G1 X-18.3118 Y28.4932
G3 X-18.76 Y28.6788 I-0.4482 J-0.4482
G1 X-20.03
G3 X-20.4782 Y28.4932 I0.0 J-0.6338
G1 X-21.5625 Y27.4088
G1 X-27.3875
G1 X-29.7489 Y29.7702
G3 X-30.825 Y31.041 I-1.0761 J0.1798
G3 X-31.0048 Y31.0261 I0.0 J-1.091
G1 X-32.0962 Y32.1175
G1 Y41.38
G3 X-32.2818 Y41.8282 I-0.6338 J0.0
G1 X-37.3618 Y46.9082
G3 X-37.81 Y47.0938 I-0.4482 J-0.4482
G1 X-42.2562
G1 Y47.73
G3 X-42.89 Y48.3638 I-0.6338 J0.0
G3 X-43.5238 Y47.73 I0.0 J-0.6338
G1 Y46.46
G1 Y45.19
G3 X-43.4389 Y44.8731 I0.6338 J0.0
G3 X-42.3411 I0.5489 J0.3169
G3 X-42.2562 Y45.19 I-0.5489 J0.3169
G1 Y45.8262
G1 X-38.0725
G1 X-33.3638 Y41.1175
G1 Y31.855
G3 X-33.1782 Y31.4068 I0.6338 J0.0
G1 X-31.9011 Y30.1298
G3 X-31.7698 Y29.4045 I1.0761 J-0.1798
G3 X-30.6452 Y28.8739 I0.9448 J0.5455
G1 X-28.0982 Y26.3268
G3 X-27.65 Y26.1412 I0.4482 J0.4482
G1 X-21.3
G3 X-20.8518 Y26.3268 I0.0 J0.6338
G1 X-19.7675 Y27.4112
G1 X-19.0225
G1 X-18.1238 Y26.5125
G1 Y23.2275
G1 X-19.2152 Y22.1361
G3 X-19.395 Y22.151 I-0.1798 J-1.0761
G3 X-20.3398 Y20.5145 I0.0 J-1.091
G3 X-19.4617 Y19.971 I0.9448 J0.5455
G0 Z2.0
G0 X-17.1678 Y27.6348
G1 F100.0 Z-0.15
G3 F300.0 X-15.9102 Y28.1345 I0.3128 J1.0452
G3 X-15.7789 Y28.8598 I-0.9448 J0.5455
G1 X-14.5018 Y30.1368
G3 X-14.3162 Y30.585 I-0.4482 J0.4482
G1 Y39.475
G3 X-14.5018 Y39.9232 I-0.6338 J0.0
G1 X-22.7568 Y48.1782
G3 X-23.205 Y48.3638 I-0.4482 J-0.4482
G1 X-25.11
G3 X-25.6589 Y47.4131 I0.0 J-0.6338
G3 X-25.11 Y47.0962 I0.5489 J0.3169
G1 X-23.4675
G1 X-15.5838 Y39.2125
G1 Y30.8475
G1 X-16.6752 Y29.7561
G3 X-16.855 Y29.771 I-0.1798 J-1.0761
G3 X-17.7998 Y28.1345 I0.0 J-1.091
G3 X-17.1678 Y27.6348 I0.9448 J0.5455
G0 Z2.0
G0 X-16.9498 Y30.1331
G1 F100.0 Z-0.15
G3 F300.0 X-15.9102 Y30.6745 I0.0948 J1.0869
G3 X-15.7789 Y31.3998 I-0.9448 J0.5455
G1 X-15.7718 Y31.4068
G3 X-15.5862 Y31.855 I-0.4482 J0.4482
G1 Y38.84
G3 X-15.7718 Y39.2882 I-0.6338 J0.0
G1 X-23.3918 Y46.9082
G3 X-23.84 Y47.0938 I-0.4482 J-0.4482
G1 X-25.11
G3 X-25.6589 Y46.1431 I0.0 J-0.6338
G3 X-25.11 Y45.8262 I0.5489 J0.3169
G1 X-24.1025
G1 X-16.8538 Y38.5775
G1 Y32.311
G3 X-16.855 I-0.0012 J-1.091
G3 X-17.7998 Y30.6745 I0.0 J-1.091
G3 X-16.9498 Y30.1331 I0.9448 J0.5455
G0 Z2.0
G0 X-34.3776 Y17.8776
G1 F100.0 Z-0.15
G3 F300.0 X-35.27 Y18.341 I-0.8924 J-0.6276
G3 X-36.2148 Y16.7045 I0.0 J-1.091
G3 X-35.0902 Y16.1739 I0.9448 J0.5455
G1 X-33.9988 Y15.0825
G1 Y12.17
G3 X-33.8318 Y11.7413 I0.6338 J0.0
G3 X-32.6241 Y11.8087 I0.5818 J0.4287
G3 X-32.7312 Y12.6731 I-0.6259 J0.3614
G1 Y15.345
G3 X-32.9168 Y15.7932 I-0.6338 J0.0
G1 X-34.1939 Y17.0702
G3 X-34.3776 Y17.8776 I-1.0761 J0.1798
G0 Z2.0
G0 X-34.9741 Y15.7601
G1 F100.0 Z-0.15
G3 F300.0 X-35.27 Y15.801 I-0.2959 J-1.0501
G3 X-36.2148 Y14.1645 I0.0 J-1.091
G3 X-35.3838 Y13.625 I0.9448 J0.5455
G1 Y12.5173
G3 X-35.3759 Y11.8087 I0.6338 J-0.3473
G3 X-34.1241 I0.6259 J0.3614
G3 X-34.1162 Y12.5173 I-0.6259 J0.3613
G1 Y14.19
G3 X-34.1988 Y14.5029 I-0.6338 J0.0
G3 X-34.9741 Y15.7601 I-1.0712 J0.2071
G0 Z2.0
G0 X-40.9874 Y15.3845
G1 F100.0 Z-0.15
G3 F300.0 X-41.1718 Y15.7932 I-0.6326 J-0.0395
G1 X-42.4489 Y17.0702
G3 X-43.525 Y18.341 I-1.0761 J0.1798
G3 X-44.4698 Y16.7045 I0.0 J-1.091
G3 X-43.3452 Y16.1739 I0.9448 J0.5455
G1 X-42.2538 Y15.0825
G1 Y12.17
G3 X-42.0868 Y11.7413 I0.6338 J0.0
G3 X-40.8791 Y11.8087 I0.5818 J0.4287
G3 X-40.9862 Y12.6731 I-0.6259 J0.3613
G1 Y15.345
G3 X-40.9874 Y15.3845 I-0.6338 J0.0
G0 Z2.0
G0 X-42.4706 Y14.9903
G1 F100.0 Z-0.15
G3 F300.0 X-43.525 Y15.801 I-1.0544 J-0.2803
G3 X-44.4698 Y14.1645 I0.0 J-1.091
G3 X-43.6388 Y13.625 I0.9448 J0.5455
G1 Y12.5173
G3 X-43.6309 Y11.8087 I0.6338 J-0.3473
G3 X-42.3791 I0.6259 J0.3614
G3 X-42.3712 Y12.5173 I-0.6259 J0.3614
G1 Y14.19
G3 X-42.4538 Y14.5029 I-0.6338 J0.0
G3 X-42.4706 Y14.9903 I-1.0712 J0.2071
G0 Z2.0
G0 X-49.2412
G1 F100.0 Z-0.15
G1 F300.0 Y15.345
G3 X-49.4268 Y15.7932 I-0.6338 J0.0
G1 X-50.7039 Y17.0702
G3 X-51.78 Y18.341 I-1.0761 J0.1798
G3 X-52.7248 Y16.7045 I0.0 J-1.091
G3 X-51.6002 Y16.1739 I0.9448 J0.5455
G1 X-50.5088 Y15.0825
G1 Y12.17
G3 X-50.3418 Y11.7413 I0.6338 J0.0
G3 X-49.1341 Y11.8087 I0.5818 J0.4287
G3 X-49.2412 Y12.6731 I-0.6259 J0.3613
G1 Y14.9903
G0 Z2.0
G0 X-50.6956 Y14.8297
G1 F100.0 Z-0.15
G3 F300.0 X-51.78 Y15.801 I-1.0844 J-0.1197
G3 X-52.7248 Y14.1645 I0.0 J-1.091
G3 X-51.8938 Y13.625 I0.9448 J0.5455
G1 Y12.5173
G3 X-51.8859 Y11.8087 I0.6338 J-0.3473
G3 X-50.6341 I0.6259 J0.3614
G3 X-50.6262 Y12.5173 I-0.6259 J0.3614
G1 Y14.19
G3 X-50.7088 Y14.5029 I-0.6338 J0.0
G3 X-50.6956 Y14.8297 I-1.0712 J0.2071
G0 Z2.0
M5
M30
