( Made using CamBam - http://www.cambam.co.uk )
( pcb_imu 4/4/2022 10:51:10 AM )
( T0 : 0.9 )
G21 G90 G40
G0 Z2.0
( T0 : 0.9 )
T0 M6
( 2_drill_09 )
G17
M3 S1000
G0 X-30.825 Y32.49
G81 X-30.825 Y32.49 Z-2.0 R2.0 F100.0
G81 Y29.95 Z-2.0
G81 Y27.41 Z-2.0
G81 Y24.87 Z-2.0
G81 X-27.015 Y17.25 Z-2.0
G81 Y14.71 Z-2.0
G81 X-18.76 Z-2.0
G81 Y17.25 Z-2.0
G81 X-19.395 Y21.06 Z-2.0
G81 Y23.6 Z-2.0
G81 Y26.14 Z-2.0
G81 X-16.855 Y28.68 Z-2.0
G81 Y31.22 Z-2.0
G81 X-19.395 Z-2.0
G81 X-16.855 Y21.06 Z-2.0
G81 X-35.27 Y17.25 Z-2.0
G81 Y14.71 Z-2.0
G81 X-43.525 Z-2.0
G81 Y17.25 Z-2.0
G81 X-51.78 Z-2.0
G81 Y14.71 Z-2.0
G80
M5
M30
