( Made using CamBam - http://www.cambam.co.uk )
( pcb_imu 4/4/2022 11:23:51 AM )
( T0 : 0.5 )
G21 G90 G40
G0 Z2.0
( T0 : 0.5 )
T0 M6
( 4_drill_05 )
G17
M3 S1000
G0 X-36.54 Y57.89
G81 X-36.54 Y57.89 Z-2.0 R2.0 F100.0
G81 X-35.27 Z-2.0
G81 X-34.0 Z-2.0
G81 X-25.11 Y49.0 Z-2.0
G81 Y47.73 Z-2.0
G81 Y46.46 Z-2.0
G81 Y45.19 Z-2.0
G81 X-37.81 Y40.11 Z-2.0
G81 X-42.89 Y45.19 Z-2.0
G81 Y47.73 Z-2.0
G81 Y49.0 Z-2.0
G80
M5
M30
