( Made using CamBam - http://www.cambam.co.uk )
( pcb_imu 4/4/2022 10:51:16 AM )
( T0 : 1.6 )
G21 G90 G40
G0 Z2.0
( T0 : 1.6 )
T0 M6
( 5_free )
G17
M3 S1000
G0 X-12.1725 Y63.827
G1 F100.0 Z-0.2
G1 F300.0 X-6.127
G3 X-5.327 Y64.627 I0.0 J0.8
G1 Y68.4972
G3 X-5.3278 Y68.5321 I-0.8 J0.0
G1 X-5.3388 Y68.7853
G3 X-5.3449 Y68.8549 I-0.7992 J-0.0348
G1 X-5.3776 Y69.1035
G3 X-5.3897 Y69.172 I-0.7931 J-0.1045
G1 X-5.4439 Y69.4166
G3 X-5.462 Y69.4842 I-0.7811 J-0.173
G1 X-5.5374 Y69.7232
G3 X-5.5613 Y69.7889 I-0.763 J-0.2406
G1 X-5.6573 Y70.0204
G3 X-5.6867 Y70.0835 I-0.7391 J-0.3063
G1 X-5.8023 Y70.3058
G3 X-5.8374 Y70.3665 I-0.7096 J-0.3693
G1 X-5.9722 Y70.5778
G3 X-6.0119 Y70.6346 I-0.6746 J-0.4301
G1 X-6.1645 Y70.8336
G3 X-6.2095 Y70.8872 I-0.6348 J-0.4869
G1 X-6.3788 Y71.0719
G3 X-6.4282 Y71.1213 I-0.5898 J-0.5405
G1 X-6.613 Y71.2906
G3 X-6.6662 Y71.3353 I-0.5404 J-0.5899
G1 X-6.865 Y71.4879
G3 X-6.9224 Y71.5281 I-0.4872 J-0.6345
G1 X-7.1337 Y71.6627
G3 X-7.1943 Y71.6977 I-0.4298 J-0.6747
G1 X-7.4167 Y71.8134
G3 X-7.4797 Y71.8427 I-0.3692 J-0.7097
G1 X-7.7112 Y71.9387
G3 X-7.7769 Y71.9626 I-0.3063 J-0.7391
G1 X-8.0159 Y72.038
G3 X-8.0835 Y72.0561 I-0.2406 J-0.763
G1 X-8.3281 Y72.1103
G3 X-8.3966 Y72.1224 I-0.173 J-0.7811
G1 X-8.6452 Y72.1551
G3 X-8.7148 Y72.1612 I-0.1045 J-0.7931
G1 X-8.968 Y72.1722
G3 X-9.0029 Y72.173 I-0.0348 J-0.7992
G1 X-58.9971
G3 X-59.032 Y72.1722 I0.0 J-0.8
G1 X-59.2852 Y72.1612
G3 X-59.3548 Y72.1551 I0.0348 J-0.7992
G1 X-59.6034 Y72.1224
G3 X-59.6719 Y72.1103 I0.1045 J-0.7931
G1 X-59.9165 Y72.0561
G3 X-59.9841 Y72.038 I0.173 J-0.7811
G1 X-60.2231 Y71.9626
G3 X-60.2888 Y71.9387 I0.2406 J-0.763
G1 X-60.5203 Y71.8427
G3 X-60.5833 Y71.8134 I0.3063 J-0.7391
G1 X-60.8057 Y71.6977
G3 X-60.8663 Y71.6627 I0.3692 J-0.7097
G1 X-61.0776 Y71.5281
G3 X-61.135 Y71.4879 I0.4298 J-0.6747
G1 X-61.3338 Y71.3353
G3 X-61.387 Y71.2906 I0.4872 J-0.6345
G1 X-61.5718 Y71.1213
G3 X-61.6212 Y71.0719 I0.5404 J-0.5899
G1 X-61.7905 Y70.8872
G3 X-61.8355 Y70.8336 I0.5898 J-0.5405
G1 X-61.9881 Y70.6346
G3 X-62.0278 Y70.5778 I0.6348 J-0.4869
G1 X-62.1626 Y70.3665
G3 X-62.1977 Y70.3058 I0.6746 J-0.4301
G1 X-62.3133 Y70.0835
G3 X-62.3427 Y70.0204 I0.7096 J-0.3693
G1 X-62.4387 Y69.7889
G3 X-62.4626 Y69.7232 I0.7391 J-0.3063
G1 X-62.538 Y69.4842
G3 X-62.5561 Y69.4166 I0.763 J-0.2406
G1 X-62.6103 Y69.172
G3 X-62.6224 Y69.1035 I0.7811 J-0.173
G1 X-62.6551 Y68.8549
G3 X-62.6612 Y68.7853 I0.7931 J-0.1045
G1 X-62.6722 Y68.5321
G3 X-62.673 Y68.4972 I0.7992 J-0.0348
G1 Y9.5028
G3 X-62.6722 Y9.4679 I0.8 J0.0
G1 X-62.6612 Y9.2147
G3 X-62.6551 Y9.145 I0.7992 J0.0348
G1 X-62.6223 Y8.8966
G3 X-62.6103 Y8.8282 I0.7931 J0.1046
G1 X-62.5561 Y8.5834
G3 X-62.538 Y8.5158 I0.7811 J0.173
G1 X-62.4626 Y8.2768
G3 X-62.4387 Y8.2111 I0.763 J0.2406
G1 X-62.3427 Y7.9796
G3 X-62.3133 Y7.9165 I0.7391 J0.3063
G1 X-62.1976 Y7.6942
G3 X-62.1627 Y7.6337 I0.7096 J0.3693
G1 X-62.0281 Y7.4224
G3 X-61.988 Y7.3652 I0.6747 J0.4298
G1 X-61.8354 Y7.1663
G3 X-61.7905 Y7.1128 I0.6346 J0.4871
G1 X-61.6212 Y6.928
G3 X-61.572 Y6.8788 I0.5898 J0.5405
G1 X-61.3872 Y6.7095
G3 X-61.3337 Y6.6646 I0.5405 J0.5898
G1 X-61.1348 Y6.512
G3 X-61.0776 Y6.4719 I0.4871 J0.6346
G1 X-60.8663 Y6.3373
G3 X-60.8058 Y6.3024 I0.4298 J0.6747
G1 X-60.5835 Y6.1867
G3 X-60.5204 Y6.1573 I0.3693 J0.7096
G1 X-60.2889 Y6.0613
G3 X-60.2232 Y6.0374 I0.3063 J0.7391
G1 X-59.9842 Y5.962
G3 X-59.9166 Y5.9439 I0.2406 J0.763
G1 X-59.6718 Y5.8897
G3 X-59.6034 Y5.8777 I0.173 J0.7811
G1 X-59.355 Y5.8449
G3 X-59.2853 Y5.8388 I0.1046 J0.7931
G1 X-59.0321 Y5.8278
G3 X-58.9972 Y5.827 I0.0348 J0.7992
G1 X-9.0028
G3 X-8.9679 Y5.8278 I0.0 J0.8
G1 X-8.7147 Y5.8388
G3 X-8.645 Y5.8449 I-0.0348 J0.7992
G1 X-8.3966 Y5.8777
G3 X-8.3282 Y5.8897 I-0.1046 J0.7931
G1 X-8.0834 Y5.9439
G3 X-8.0158 Y5.962 I-0.173 J0.7811
G1 X-7.7768 Y6.0374
G3 X-7.7111 Y6.0613 I-0.2406 J0.763
G1 X-7.4796 Y6.1573
G3 X-7.4165 Y6.1867 I-0.3063 J0.7391
G1 X-7.1942 Y6.3024
G3 X-7.1337 Y6.3373 I-0.3693 J0.7096
G1 X-6.9224 Y6.4719
G3 X-6.8652 Y6.512 I-0.4298 J0.6747
G1 X-6.6663 Y6.6646
G3 X-6.6128 Y6.7095 I-0.4871 J0.6346
G1 X-6.428 Y6.8788
G3 X-6.3788 Y6.928 I-0.5405 J0.5898
G1 X-6.2095 Y7.1128
G3 X-6.1646 Y7.1663 I-0.5898 J0.5405
G1 X-6.012 Y7.3652
G3 X-5.9719 Y7.4224 I-0.6346 J0.4871
G1 X-5.8373 Y7.6337
G3 X-5.8024 Y7.6942 I-0.6747 J0.4298
G1 X-5.6867 Y7.9165
G3 X-5.6573 Y7.9796 I-0.7096 J0.3693
G1 X-5.5613 Y8.2111
G3 X-5.5374 Y8.2768 I-0.7391 J0.3063
G1 X-5.462 Y8.5158
G3 X-5.4439 Y8.5834 I-0.763 J0.2406
G1 X-5.3897 Y8.8282
G3 X-5.3777 Y8.8966 I-0.7811 J0.173
G1 X-5.3449 Y9.145
G3 X-5.3388 Y9.2147 I-0.7931 J0.1046
G1 X-5.3278 Y9.4679
G3 X-5.327 Y9.5028 I-0.7992 J0.0348
G1 Y13.373
G3 X-6.127 Y14.173 I-0.8 J0.0
G1 X-12.1725
G1 X-12.1995 Y14.1742
G1 X-12.2114 Y14.1757
G1 X-12.2232 Y14.1784
G1 X-12.2346 Y14.1819
G1 X-12.2459 Y14.1867
G1 X-12.2569 Y14.1924
G1 X-12.267 Y14.1988
G1 X-12.2765 Y14.2061
G1 X-12.2856 Y14.2144
G1 X-12.2939 Y14.2235
G1 X-12.3012 Y14.233
G1 X-12.3076 Y14.2431
G1 X-12.3133 Y14.2541
G1 X-12.3181 Y14.2654
G1 X-12.3216 Y14.2768
G1 X-12.3243 Y14.2886
G1 X-12.3258 Y14.3005
G1 X-12.327 Y14.3275
G1 Y63.6725
G1 X-12.3258 Y63.6995
G1 X-12.3243 Y63.7114
G1 X-12.3216 Y63.7232
G1 X-12.3181 Y63.7346
G1 X-12.3133 Y63.7459
G1 X-12.3076 Y63.7569
G1 X-12.3012 Y63.767
G1 X-12.2939 Y63.7765
G1 X-12.2856 Y63.7856
G1 X-12.2765 Y63.7939
G1 X-12.267 Y63.8012
G1 X-12.2569 Y63.8076
G1 X-12.2459 Y63.8133
G1 X-12.2346 Y63.8181
G1 X-12.2232 Y63.8216
G1 X-12.2114 Y63.8243
G1 X-12.1995 Y63.8258
G1 X-12.1725 Y63.827
G1 F100.0 Z-0.4
G1 F300.0 X-6.127
G3 X-5.327 Y64.627 I0.0 J0.8
G1 Y68.4972
G3 X-5.3278 Y68.5321 I-0.8 J0.0
G1 X-5.3388 Y68.7853
G3 X-5.3449 Y68.8549 I-0.7992 J-0.0348
G1 X-5.3776 Y69.1035
G3 X-5.3897 Y69.172 I-0.7931 J-0.1045
G1 X-5.4439 Y69.4166
G3 X-5.462 Y69.4842 I-0.7811 J-0.173
G1 X-5.5374 Y69.7232
G3 X-5.5613 Y69.7889 I-0.763 J-0.2406
G1 X-5.6573 Y70.0204
G3 X-5.6867 Y70.0835 I-0.7391 J-0.3063
G1 X-5.8023 Y70.3058
G3 X-5.8374 Y70.3665 I-0.7096 J-0.3693
G1 X-5.9722 Y70.5778
G3 X-6.0119 Y70.6346 I-0.6746 J-0.4301
G1 X-6.1645 Y70.8336
G3 X-6.2095 Y70.8872 I-0.6348 J-0.4869
G1 X-6.3788 Y71.0719
G3 X-6.4282 Y71.1213 I-0.5898 J-0.5405
G1 X-6.613 Y71.2906
G3 X-6.6662 Y71.3353 I-0.5404 J-0.5899
G1 X-6.865 Y71.4879
G3 X-6.9224 Y71.5281 I-0.4872 J-0.6345
G1 X-7.1337 Y71.6627
G3 X-7.1943 Y71.6977 I-0.4298 J-0.6747
G1 X-7.4167 Y71.8134
G3 X-7.4797 Y71.8427 I-0.3692 J-0.7097
G1 X-7.7112 Y71.9387
G3 X-7.7769 Y71.9626 I-0.3063 J-0.7391
G1 X-8.0159 Y72.038
G3 X-8.0835 Y72.0561 I-0.2406 J-0.763
G1 X-8.3281 Y72.1103
G3 X-8.3966 Y72.1224 I-0.173 J-0.7811
G1 X-8.6452 Y72.1551
G3 X-8.7148 Y72.1612 I-0.1045 J-0.7931
G1 X-8.968 Y72.1722
G3 X-9.0029 Y72.173 I-0.0348 J-0.7992
G1 X-58.9971
G3 X-59.032 Y72.1722 I0.0 J-0.8
G1 X-59.2852 Y72.1612
G3 X-59.3548 Y72.1551 I0.0348 J-0.7992
G1 X-59.6034 Y72.1224
G3 X-59.6719 Y72.1103 I0.1045 J-0.7931
G1 X-59.9165 Y72.0561
G3 X-59.9841 Y72.038 I0.173 J-0.7811
G1 X-60.2231 Y71.9626
G3 X-60.2888 Y71.9387 I0.2406 J-0.763
G1 X-60.5203 Y71.8427
G3 X-60.5833 Y71.8134 I0.3063 J-0.7391
G1 X-60.8057 Y71.6977
G3 X-60.8663 Y71.6627 I0.3692 J-0.7097
G1 X-61.0776 Y71.5281
G3 X-61.135 Y71.4879 I0.4298 J-0.6747
G1 X-61.3338 Y71.3353
G3 X-61.387 Y71.2906 I0.4872 J-0.6345
G1 X-61.5718 Y71.1213
G3 X-61.6212 Y71.0719 I0.5404 J-0.5899
G1 X-61.7905 Y70.8872
G3 X-61.8355 Y70.8336 I0.5898 J-0.5405
G1 X-61.9881 Y70.6346
G3 X-62.0278 Y70.5778 I0.6348 J-0.4869
G1 X-62.1626 Y70.3665
G3 X-62.1977 Y70.3058 I0.6746 J-0.4301
G1 X-62.3133 Y70.0835
G3 X-62.3427 Y70.0204 I0.7096 J-0.3693
G1 X-62.4387 Y69.7889
G3 X-62.4626 Y69.7232 I0.7391 J-0.3063
G1 X-62.538 Y69.4842
G3 X-62.5561 Y69.4166 I0.763 J-0.2406
G1 X-62.6103 Y69.172
G3 X-62.6224 Y69.1035 I0.7811 J-0.173
G1 X-62.6551 Y68.8549
G3 X-62.6612 Y68.7853 I0.7931 J-0.1045
G1 X-62.6722 Y68.5321
G3 X-62.673 Y68.4972 I0.7992 J-0.0348
G1 Y9.5028
G3 X-62.6722 Y9.4679 I0.8 J0.0
G1 X-62.6612 Y9.2147
G3 X-62.6551 Y9.145 I0.7992 J0.0348
G1 X-62.6223 Y8.8966
G3 X-62.6103 Y8.8282 I0.7931 J0.1046
G1 X-62.5561 Y8.5834
G3 X-62.538 Y8.5158 I0.7811 J0.173
G1 X-62.4626 Y8.2768
G3 X-62.4387 Y8.2111 I0.763 J0.2406
G1 X-62.3427 Y7.9796
G3 X-62.3133 Y7.9165 I0.7391 J0.3063
G1 X-62.1976 Y7.6942
G3 X-62.1627 Y7.6337 I0.7096 J0.3693
G1 X-62.0281 Y7.4224
G3 X-61.988 Y7.3652 I0.6747 J0.4298
G1 X-61.8354 Y7.1663
G3 X-61.7905 Y7.1128 I0.6346 J0.4871
G1 X-61.6212 Y6.928
G3 X-61.572 Y6.8788 I0.5898 J0.5405
G1 X-61.3872 Y6.7095
G3 X-61.3337 Y6.6646 I0.5405 J0.5898
G1 X-61.1348 Y6.512
G3 X-61.0776 Y6.4719 I0.4871 J0.6346
G1 X-60.8663 Y6.3373
G3 X-60.8058 Y6.3024 I0.4298 J0.6747
G1 X-60.5835 Y6.1867
G3 X-60.5204 Y6.1573 I0.3693 J0.7096
G1 X-60.2889 Y6.0613
G3 X-60.2232 Y6.0374 I0.3063 J0.7391
G1 X-59.9842 Y5.962
G3 X-59.9166 Y5.9439 I0.2406 J0.763
G1 X-59.6718 Y5.8897
G3 X-59.6034 Y5.8777 I0.173 J0.7811
G1 X-59.355 Y5.8449
G3 X-59.2853 Y5.8388 I0.1046 J0.7931
G1 X-59.0321 Y5.8278
G3 X-58.9972 Y5.827 I0.0348 J0.7992
G1 X-9.0028
G3 X-8.9679 Y5.8278 I0.0 J0.8
G1 X-8.7147 Y5.8388
G3 X-8.645 Y5.8449 I-0.0348 J0.7992
G1 X-8.3966 Y5.8777
G3 X-8.3282 Y5.8897 I-0.1046 J0.7931
G1 X-8.0834 Y5.9439
G3 X-8.0158 Y5.962 I-0.173 J0.7811
G1 X-7.7768 Y6.0374
G3 X-7.7111 Y6.0613 I-0.2406 J0.763
G1 X-7.4796 Y6.1573
G3 X-7.4165 Y6.1867 I-0.3063 J0.7391
G1 X-7.1942 Y6.3024
G3 X-7.1337 Y6.3373 I-0.3693 J0.7096
G1 X-6.9224 Y6.4719
G3 X-6.8652 Y6.512 I-0.4298 J0.6747
G1 X-6.6663 Y6.6646
G3 X-6.6128 Y6.7095 I-0.4871 J0.6346
G1 X-6.428 Y6.8788
G3 X-6.3788 Y6.928 I-0.5405 J0.5898
G1 X-6.2095 Y7.1128
G3 X-6.1646 Y7.1663 I-0.5898 J0.5405
G1 X-6.012 Y7.3652
G3 X-5.9719 Y7.4224 I-0.6346 J0.4871
G1 X-5.8373 Y7.6337
G3 X-5.8024 Y7.6942 I-0.6747 J0.4298
G1 X-5.6867 Y7.9165
G3 X-5.6573 Y7.9796 I-0.7096 J0.3693
G1 X-5.5613 Y8.2111
G3 X-5.5374 Y8.2768 I-0.7391 J0.3063
G1 X-5.462 Y8.5158
G3 X-5.4439 Y8.5834 I-0.763 J0.2406
G1 X-5.3897 Y8.8282
G3 X-5.3777 Y8.8966 I-0.7811 J0.173
G1 X-5.3449 Y9.145
G3 X-5.3388 Y9.2147 I-0.7931 J0.1046
G1 X-5.3278 Y9.4679
G3 X-5.327 Y9.5028 I-0.7992 J0.0348
G1 Y13.373
G3 X-6.127 Y14.173 I-0.8 J0.0
G1 X-12.1725
G1 X-12.1995 Y14.1742
G1 X-12.2114 Y14.1757
G1 X-12.2232 Y14.1784
G1 X-12.2346 Y14.1819
G1 X-12.2459 Y14.1867
G1 X-12.2569 Y14.1924
G1 X-12.267 Y14.1988
G1 X-12.2765 Y14.2061
G1 X-12.2856 Y14.2144
G1 X-12.2939 Y14.2235
G1 X-12.3012 Y14.233
G1 X-12.3076 Y14.2431
G1 X-12.3133 Y14.2541
G1 X-12.3181 Y14.2654
G1 X-12.3216 Y14.2768
G1 X-12.3243 Y14.2886
G1 X-12.3258 Y14.3005
G1 X-12.327 Y14.3275
G1 Y63.6725
G1 X-12.3258 Y63.6995
G1 X-12.3243 Y63.7114
G1 X-12.3216 Y63.7232
G1 X-12.3181 Y63.7346
G1 X-12.3133 Y63.7459
G1 X-12.3076 Y63.7569
G1 X-12.3012 Y63.767
G1 X-12.2939 Y63.7765
G1 X-12.2856 Y63.7856
G1 X-12.2765 Y63.7939
G1 X-12.267 Y63.8012
G1 X-12.2569 Y63.8076
G1 X-12.2459 Y63.8133
G1 X-12.2346 Y63.8181
G1 X-12.2232 Y63.8216
G1 X-12.2114 Y63.8243
G1 X-12.1995 Y63.8258
G1 X-12.1725 Y63.827
G1 F100.0 Z-0.6
G1 F300.0 X-6.127
G3 X-5.327 Y64.627 I0.0 J0.8
G1 Y68.4972
G3 X-5.3278 Y68.5321 I-0.8 J0.0
G1 X-5.3388 Y68.7853
G3 X-5.3449 Y68.8549 I-0.7992 J-0.0348
G1 X-5.3776 Y69.1035
G3 X-5.3897 Y69.172 I-0.7931 J-0.1045
G1 X-5.4439 Y69.4166
G3 X-5.462 Y69.4842 I-0.7811 J-0.173
G1 X-5.5374 Y69.7232
G3 X-5.5613 Y69.7889 I-0.763 J-0.2406
G1 X-5.6573 Y70.0204
G3 X-5.6867 Y70.0835 I-0.7391 J-0.3063
G1 X-5.8023 Y70.3058
G3 X-5.8374 Y70.3665 I-0.7096 J-0.3693
G1 X-5.9722 Y70.5778
G3 X-6.0119 Y70.6346 I-0.6746 J-0.4301
G1 X-6.1645 Y70.8336
G3 X-6.2095 Y70.8872 I-0.6348 J-0.4869
G1 X-6.3788 Y71.0719
G3 X-6.4282 Y71.1213 I-0.5898 J-0.5405
G1 X-6.613 Y71.2906
G3 X-6.6662 Y71.3353 I-0.5404 J-0.5899
G1 X-6.865 Y71.4879
G3 X-6.9224 Y71.5281 I-0.4872 J-0.6345
G1 X-7.1337 Y71.6627
G3 X-7.1943 Y71.6977 I-0.4298 J-0.6747
G1 X-7.4167 Y71.8134
G3 X-7.4797 Y71.8427 I-0.3692 J-0.7097
G1 X-7.7112 Y71.9387
G3 X-7.7769 Y71.9626 I-0.3063 J-0.7391
G1 X-8.0159 Y72.038
G3 X-8.0835 Y72.0561 I-0.2406 J-0.763
G1 X-8.3281 Y72.1103
G3 X-8.3966 Y72.1224 I-0.173 J-0.7811
G1 X-8.6452 Y72.1551
G3 X-8.7148 Y72.1612 I-0.1045 J-0.7931
G1 X-8.968 Y72.1722
G3 X-9.0029 Y72.173 I-0.0348 J-0.7992
G1 X-58.9971
G3 X-59.032 Y72.1722 I0.0 J-0.8
G1 X-59.2852 Y72.1612
G3 X-59.3548 Y72.1551 I0.0348 J-0.7992
G1 X-59.6034 Y72.1224
G3 X-59.6719 Y72.1103 I0.1045 J-0.7931
G1 X-59.9165 Y72.0561
G3 X-59.9841 Y72.038 I0.173 J-0.7811
G1 X-60.2231 Y71.9626
G3 X-60.2888 Y71.9387 I0.2406 J-0.763
G1 X-60.5203 Y71.8427
G3 X-60.5833 Y71.8134 I0.3063 J-0.7391
G1 X-60.8057 Y71.6977
G3 X-60.8663 Y71.6627 I0.3692 J-0.7097
G1 X-61.0776 Y71.5281
G3 X-61.135 Y71.4879 I0.4298 J-0.6747
G1 X-61.3338 Y71.3353
G3 X-61.387 Y71.2906 I0.4872 J-0.6345
G1 X-61.5718 Y71.1213
G3 X-61.6212 Y71.0719 I0.5404 J-0.5899
G1 X-61.7905 Y70.8872
G3 X-61.8355 Y70.8336 I0.5898 J-0.5405
G1 X-61.9881 Y70.6346
G3 X-62.0278 Y70.5778 I0.6348 J-0.4869
G1 X-62.1626 Y70.3665
G3 X-62.1977 Y70.3058 I0.6746 J-0.4301
G1 X-62.3133 Y70.0835
G3 X-62.3427 Y70.0204 I0.7096 J-0.3693
G1 X-62.4387 Y69.7889
G3 X-62.4626 Y69.7232 I0.7391 J-0.3063
G1 X-62.538 Y69.4842
G3 X-62.5561 Y69.4166 I0.763 J-0.2406
G1 X-62.6103 Y69.172
G3 X-62.6224 Y69.1035 I0.7811 J-0.173
G1 X-62.6551 Y68.8549
G3 X-62.6612 Y68.7853 I0.7931 J-0.1045
G1 X-62.6722 Y68.5321
G3 X-62.673 Y68.4972 I0.7992 J-0.0348
G1 Y9.5028
G3 X-62.6722 Y9.4679 I0.8 J0.0
G1 X-62.6612 Y9.2147
G3 X-62.6551 Y9.145 I0.7992 J0.0348
G1 X-62.6223 Y8.8966
G3 X-62.6103 Y8.8282 I0.7931 J0.1046
G1 X-62.5561 Y8.5834
G3 X-62.538 Y8.5158 I0.7811 J0.173
G1 X-62.4626 Y8.2768
G3 X-62.4387 Y8.2111 I0.763 J0.2406
G1 X-62.3427 Y7.9796
G3 X-62.3133 Y7.9165 I0.7391 J0.3063
G1 X-62.1976 Y7.6942
G3 X-62.1627 Y7.6337 I0.7096 J0.3693
G1 X-62.0281 Y7.4224
G3 X-61.988 Y7.3652 I0.6747 J0.4298
G1 X-61.8354 Y7.1663
G3 X-61.7905 Y7.1128 I0.6346 J0.4871
G1 X-61.6212 Y6.928
G3 X-61.572 Y6.8788 I0.5898 J0.5405
G1 X-61.3872 Y6.7095
G3 X-61.3337 Y6.6646 I0.5405 J0.5898
G1 X-61.1348 Y6.512
G3 X-61.0776 Y6.4719 I0.4871 J0.6346
G1 X-60.8663 Y6.3373
G3 X-60.8058 Y6.3024 I0.4298 J0.6747
G1 X-60.5835 Y6.1867
G3 X-60.5204 Y6.1573 I0.3693 J0.7096
G1 X-60.2889 Y6.0613
G3 X-60.2232 Y6.0374 I0.3063 J0.7391
G1 X-59.9842 Y5.962
G3 X-59.9166 Y5.9439 I0.2406 J0.763
G1 X-59.6718 Y5.8897
G3 X-59.6034 Y5.8777 I0.173 J0.7811
G1 X-59.355 Y5.8449
G3 X-59.2853 Y5.8388 I0.1046 J0.7931
G1 X-59.0321 Y5.8278
G3 X-58.9972 Y5.827 I0.0348 J0.7992
G1 X-9.0028
G3 X-8.9679 Y5.8278 I0.0 J0.8
G1 X-8.7147 Y5.8388
G3 X-8.645 Y5.8449 I-0.0348 J0.7992
G1 X-8.3966 Y5.8777
G3 X-8.3282 Y5.8897 I-0.1046 J0.7931
G1 X-8.0834 Y5.9439
G3 X-8.0158 Y5.962 I-0.173 J0.7811
G1 X-7.7768 Y6.0374
G3 X-7.7111 Y6.0613 I-0.2406 J0.763
G1 X-7.4796 Y6.1573
G3 X-7.4165 Y6.1867 I-0.3063 J0.7391
G1 X-7.1942 Y6.3024
G3 X-7.1337 Y6.3373 I-0.3693 J0.7096
G1 X-6.9224 Y6.4719
G3 X-6.8652 Y6.512 I-0.4298 J0.6747
G1 X-6.6663 Y6.6646
G3 X-6.6128 Y6.7095 I-0.4871 J0.6346
G1 X-6.428 Y6.8788
G3 X-6.3788 Y6.928 I-0.5405 J0.5898
G1 X-6.2095 Y7.1128
G3 X-6.1646 Y7.1663 I-0.5898 J0.5405
G1 X-6.012 Y7.3652
G3 X-5.9719 Y7.4224 I-0.6346 J0.4871
G1 X-5.8373 Y7.6337
G3 X-5.8024 Y7.6942 I-0.6747 J0.4298
G1 X-5.6867 Y7.9165
G3 X-5.6573 Y7.9796 I-0.7096 J0.3693
G1 X-5.5613 Y8.2111
G3 X-5.5374 Y8.2768 I-0.7391 J0.3063
G1 X-5.462 Y8.5158
G3 X-5.4439 Y8.5834 I-0.763 J0.2406
G1 X-5.3897 Y8.8282
G3 X-5.3777 Y8.8966 I-0.7811 J0.173
G1 X-5.3449 Y9.145
G3 X-5.3388 Y9.2147 I-0.7931 J0.1046
G1 X-5.3278 Y9.4679
G3 X-5.327 Y9.5028 I-0.7992 J0.0348
G1 Y13.373
G3 X-6.127 Y14.173 I-0.8 J0.0
G1 X-12.1725
G1 X-12.1995 Y14.1742
G1 X-12.2114 Y14.1757
G1 X-12.2232 Y14.1784
G1 X-12.2346 Y14.1819
G1 X-12.2459 Y14.1867
G1 X-12.2569 Y14.1924
G1 X-12.267 Y14.1988
G1 X-12.2765 Y14.2061
G1 X-12.2856 Y14.2144
G1 X-12.2939 Y14.2235
G1 X-12.3012 Y14.233
G1 X-12.3076 Y14.2431
G1 X-12.3133 Y14.2541
G1 X-12.3181 Y14.2654
G1 X-12.3216 Y14.2768
G1 X-12.3243 Y14.2886
G1 X-12.3258 Y14.3005
G1 X-12.327 Y14.3275
G1 Y63.6725
G1 X-12.3258 Y63.6995
G1 X-12.3243 Y63.7114
G1 X-12.3216 Y63.7232
G1 X-12.3181 Y63.7346
G1 X-12.3133 Y63.7459
G1 X-12.3076 Y63.7569
G1 X-12.3012 Y63.767
G1 X-12.2939 Y63.7765
G1 X-12.2856 Y63.7856
G1 X-12.2765 Y63.7939
G1 X-12.267 Y63.8012
G1 X-12.2569 Y63.8076
G1 X-12.2459 Y63.8133
G1 X-12.2346 Y63.8181
G1 X-12.2232 Y63.8216
G1 X-12.2114 Y63.8243
G1 X-12.1995 Y63.8258
G1 X-12.1725 Y63.827
G1 F100.0 Z-0.8
G1 F300.0 X-6.127
G3 X-5.327 Y64.627 I0.0 J0.8
G1 Y68.4972
G3 X-5.3278 Y68.5321 I-0.8 J0.0
G1 X-5.3388 Y68.7853
G3 X-5.3449 Y68.8549 I-0.7992 J-0.0348
G1 X-5.3776 Y69.1035
G3 X-5.3897 Y69.172 I-0.7931 J-0.1045
G1 X-5.4439 Y69.4166
G3 X-5.462 Y69.4842 I-0.7811 J-0.173
G1 X-5.5374 Y69.7232
G3 X-5.5613 Y69.7889 I-0.763 J-0.2406
G1 X-5.6573 Y70.0204
G3 X-5.6867 Y70.0835 I-0.7391 J-0.3063
G1 X-5.8023 Y70.3058
G3 X-5.8374 Y70.3665 I-0.7096 J-0.3693
G1 X-5.9722 Y70.5778
G3 X-6.0119 Y70.6346 I-0.6746 J-0.4301
G1 X-6.1645 Y70.8336
G3 X-6.2095 Y70.8872 I-0.6348 J-0.4869
G1 X-6.3788 Y71.0719
G3 X-6.4282 Y71.1213 I-0.5898 J-0.5405
G1 X-6.613 Y71.2906
G3 X-6.6662 Y71.3353 I-0.5404 J-0.5899
G1 X-6.865 Y71.4879
G3 X-6.9224 Y71.5281 I-0.4872 J-0.6345
G1 X-7.1337 Y71.6627
G3 X-7.1943 Y71.6977 I-0.4298 J-0.6747
G1 X-7.4167 Y71.8134
G3 X-7.4797 Y71.8427 I-0.3692 J-0.7097
G1 X-7.7112 Y71.9387
G3 X-7.7769 Y71.9626 I-0.3063 J-0.7391
G1 X-8.0159 Y72.038
G3 X-8.0835 Y72.0561 I-0.2406 J-0.763
G1 X-8.3281 Y72.1103
G3 X-8.3966 Y72.1224 I-0.173 J-0.7811
G1 X-8.6452 Y72.1551
G3 X-8.7148 Y72.1612 I-0.1045 J-0.7931
G1 X-8.968 Y72.1722
G3 X-9.0029 Y72.173 I-0.0348 J-0.7992
G1 X-58.9971
G3 X-59.032 Y72.1722 I0.0 J-0.8
G1 X-59.2852 Y72.1612
G3 X-59.3548 Y72.1551 I0.0348 J-0.7992
G1 X-59.6034 Y72.1224
G3 X-59.6719 Y72.1103 I0.1045 J-0.7931
G1 X-59.9165 Y72.0561
G3 X-59.9841 Y72.038 I0.173 J-0.7811
G1 X-60.2231 Y71.9626
G3 X-60.2888 Y71.9387 I0.2406 J-0.763
G1 X-60.5203 Y71.8427
G3 X-60.5833 Y71.8134 I0.3063 J-0.7391
G1 X-60.8057 Y71.6977
G3 X-60.8663 Y71.6627 I0.3692 J-0.7097
G1 X-61.0776 Y71.5281
G3 X-61.135 Y71.4879 I0.4298 J-0.6747
G1 X-61.3338 Y71.3353
G3 X-61.387 Y71.2906 I0.4872 J-0.6345
G1 X-61.5718 Y71.1213
G3 X-61.6212 Y71.0719 I0.5404 J-0.5899
G1 X-61.7905 Y70.8872
G3 X-61.8355 Y70.8336 I0.5898 J-0.5405
G1 X-61.9881 Y70.6346
G3 X-62.0278 Y70.5778 I0.6348 J-0.4869
G1 X-62.1626 Y70.3665
G3 X-62.1977 Y70.3058 I0.6746 J-0.4301
G1 X-62.3133 Y70.0835
G3 X-62.3427 Y70.0204 I0.7096 J-0.3693
G1 X-62.4387 Y69.7889
G3 X-62.4626 Y69.7232 I0.7391 J-0.3063
G1 X-62.538 Y69.4842
G3 X-62.5561 Y69.4166 I0.763 J-0.2406
G1 X-62.6103 Y69.172
G3 X-62.6224 Y69.1035 I0.7811 J-0.173
G1 X-62.6551 Y68.8549
G3 X-62.6612 Y68.7853 I0.7931 J-0.1045
G1 X-62.6722 Y68.5321
G3 X-62.673 Y68.4972 I0.7992 J-0.0348
G1 Y9.5028
G3 X-62.6722 Y9.4679 I0.8 J0.0
G1 X-62.6612 Y9.2147
G3 X-62.6551 Y9.145 I0.7992 J0.0348
G1 X-62.6223 Y8.8966
G3 X-62.6103 Y8.8282 I0.7931 J0.1046
G1 X-62.5561 Y8.5834
G3 X-62.538 Y8.5158 I0.7811 J0.173
G1 X-62.4626 Y8.2768
G3 X-62.4387 Y8.2111 I0.763 J0.2406
G1 X-62.3427 Y7.9796
G3 X-62.3133 Y7.9165 I0.7391 J0.3063
G1 X-62.1976 Y7.6942
G3 X-62.1627 Y7.6337 I0.7096 J0.3693
G1 X-62.0281 Y7.4224
G3 X-61.988 Y7.3652 I0.6747 J0.4298
G1 X-61.8354 Y7.1663
G3 X-61.7905 Y7.1128 I0.6346 J0.4871
G1 X-61.6212 Y6.928
G3 X-61.572 Y6.8788 I0.5898 J0.5405
G1 X-61.3872 Y6.7095
G3 X-61.3337 Y6.6646 I0.5405 J0.5898
G1 X-61.1348 Y6.512
G3 X-61.0776 Y6.4719 I0.4871 J0.6346
G1 X-60.8663 Y6.3373
G3 X-60.8058 Y6.3024 I0.4298 J0.6747
G1 X-60.5835 Y6.1867
G3 X-60.5204 Y6.1573 I0.3693 J0.7096
G1 X-60.2889 Y6.0613
G3 X-60.2232 Y6.0374 I0.3063 J0.7391
G1 X-59.9842 Y5.962
G3 X-59.9166 Y5.9439 I0.2406 J0.763
G1 X-59.6718 Y5.8897
G3 X-59.6034 Y5.8777 I0.173 J0.7811
G1 X-59.355 Y5.8449
G3 X-59.2853 Y5.8388 I0.1046 J0.7931
G1 X-59.0321 Y5.8278
G3 X-58.9972 Y5.827 I0.0348 J0.7992
G1 X-9.0028
G3 X-8.9679 Y5.8278 I0.0 J0.8
G1 X-8.7147 Y5.8388
G3 X-8.645 Y5.8449 I-0.0348 J0.7992
G1 X-8.3966 Y5.8777
G3 X-8.3282 Y5.8897 I-0.1046 J0.7931
G1 X-8.0834 Y5.9439
G3 X-8.0158 Y5.962 I-0.173 J0.7811
G1 X-7.7768 Y6.0374
G3 X-7.7111 Y6.0613 I-0.2406 J0.763
G1 X-7.4796 Y6.1573
G3 X-7.4165 Y6.1867 I-0.3063 J0.7391
G1 X-7.1942 Y6.3024
G3 X-7.1337 Y6.3373 I-0.3693 J0.7096
G1 X-6.9224 Y6.4719
G3 X-6.8652 Y6.512 I-0.4298 J0.6747
G1 X-6.6663 Y6.6646
G3 X-6.6128 Y6.7095 I-0.4871 J0.6346
G1 X-6.428 Y6.8788
G3 X-6.3788 Y6.928 I-0.5405 J0.5898
G1 X-6.2095 Y7.1128
G3 X-6.1646 Y7.1663 I-0.5898 J0.5405
G1 X-6.012 Y7.3652
G3 X-5.9719 Y7.4224 I-0.6346 J0.4871
G1 X-5.8373 Y7.6337
G3 X-5.8024 Y7.6942 I-0.6747 J0.4298
G1 X-5.6867 Y7.9165
G3 X-5.6573 Y7.9796 I-0.7096 J0.3693
G1 X-5.5613 Y8.2111
G3 X-5.5374 Y8.2768 I-0.7391 J0.3063
G1 X-5.462 Y8.5158
G3 X-5.4439 Y8.5834 I-0.763 J0.2406
G1 X-5.3897 Y8.8282
G3 X-5.3777 Y8.8966 I-0.7811 J0.173
G1 X-5.3449 Y9.145
G3 X-5.3388 Y9.2147 I-0.7931 J0.1046
G1 X-5.3278 Y9.4679
G3 X-5.327 Y9.5028 I-0.7992 J0.0348
G1 Y13.373
G3 X-6.127 Y14.173 I-0.8 J0.0
G1 X-12.1725
G1 X-12.1995 Y14.1742
G1 X-12.2114 Y14.1757
G1 X-12.2232 Y14.1784
G1 X-12.2346 Y14.1819
G1 X-12.2459 Y14.1867
G1 X-12.2569 Y14.1924
G1 X-12.267 Y14.1988
G1 X-12.2765 Y14.2061
G1 X-12.2856 Y14.2144
G1 X-12.2939 Y14.2235
G1 X-12.3012 Y14.233
G1 X-12.3076 Y14.2431
G1 X-12.3133 Y14.2541
G1 X-12.3181 Y14.2654
G1 X-12.3216 Y14.2768
G1 X-12.3243 Y14.2886
G1 X-12.3258 Y14.3005
G1 X-12.327 Y14.3275
G1 Y63.6725
G1 X-12.3258 Y63.6995
G1 X-12.3243 Y63.7114
G1 X-12.3216 Y63.7232
G1 X-12.3181 Y63.7346
G1 X-12.3133 Y63.7459
G1 X-12.3076 Y63.7569
G1 X-12.3012 Y63.767
G1 X-12.2939 Y63.7765
G1 X-12.2856 Y63.7856
G1 X-12.2765 Y63.7939
G1 X-12.267 Y63.8012
G1 X-12.2569 Y63.8076
G1 X-12.2459 Y63.8133
G1 X-12.2346 Y63.8181
G1 X-12.2232 Y63.8216
G1 X-12.2114 Y63.8243
G1 X-12.1995 Y63.8258
G1 X-12.1725 Y63.827
G1 F100.0 Z-1.0
G1 F300.0 X-6.127
G3 X-5.327 Y64.627 I0.0 J0.8
G1 Y68.4972
G3 X-5.3278 Y68.5321 I-0.8 J0.0
G1 X-5.3388 Y68.7853
G3 X-5.3449 Y68.8549 I-0.7992 J-0.0348
G1 X-5.3776 Y69.1035
G3 X-5.3897 Y69.172 I-0.7931 J-0.1045
G1 X-5.4439 Y69.4166
G3 X-5.462 Y69.4842 I-0.7811 J-0.173
G1 X-5.5374 Y69.7232
G3 X-5.5613 Y69.7889 I-0.763 J-0.2406
G1 X-5.6573 Y70.0204
G3 X-5.6867 Y70.0835 I-0.7391 J-0.3063
G1 X-5.8023 Y70.3058
G3 X-5.8374 Y70.3665 I-0.7096 J-0.3693
G1 X-5.9722 Y70.5778
G3 X-6.0119 Y70.6346 I-0.6746 J-0.4301
G1 X-6.1645 Y70.8336
G3 X-6.2095 Y70.8872 I-0.6348 J-0.4869
G1 X-6.3788 Y71.0719
G3 X-6.4282 Y71.1213 I-0.5898 J-0.5405
G1 X-6.613 Y71.2906
G3 X-6.6662 Y71.3353 I-0.5404 J-0.5899
G1 X-6.865 Y71.4879
G3 X-6.9224 Y71.5281 I-0.4872 J-0.6345
G1 X-7.1337 Y71.6627
G3 X-7.1943 Y71.6977 I-0.4298 J-0.6747
G1 X-7.4167 Y71.8134
G3 X-7.4797 Y71.8427 I-0.3692 J-0.7097
G1 X-7.7112 Y71.9387
G3 X-7.7769 Y71.9626 I-0.3063 J-0.7391
G1 X-8.0159 Y72.038
G3 X-8.0835 Y72.0561 I-0.2406 J-0.763
G1 X-8.3281 Y72.1103
G3 X-8.3966 Y72.1224 I-0.173 J-0.7811
G1 X-8.6452 Y72.1551
G3 X-8.7148 Y72.1612 I-0.1045 J-0.7931
G1 X-8.968 Y72.1722
G3 X-9.0029 Y72.173 I-0.0348 J-0.7992
G1 X-58.9971
G3 X-59.032 Y72.1722 I0.0 J-0.8
G1 X-59.2852 Y72.1612
G3 X-59.3548 Y72.1551 I0.0348 J-0.7992
G1 X-59.6034 Y72.1224
G3 X-59.6719 Y72.1103 I0.1045 J-0.7931
G1 X-59.9165 Y72.0561
G3 X-59.9841 Y72.038 I0.173 J-0.7811
G1 X-60.2231 Y71.9626
G3 X-60.2888 Y71.9387 I0.2406 J-0.763
G1 X-60.5203 Y71.8427
G3 X-60.5833 Y71.8134 I0.3063 J-0.7391
G1 X-60.8057 Y71.6977
G3 X-60.8663 Y71.6627 I0.3692 J-0.7097
G1 X-61.0776 Y71.5281
G3 X-61.135 Y71.4879 I0.4298 J-0.6747
G1 X-61.3338 Y71.3353
G3 X-61.387 Y71.2906 I0.4872 J-0.6345
G1 X-61.5718 Y71.1213
G3 X-61.6212 Y71.0719 I0.5404 J-0.5899
G1 X-61.7905 Y70.8872
G3 X-61.8355 Y70.8336 I0.5898 J-0.5405
G1 X-61.9881 Y70.6346
G3 X-62.0278 Y70.5778 I0.6348 J-0.4869
G1 X-62.1626 Y70.3665
G3 X-62.1977 Y70.3058 I0.6746 J-0.4301
G1 X-62.3133 Y70.0835
G3 X-62.3427 Y70.0204 I0.7096 J-0.3693
G1 X-62.4387 Y69.7889
G3 X-62.4626 Y69.7232 I0.7391 J-0.3063
G1 X-62.538 Y69.4842
G3 X-62.5561 Y69.4166 I0.763 J-0.2406
G1 X-62.6103 Y69.172
G3 X-62.6224 Y69.1035 I0.7811 J-0.173
G1 X-62.6551 Y68.8549
G3 X-62.6612 Y68.7853 I0.7931 J-0.1045
G1 X-62.6722 Y68.5321
G3 X-62.673 Y68.4972 I0.7992 J-0.0348
G1 Y9.5028
G3 X-62.6722 Y9.4679 I0.8 J0.0
G1 X-62.6612 Y9.2147
G3 X-62.6551 Y9.145 I0.7992 J0.0348
G1 X-62.6223 Y8.8966
G3 X-62.6103 Y8.8282 I0.7931 J0.1046
G1 X-62.5561 Y8.5834
G3 X-62.538 Y8.5158 I0.7811 J0.173
G1 X-62.4626 Y8.2768
G3 X-62.4387 Y8.2111 I0.763 J0.2406
G1 X-62.3427 Y7.9796
G3 X-62.3133 Y7.9165 I0.7391 J0.3063
G1 X-62.1976 Y7.6942
G3 X-62.1627 Y7.6337 I0.7096 J0.3693
G1 X-62.0281 Y7.4224
G3 X-61.988 Y7.3652 I0.6747 J0.4298
G1 X-61.8354 Y7.1663
G3 X-61.7905 Y7.1128 I0.6346 J0.4871
G1 X-61.6212 Y6.928
G3 X-61.572 Y6.8788 I0.5898 J0.5405
G1 X-61.3872 Y6.7095
G3 X-61.3337 Y6.6646 I0.5405 J0.5898
G1 X-61.1348 Y6.512
G3 X-61.0776 Y6.4719 I0.4871 J0.6346
G1 X-60.8663 Y6.3373
G3 X-60.8058 Y6.3024 I0.4298 J0.6747
G1 X-60.5835 Y6.1867
G3 X-60.5204 Y6.1573 I0.3693 J0.7096
G1 X-60.2889 Y6.0613
G3 X-60.2232 Y6.0374 I0.3063 J0.7391
G1 X-59.9842 Y5.962
G3 X-59.9166 Y5.9439 I0.2406 J0.763
G1 X-59.6718 Y5.8897
G3 X-59.6034 Y5.8777 I0.173 J0.7811
G1 X-59.355 Y5.8449
G3 X-59.2853 Y5.8388 I0.1046 J0.7931
G1 X-59.0321 Y5.8278
G3 X-58.9972 Y5.827 I0.0348 J0.7992
G1 X-9.0028
G3 X-8.9679 Y5.8278 I0.0 J0.8
G1 X-8.7147 Y5.8388
G3 X-8.645 Y5.8449 I-0.0348 J0.7992
G1 X-8.3966 Y5.8777
G3 X-8.3282 Y5.8897 I-0.1046 J0.7931
G1 X-8.0834 Y5.9439
G3 X-8.0158 Y5.962 I-0.173 J0.7811
G1 X-7.7768 Y6.0374
G3 X-7.7111 Y6.0613 I-0.2406 J0.763
G1 X-7.4796 Y6.1573
G3 X-7.4165 Y6.1867 I-0.3063 J0.7391
G1 X-7.1942 Y6.3024
G3 X-7.1337 Y6.3373 I-0.3693 J0.7096
G1 X-6.9224 Y6.4719
G3 X-6.8652 Y6.512 I-0.4298 J0.6747
G1 X-6.6663 Y6.6646
G3 X-6.6128 Y6.7095 I-0.4871 J0.6346
G1 X-6.428 Y6.8788
G3 X-6.3788 Y6.928 I-0.5405 J0.5898
G1 X-6.2095 Y7.1128
G3 X-6.1646 Y7.1663 I-0.5898 J0.5405
G1 X-6.012 Y7.3652
G3 X-5.9719 Y7.4224 I-0.6346 J0.4871
G1 X-5.8373 Y7.6337
G3 X-5.8024 Y7.6942 I-0.6747 J0.4298
G1 X-5.6867 Y7.9165
G3 X-5.6573 Y7.9796 I-0.7096 J0.3693
G1 X-5.5613 Y8.2111
G3 X-5.5374 Y8.2768 I-0.7391 J0.3063
G1 X-5.462 Y8.5158
G3 X-5.4439 Y8.5834 I-0.763 J0.2406
G1 X-5.3897 Y8.8282
G3 X-5.3777 Y8.8966 I-0.7811 J0.173
G1 X-5.3449 Y9.145
G3 X-5.3388 Y9.2147 I-0.7931 J0.1046
G1 X-5.3278 Y9.4679
G3 X-5.327 Y9.5028 I-0.7992 J0.0348
G1 Y13.373
G3 X-6.127 Y14.173 I-0.8 J0.0
G1 X-12.1725
G1 X-12.1995 Y14.1742
G1 X-12.2114 Y14.1757
G1 X-12.2232 Y14.1784
G1 X-12.2346 Y14.1819
G1 X-12.2459 Y14.1867
G1 X-12.2569 Y14.1924
G1 X-12.267 Y14.1988
G1 X-12.2765 Y14.2061
G1 X-12.2856 Y14.2144
G1 X-12.2939 Y14.2235
G1 X-12.3012 Y14.233
G1 X-12.3076 Y14.2431
G1 X-12.3133 Y14.2541
G1 X-12.3181 Y14.2654
G1 X-12.3216 Y14.2768
G1 X-12.3243 Y14.2886
G1 X-12.3258 Y14.3005
G1 X-12.327 Y14.3275
G1 Y63.6725
G1 X-12.3258 Y63.6995
G1 X-12.3243 Y63.7114
G1 X-12.3216 Y63.7232
G1 X-12.3181 Y63.7346
G1 X-12.3133 Y63.7459
G1 X-12.3076 Y63.7569
G1 X-12.3012 Y63.767
G1 X-12.2939 Y63.7765
G1 X-12.2856 Y63.7856
G1 X-12.2765 Y63.7939
G1 X-12.267 Y63.8012
G1 X-12.2569 Y63.8076
G1 X-12.2459 Y63.8133
G1 X-12.2346 Y63.8181
G1 X-12.2232 Y63.8216
G1 X-12.2114 Y63.8243
G1 X-12.1995 Y63.8258
G1 X-12.1725 Y63.827
G1 F100.0 Z-1.2
G1 F300.0 X-6.127
G3 X-5.327 Y64.627 I0.0 J0.8
G1 Y68.4972
G3 X-5.3278 Y68.5321 I-0.8 J0.0
G1 X-5.3388 Y68.7853
G3 X-5.3449 Y68.8549 I-0.7992 J-0.0348
G1 X-5.3776 Y69.1035
G3 X-5.3897 Y69.172 I-0.7931 J-0.1045
G1 X-5.4439 Y69.4166
G3 X-5.462 Y69.4842 I-0.7811 J-0.173
G1 X-5.5374 Y69.7232
G3 X-5.5613 Y69.7889 I-0.763 J-0.2406
G1 X-5.6573 Y70.0204
G3 X-5.6867 Y70.0835 I-0.7391 J-0.3063
G1 X-5.8023 Y70.3058
G3 X-5.8374 Y70.3665 I-0.7096 J-0.3693
G1 X-5.9722 Y70.5778
G3 X-6.0119 Y70.6346 I-0.6746 J-0.4301
G1 X-6.1645 Y70.8336
G3 X-6.2095 Y70.8872 I-0.6348 J-0.4869
G1 X-6.3788 Y71.0719
G3 X-6.4282 Y71.1213 I-0.5898 J-0.5405
G1 X-6.613 Y71.2906
G3 X-6.6662 Y71.3353 I-0.5404 J-0.5899
G1 X-6.865 Y71.4879
G3 X-6.9224 Y71.5281 I-0.4872 J-0.6345
G1 X-7.1337 Y71.6627
G3 X-7.1943 Y71.6977 I-0.4298 J-0.6747
G1 X-7.4167 Y71.8134
G3 X-7.4797 Y71.8427 I-0.3692 J-0.7097
G1 X-7.7112 Y71.9387
G3 X-7.7769 Y71.9626 I-0.3063 J-0.7391
G1 X-8.0159 Y72.038
G3 X-8.0835 Y72.0561 I-0.2406 J-0.763
G1 X-8.3281 Y72.1103
G3 X-8.3966 Y72.1224 I-0.173 J-0.7811
G1 X-8.6452 Y72.1551
G3 X-8.7148 Y72.1612 I-0.1045 J-0.7931
G1 X-8.968 Y72.1722
G3 X-9.0029 Y72.173 I-0.0348 J-0.7992
G1 X-58.9971
G3 X-59.032 Y72.1722 I0.0 J-0.8
G1 X-59.2852 Y72.1612
G3 X-59.3548 Y72.1551 I0.0348 J-0.7992
G1 X-59.6034 Y72.1224
G3 X-59.6719 Y72.1103 I0.1045 J-0.7931
G1 X-59.9165 Y72.0561
G3 X-59.9841 Y72.038 I0.173 J-0.7811
G1 X-60.2231 Y71.9626
G3 X-60.2888 Y71.9387 I0.2406 J-0.763
G1 X-60.5203 Y71.8427
G3 X-60.5833 Y71.8134 I0.3063 J-0.7391
G1 X-60.8057 Y71.6977
G3 X-60.8663 Y71.6627 I0.3692 J-0.7097
G1 X-61.0776 Y71.5281
G3 X-61.135 Y71.4879 I0.4298 J-0.6747
G1 X-61.3338 Y71.3353
G3 X-61.387 Y71.2906 I0.4872 J-0.6345
G1 X-61.5718 Y71.1213
G3 X-61.6212 Y71.0719 I0.5404 J-0.5899
G1 X-61.7905 Y70.8872
G3 X-61.8355 Y70.8336 I0.5898 J-0.5405
G1 X-61.9881 Y70.6346
G3 X-62.0278 Y70.5778 I0.6348 J-0.4869
G1 X-62.1626 Y70.3665
G3 X-62.1977 Y70.3058 I0.6746 J-0.4301
G1 X-62.3133 Y70.0835
G3 X-62.3427 Y70.0204 I0.7096 J-0.3693
G1 X-62.4387 Y69.7889
G3 X-62.4626 Y69.7232 I0.7391 J-0.3063
G1 X-62.538 Y69.4842
G3 X-62.5561 Y69.4166 I0.763 J-0.2406
G1 X-62.6103 Y69.172
G3 X-62.6224 Y69.1035 I0.7811 J-0.173
G1 X-62.6551 Y68.8549
G3 X-62.6612 Y68.7853 I0.7931 J-0.1045
G1 X-62.6722 Y68.5321
G3 X-62.673 Y68.4972 I0.7992 J-0.0348
G1 Y9.5028
G3 X-62.6722 Y9.4679 I0.8 J0.0
G1 X-62.6612 Y9.2147
G3 X-62.6551 Y9.145 I0.7992 J0.0348
G1 X-62.6223 Y8.8966
G3 X-62.6103 Y8.8282 I0.7931 J0.1046
G1 X-62.5561 Y8.5834
G3 X-62.538 Y8.5158 I0.7811 J0.173
G1 X-62.4626 Y8.2768
G3 X-62.4387 Y8.2111 I0.763 J0.2406
G1 X-62.3427 Y7.9796
G3 X-62.3133 Y7.9165 I0.7391 J0.3063
G1 X-62.1976 Y7.6942
G3 X-62.1627 Y7.6337 I0.7096 J0.3693
G1 X-62.0281 Y7.4224
G3 X-61.988 Y7.3652 I0.6747 J0.4298
G1 X-61.8354 Y7.1663
G3 X-61.7905 Y7.1128 I0.6346 J0.4871
G1 X-61.6212 Y6.928
G3 X-61.572 Y6.8788 I0.5898 J0.5405
G1 X-61.3872 Y6.7095
G3 X-61.3337 Y6.6646 I0.5405 J0.5898
G1 X-61.1348 Y6.512
G3 X-61.0776 Y6.4719 I0.4871 J0.6346
G1 X-60.8663 Y6.3373
G3 X-60.8058 Y6.3024 I0.4298 J0.6747
G1 X-60.5835 Y6.1867
G3 X-60.5204 Y6.1573 I0.3693 J0.7096
G1 X-60.2889 Y6.0613
G3 X-60.2232 Y6.0374 I0.3063 J0.7391
G1 X-59.9842 Y5.962
G3 X-59.9166 Y5.9439 I0.2406 J0.763
G1 X-59.6718 Y5.8897
G3 X-59.6034 Y5.8777 I0.173 J0.7811
G1 X-59.355 Y5.8449
G3 X-59.2853 Y5.8388 I0.1046 J0.7931
G1 X-59.0321 Y5.8278
G3 X-58.9972 Y5.827 I0.0348 J0.7992
G1 X-9.0028
G3 X-8.9679 Y5.8278 I0.0 J0.8
G1 X-8.7147 Y5.8388
G3 X-8.645 Y5.8449 I-0.0348 J0.7992
G1 X-8.3966 Y5.8777
G3 X-8.3282 Y5.8897 I-0.1046 J0.7931
G1 X-8.0834 Y5.9439
G3 X-8.0158 Y5.962 I-0.173 J0.7811
G1 X-7.7768 Y6.0374
G3 X-7.7111 Y6.0613 I-0.2406 J0.763
G1 X-7.4796 Y6.1573
G3 X-7.4165 Y6.1867 I-0.3063 J0.7391
G1 X-7.1942 Y6.3024
G3 X-7.1337 Y6.3373 I-0.3693 J0.7096
G1 X-6.9224 Y6.4719
G3 X-6.8652 Y6.512 I-0.4298 J0.6747
G1 X-6.6663 Y6.6646
G3 X-6.6128 Y6.7095 I-0.4871 J0.6346
G1 X-6.428 Y6.8788
G3 X-6.3788 Y6.928 I-0.5405 J0.5898
G1 X-6.2095 Y7.1128
G3 X-6.1646 Y7.1663 I-0.5898 J0.5405
G1 X-6.012 Y7.3652
G3 X-5.9719 Y7.4224 I-0.6346 J0.4871
G1 X-5.8373 Y7.6337
G3 X-5.8024 Y7.6942 I-0.6747 J0.4298
G1 X-5.6867 Y7.9165
G3 X-5.6573 Y7.9796 I-0.7096 J0.3693
G1 X-5.5613 Y8.2111
G3 X-5.5374 Y8.2768 I-0.7391 J0.3063
G1 X-5.462 Y8.5158
G3 X-5.4439 Y8.5834 I-0.763 J0.2406
G1 X-5.3897 Y8.8282
G3 X-5.3777 Y8.8966 I-0.7811 J0.173
G1 X-5.3449 Y9.145
G3 X-5.3388 Y9.2147 I-0.7931 J0.1046
G1 X-5.3278 Y9.4679
G3 X-5.327 Y9.5028 I-0.7992 J0.0348
G1 Y13.373
G3 X-6.127 Y14.173 I-0.8 J0.0
G1 X-12.1725
G1 X-12.1995 Y14.1742
G1 X-12.2114 Y14.1757
G1 X-12.2232 Y14.1784
G1 X-12.2346 Y14.1819
G1 X-12.2459 Y14.1867
G1 X-12.2569 Y14.1924
G1 X-12.267 Y14.1988
G1 X-12.2765 Y14.2061
G1 X-12.2856 Y14.2144
G1 X-12.2939 Y14.2235
G1 X-12.3012 Y14.233
G1 X-12.3076 Y14.2431
G1 X-12.3133 Y14.2541
G1 X-12.3181 Y14.2654
G1 X-12.3216 Y14.2768
G1 X-12.3243 Y14.2886
G1 X-12.3258 Y14.3005
G1 X-12.327 Y14.3275
G1 Y63.6725
G1 X-12.3258 Y63.6995
G1 X-12.3243 Y63.7114
G1 X-12.3216 Y63.7232
G1 X-12.3181 Y63.7346
G1 X-12.3133 Y63.7459
G1 X-12.3076 Y63.7569
G1 X-12.3012 Y63.767
G1 X-12.2939 Y63.7765
G1 X-12.2856 Y63.7856
G1 X-12.2765 Y63.7939
G1 X-12.267 Y63.8012
G1 X-12.2569 Y63.8076
G1 X-12.2459 Y63.8133
G1 X-12.2346 Y63.8181
G1 X-12.2232 Y63.8216
G1 X-12.2114 Y63.8243
G1 X-12.1995 Y63.8258
G1 X-12.1725 Y63.827
G1 F100.0 Z-1.4
G1 F300.0 X-6.127
G3 X-5.327 Y64.627 I0.0 J0.8
G1 Y68.4972
G3 X-5.3278 Y68.5321 I-0.8 J0.0
G1 X-5.3388 Y68.7853
G3 X-5.3449 Y68.8549 I-0.7992 J-0.0348
G1 X-5.3776 Y69.1035
G3 X-5.3897 Y69.172 I-0.7931 J-0.1045
G1 X-5.4439 Y69.4166
G3 X-5.462 Y69.4842 I-0.7811 J-0.173
G1 X-5.5374 Y69.7232
G3 X-5.5613 Y69.7889 I-0.763 J-0.2406
G1 X-5.6573 Y70.0204
G3 X-5.6867 Y70.0835 I-0.7391 J-0.3063
G1 X-5.8023 Y70.3058
G3 X-5.8374 Y70.3665 I-0.7096 J-0.3693
G1 X-5.9722 Y70.5778
G3 X-6.0119 Y70.6346 I-0.6746 J-0.4301
G1 X-6.1645 Y70.8336
G3 X-6.2095 Y70.8872 I-0.6348 J-0.4869
G1 X-6.3788 Y71.0719
G3 X-6.4282 Y71.1213 I-0.5898 J-0.5405
G1 X-6.613 Y71.2906
G3 X-6.6662 Y71.3353 I-0.5404 J-0.5899
G1 X-6.865 Y71.4879
G3 X-6.9224 Y71.5281 I-0.4872 J-0.6345
G1 X-7.1337 Y71.6627
G3 X-7.1943 Y71.6977 I-0.4298 J-0.6747
G1 X-7.4167 Y71.8134
G3 X-7.4797 Y71.8427 I-0.3692 J-0.7097
G1 X-7.7112 Y71.9387
G3 X-7.7769 Y71.9626 I-0.3063 J-0.7391
G1 X-8.0159 Y72.038
G3 X-8.0835 Y72.0561 I-0.2406 J-0.763
G1 X-8.3281 Y72.1103
G3 X-8.3966 Y72.1224 I-0.173 J-0.7811
G1 X-8.6452 Y72.1551
G3 X-8.7148 Y72.1612 I-0.1045 J-0.7931
G1 X-8.968 Y72.1722
G3 X-9.0029 Y72.173 I-0.0348 J-0.7992
G1 X-58.9971
G3 X-59.032 Y72.1722 I0.0 J-0.8
G1 X-59.2852 Y72.1612
G3 X-59.3548 Y72.1551 I0.0348 J-0.7992
G1 X-59.6034 Y72.1224
G3 X-59.6719 Y72.1103 I0.1045 J-0.7931
G1 X-59.9165 Y72.0561
G3 X-59.9841 Y72.038 I0.173 J-0.7811
G1 X-60.2231 Y71.9626
G3 X-60.2888 Y71.9387 I0.2406 J-0.763
G1 X-60.5203 Y71.8427
G3 X-60.5833 Y71.8134 I0.3063 J-0.7391
G1 X-60.8057 Y71.6977
G3 X-60.8663 Y71.6627 I0.3692 J-0.7097
G1 X-61.0776 Y71.5281
G3 X-61.135 Y71.4879 I0.4298 J-0.6747
G1 X-61.3338 Y71.3353
G3 X-61.387 Y71.2906 I0.4872 J-0.6345
G1 X-61.5718 Y71.1213
G3 X-61.6212 Y71.0719 I0.5404 J-0.5899
G1 X-61.7905 Y70.8872
G3 X-61.8355 Y70.8336 I0.5898 J-0.5405
G1 X-61.9881 Y70.6346
G3 X-62.0278 Y70.5778 I0.6348 J-0.4869
G1 X-62.1626 Y70.3665
G3 X-62.1977 Y70.3058 I0.6746 J-0.4301
G1 X-62.3133 Y70.0835
G3 X-62.3427 Y70.0204 I0.7096 J-0.3693
G1 X-62.4387 Y69.7889
G3 X-62.4626 Y69.7232 I0.7391 J-0.3063
G1 X-62.538 Y69.4842
G3 X-62.5561 Y69.4166 I0.763 J-0.2406
G1 X-62.6103 Y69.172
G3 X-62.6224 Y69.1035 I0.7811 J-0.173
G1 X-62.6551 Y68.8549
G3 X-62.6612 Y68.7853 I0.7931 J-0.1045
G1 X-62.6722 Y68.5321
G3 X-62.673 Y68.4972 I0.7992 J-0.0348
G1 Y9.5028
G3 X-62.6722 Y9.4679 I0.8 J0.0
G1 X-62.6612 Y9.2147
G3 X-62.6551 Y9.145 I0.7992 J0.0348
G1 X-62.6223 Y8.8966
G3 X-62.6103 Y8.8282 I0.7931 J0.1046
G1 X-62.5561 Y8.5834
G3 X-62.538 Y8.5158 I0.7811 J0.173
G1 X-62.4626 Y8.2768
G3 X-62.4387 Y8.2111 I0.763 J0.2406
G1 X-62.3427 Y7.9796
G3 X-62.3133 Y7.9165 I0.7391 J0.3063
G1 X-62.1976 Y7.6942
G3 X-62.1627 Y7.6337 I0.7096 J0.3693
G1 X-62.0281 Y7.4224
G3 X-61.988 Y7.3652 I0.6747 J0.4298
G1 X-61.8354 Y7.1663
G3 X-61.7905 Y7.1128 I0.6346 J0.4871
G1 X-61.6212 Y6.928
G3 X-61.572 Y6.8788 I0.5898 J0.5405
G1 X-61.3872 Y6.7095
G3 X-61.3337 Y6.6646 I0.5405 J0.5898
G1 X-61.1348 Y6.512
G3 X-61.0776 Y6.4719 I0.4871 J0.6346
G1 X-60.8663 Y6.3373
G3 X-60.8058 Y6.3024 I0.4298 J0.6747
G1 X-60.5835 Y6.1867
G3 X-60.5204 Y6.1573 I0.3693 J0.7096
G1 X-60.2889 Y6.0613
G3 X-60.2232 Y6.0374 I0.3063 J0.7391
G1 X-59.9842 Y5.962
G3 X-59.9166 Y5.9439 I0.2406 J0.763
G1 X-59.6718 Y5.8897
G3 X-59.6034 Y5.8777 I0.173 J0.7811
G1 X-59.355 Y5.8449
G3 X-59.2853 Y5.8388 I0.1046 J0.7931
G1 X-59.0321 Y5.8278
G3 X-58.9972 Y5.827 I0.0348 J0.7992
G1 X-9.0028
G3 X-8.9679 Y5.8278 I0.0 J0.8
G1 X-8.7147 Y5.8388
G3 X-8.645 Y5.8449 I-0.0348 J0.7992
G1 X-8.3966 Y5.8777
G3 X-8.3282 Y5.8897 I-0.1046 J0.7931
G1 X-8.0834 Y5.9439
G3 X-8.0158 Y5.962 I-0.173 J0.7811
G1 X-7.7768 Y6.0374
G3 X-7.7111 Y6.0613 I-0.2406 J0.763
G1 X-7.4796 Y6.1573
G3 X-7.4165 Y6.1867 I-0.3063 J0.7391
G1 X-7.1942 Y6.3024
G3 X-7.1337 Y6.3373 I-0.3693 J0.7096
G1 X-6.9224 Y6.4719
G3 X-6.8652 Y6.512 I-0.4298 J0.6747
G1 X-6.6663 Y6.6646
G3 X-6.6128 Y6.7095 I-0.4871 J0.6346
G1 X-6.428 Y6.8788
G3 X-6.3788 Y6.928 I-0.5405 J0.5898
G1 X-6.2095 Y7.1128
G3 X-6.1646 Y7.1663 I-0.5898 J0.5405
G1 X-6.012 Y7.3652
G3 X-5.9719 Y7.4224 I-0.6346 J0.4871
G1 X-5.8373 Y7.6337
G3 X-5.8024 Y7.6942 I-0.6747 J0.4298
G1 X-5.6867 Y7.9165
G3 X-5.6573 Y7.9796 I-0.7096 J0.3693
G1 X-5.5613 Y8.2111
G3 X-5.5374 Y8.2768 I-0.7391 J0.3063
G1 X-5.462 Y8.5158
G3 X-5.4439 Y8.5834 I-0.763 J0.2406
G1 X-5.3897 Y8.8282
G3 X-5.3777 Y8.8966 I-0.7811 J0.173
G1 X-5.3449 Y9.145
G3 X-5.3388 Y9.2147 I-0.7931 J0.1046
G1 X-5.3278 Y9.4679
G3 X-5.327 Y9.5028 I-0.7992 J0.0348
G1 Y13.373
G3 X-6.127 Y14.173 I-0.8 J0.0
G1 X-12.1725
G1 X-12.1995 Y14.1742
G1 X-12.2114 Y14.1757
G1 X-12.2232 Y14.1784
G1 X-12.2346 Y14.1819
G1 X-12.2459 Y14.1867
G1 X-12.2569 Y14.1924
G1 X-12.267 Y14.1988
G1 X-12.2765 Y14.2061
G1 X-12.2856 Y14.2144
G1 X-12.2939 Y14.2235
G1 X-12.3012 Y14.233
G1 X-12.3076 Y14.2431
G1 X-12.3133 Y14.2541
G1 X-12.3181 Y14.2654
G1 X-12.3216 Y14.2768
G1 X-12.3243 Y14.2886
G1 X-12.3258 Y14.3005
G1 X-12.327 Y14.3275
G1 Y63.6725
G1 X-12.3258 Y63.6995
G1 X-12.3243 Y63.7114
G1 X-12.3216 Y63.7232
G1 X-12.3181 Y63.7346
G1 X-12.3133 Y63.7459
G1 X-12.3076 Y63.7569
G1 X-12.3012 Y63.767
G1 X-12.2939 Y63.7765
G1 X-12.2856 Y63.7856
G1 X-12.2765 Y63.7939
G1 X-12.267 Y63.8012
G1 X-12.2569 Y63.8076
G1 X-12.2459 Y63.8133
G1 X-12.2346 Y63.8181
G1 X-12.2232 Y63.8216
G1 X-12.2114 Y63.8243
G1 X-12.1995 Y63.8258
G1 X-12.1725 Y63.827
G1 F100.0 Z-1.6
G1 F300.0 X-6.127
G3 X-5.327 Y64.627 I0.0 J0.8
G1 Y68.4972
G3 X-5.3278 Y68.5321 I-0.8 J0.0
G1 X-5.3388 Y68.7853
G3 X-5.3449 Y68.8549 I-0.7992 J-0.0348
G1 X-5.3776 Y69.1035
G3 X-5.3897 Y69.172 I-0.7931 J-0.1045
G1 X-5.4439 Y69.4166
G3 X-5.462 Y69.4842 I-0.7811 J-0.173
G1 X-5.5374 Y69.7232
G3 X-5.5613 Y69.7889 I-0.763 J-0.2406
G1 X-5.6573 Y70.0204
G3 X-5.6867 Y70.0835 I-0.7391 J-0.3063
G1 X-5.8023 Y70.3058
G3 X-5.8374 Y70.3665 I-0.7096 J-0.3693
G1 X-5.9722 Y70.5778
G3 X-6.0119 Y70.6346 I-0.6746 J-0.4301
G1 X-6.1645 Y70.8336
G3 X-6.2095 Y70.8872 I-0.6348 J-0.4869
G1 X-6.3788 Y71.0719
G3 X-6.4282 Y71.1213 I-0.5898 J-0.5405
G1 X-6.613 Y71.2906
G3 X-6.6662 Y71.3353 I-0.5404 J-0.5899
G1 X-6.865 Y71.4879
G3 X-6.9224 Y71.5281 I-0.4872 J-0.6345
G1 X-7.1337 Y71.6627
G3 X-7.1943 Y71.6977 I-0.4298 J-0.6747
G1 X-7.4167 Y71.8134
G3 X-7.4797 Y71.8427 I-0.3692 J-0.7097
G1 X-7.7112 Y71.9387
G3 X-7.7769 Y71.9626 I-0.3063 J-0.7391
G1 X-8.0159 Y72.038
G3 X-8.0835 Y72.0561 I-0.2406 J-0.763
G1 X-8.3281 Y72.1103
G3 X-8.3966 Y72.1224 I-0.173 J-0.7811
G1 X-8.6452 Y72.1551
G3 X-8.7148 Y72.1612 I-0.1045 J-0.7931
G1 X-8.968 Y72.1722
G3 X-9.0029 Y72.173 I-0.0348 J-0.7992
G1 X-58.9971
G3 X-59.032 Y72.1722 I0.0 J-0.8
G1 X-59.2852 Y72.1612
G3 X-59.3548 Y72.1551 I0.0348 J-0.7992
G1 X-59.6034 Y72.1224
G3 X-59.6719 Y72.1103 I0.1045 J-0.7931
G1 X-59.9165 Y72.0561
G3 X-59.9841 Y72.038 I0.173 J-0.7811
G1 X-60.2231 Y71.9626
G3 X-60.2888 Y71.9387 I0.2406 J-0.763
G1 X-60.5203 Y71.8427
G3 X-60.5833 Y71.8134 I0.3063 J-0.7391
G1 X-60.8057 Y71.6977
G3 X-60.8663 Y71.6627 I0.3692 J-0.7097
G1 X-61.0776 Y71.5281
G3 X-61.135 Y71.4879 I0.4298 J-0.6747
G1 X-61.3338 Y71.3353
G3 X-61.387 Y71.2906 I0.4872 J-0.6345
G1 X-61.5718 Y71.1213
G3 X-61.6212 Y71.0719 I0.5404 J-0.5899
G1 X-61.7905 Y70.8872
G3 X-61.8355 Y70.8336 I0.5898 J-0.5405
G1 X-61.9881 Y70.6346
G3 X-62.0278 Y70.5778 I0.6348 J-0.4869
G1 X-62.1626 Y70.3665
G3 X-62.1977 Y70.3058 I0.6746 J-0.4301
G1 X-62.3133 Y70.0835
G3 X-62.3427 Y70.0204 I0.7096 J-0.3693
G1 X-62.4387 Y69.7889
G3 X-62.4626 Y69.7232 I0.7391 J-0.3063
G1 X-62.538 Y69.4842
G3 X-62.5561 Y69.4166 I0.763 J-0.2406
G1 X-62.6103 Y69.172
G3 X-62.6224 Y69.1035 I0.7811 J-0.173
G1 X-62.6551 Y68.8549
G3 X-62.6612 Y68.7853 I0.7931 J-0.1045
G1 X-62.6722 Y68.5321
G3 X-62.673 Y68.4972 I0.7992 J-0.0348
G1 Y9.5028
G3 X-62.6722 Y9.4679 I0.8 J0.0
G1 X-62.6612 Y9.2147
G3 X-62.6551 Y9.145 I0.7992 J0.0348
G1 X-62.6223 Y8.8966
G3 X-62.6103 Y8.8282 I0.7931 J0.1046
G1 X-62.5561 Y8.5834
G3 X-62.538 Y8.5158 I0.7811 J0.173
G1 X-62.4626 Y8.2768
G3 X-62.4387 Y8.2111 I0.763 J0.2406
G1 X-62.3427 Y7.9796
G3 X-62.3133 Y7.9165 I0.7391 J0.3063
G1 X-62.1976 Y7.6942
G3 X-62.1627 Y7.6337 I0.7096 J0.3693
G1 X-62.0281 Y7.4224
G3 X-61.988 Y7.3652 I0.6747 J0.4298
G1 X-61.8354 Y7.1663
G3 X-61.7905 Y7.1128 I0.6346 J0.4871
G1 X-61.6212 Y6.928
G3 X-61.572 Y6.8788 I0.5898 J0.5405
G1 X-61.3872 Y6.7095
G3 X-61.3337 Y6.6646 I0.5405 J0.5898
G1 X-61.1348 Y6.512
G3 X-61.0776 Y6.4719 I0.4871 J0.6346
G1 X-60.8663 Y6.3373
G3 X-60.8058 Y6.3024 I0.4298 J0.6747
G1 X-60.5835 Y6.1867
G3 X-60.5204 Y6.1573 I0.3693 J0.7096
G1 X-60.2889 Y6.0613
G3 X-60.2232 Y6.0374 I0.3063 J0.7391
G1 X-59.9842 Y5.962
G3 X-59.9166 Y5.9439 I0.2406 J0.763
G1 X-59.6718 Y5.8897
G3 X-59.6034 Y5.8777 I0.173 J0.7811
G1 X-59.355 Y5.8449
G3 X-59.2853 Y5.8388 I0.1046 J0.7931
G1 X-59.0321 Y5.8278
G3 X-58.9972 Y5.827 I0.0348 J0.7992
G1 X-9.0028
G3 X-8.9679 Y5.8278 I0.0 J0.8
G1 X-8.7147 Y5.8388
G3 X-8.645 Y5.8449 I-0.0348 J0.7992
G1 X-8.3966 Y5.8777
G3 X-8.3282 Y5.8897 I-0.1046 J0.7931
G1 X-8.0834 Y5.9439
G3 X-8.0158 Y5.962 I-0.173 J0.7811
G1 X-7.7768 Y6.0374
G3 X-7.7111 Y6.0613 I-0.2406 J0.763
G1 X-7.4796 Y6.1573
G3 X-7.4165 Y6.1867 I-0.3063 J0.7391
G1 X-7.1942 Y6.3024
G3 X-7.1337 Y6.3373 I-0.3693 J0.7096
G1 X-6.9224 Y6.4719
G3 X-6.8652 Y6.512 I-0.4298 J0.6747
G1 X-6.6663 Y6.6646
G3 X-6.6128 Y6.7095 I-0.4871 J0.6346
G1 X-6.428 Y6.8788
G3 X-6.3788 Y6.928 I-0.5405 J0.5898
G1 X-6.2095 Y7.1128
G3 X-6.1646 Y7.1663 I-0.5898 J0.5405
G1 X-6.012 Y7.3652
G3 X-5.9719 Y7.4224 I-0.6346 J0.4871
G1 X-5.8373 Y7.6337
G3 X-5.8024 Y7.6942 I-0.6747 J0.4298
G1 X-5.6867 Y7.9165
G3 X-5.6573 Y7.9796 I-0.7096 J0.3693
G1 X-5.5613 Y8.2111
G3 X-5.5374 Y8.2768 I-0.7391 J0.3063
G1 X-5.462 Y8.5158
G3 X-5.4439 Y8.5834 I-0.763 J0.2406
G1 X-5.3897 Y8.8282
G3 X-5.3777 Y8.8966 I-0.7811 J0.173
G1 X-5.3449 Y9.145
G3 X-5.3388 Y9.2147 I-0.7931 J0.1046
G1 X-5.3278 Y9.4679
G3 X-5.327 Y9.5028 I-0.7992 J0.0348
G1 Y13.373
G3 X-6.127 Y14.173 I-0.8 J0.0
G1 X-12.1725
G1 X-12.1995 Y14.1742
G1 X-12.2114 Y14.1757
G1 X-12.2232 Y14.1784
G1 X-12.2346 Y14.1819
G1 X-12.2459 Y14.1867
G1 X-12.2569 Y14.1924
G1 X-12.267 Y14.1988
G1 X-12.2765 Y14.2061
G1 X-12.2856 Y14.2144
G1 X-12.2939 Y14.2235
G1 X-12.3012 Y14.233
G1 X-12.3076 Y14.2431
G1 X-12.3133 Y14.2541
G1 X-12.3181 Y14.2654
G1 X-12.3216 Y14.2768
G1 X-12.3243 Y14.2886
G1 X-12.3258 Y14.3005
G1 X-12.327 Y14.3275
G1 Y63.6725
G1 X-12.3258 Y63.6995
G1 X-12.3243 Y63.7114
G1 X-12.3216 Y63.7232
G1 X-12.3181 Y63.7346
G1 X-12.3133 Y63.7459
G1 X-12.3076 Y63.7569
G1 X-12.3012 Y63.767
G1 X-12.2939 Y63.7765
G1 X-12.2856 Y63.7856
G1 X-12.2765 Y63.7939
G1 X-12.267 Y63.8012
G1 X-12.2569 Y63.8076
G1 X-12.2459 Y63.8133
G1 X-12.2346 Y63.8181
G1 X-12.2232 Y63.8216
G1 X-12.2114 Y63.8243
G1 X-12.1995 Y63.8258
G1 X-12.1725 Y63.827
G1 F100.0 Z-1.8
G1 F300.0 X-6.127
G3 X-5.327 Y64.627 I0.0 J0.8
G1 Y68.4972
G3 X-5.3278 Y68.5321 I-0.8 J0.0
G1 X-5.3388 Y68.7853
G3 X-5.3449 Y68.8549 I-0.7992 J-0.0348
G1 X-5.3776 Y69.1035
G3 X-5.3897 Y69.172 I-0.7931 J-0.1045
G1 X-5.4439 Y69.4166
G3 X-5.462 Y69.4842 I-0.7811 J-0.173
G1 X-5.5374 Y69.7232
G3 X-5.5613 Y69.7889 I-0.763 J-0.2406
G1 X-5.6573 Y70.0204
G3 X-5.6867 Y70.0835 I-0.7391 J-0.3063
G1 X-5.8023 Y70.3058
G3 X-5.8374 Y70.3665 I-0.7096 J-0.3693
G1 X-5.9722 Y70.5778
G3 X-6.0119 Y70.6346 I-0.6746 J-0.4301
G1 X-6.1645 Y70.8336
G3 X-6.2095 Y70.8872 I-0.6348 J-0.4869
G1 X-6.3788 Y71.0719
G3 X-6.4282 Y71.1213 I-0.5898 J-0.5405
G1 X-6.613 Y71.2906
G3 X-6.6662 Y71.3353 I-0.5404 J-0.5899
G1 X-6.865 Y71.4879
G3 X-6.9224 Y71.5281 I-0.4872 J-0.6345
G1 X-7.1337 Y71.6627
G3 X-7.1943 Y71.6977 I-0.4298 J-0.6747
G1 X-7.4167 Y71.8134
G3 X-7.4797 Y71.8427 I-0.3692 J-0.7097
G1 X-7.7112 Y71.9387
G3 X-7.7769 Y71.9626 I-0.3063 J-0.7391
G1 X-8.0159 Y72.038
G3 X-8.0835 Y72.0561 I-0.2406 J-0.763
G1 X-8.3281 Y72.1103
G3 X-8.3966 Y72.1224 I-0.173 J-0.7811
G1 X-8.6452 Y72.1551
G3 X-8.7148 Y72.1612 I-0.1045 J-0.7931
G1 X-8.968 Y72.1722
G3 X-9.0029 Y72.173 I-0.0348 J-0.7992
G1 X-58.9971
G3 X-59.032 Y72.1722 I0.0 J-0.8
G1 X-59.2852 Y72.1612
G3 X-59.3548 Y72.1551 I0.0348 J-0.7992
G1 X-59.6034 Y72.1224
G3 X-59.6719 Y72.1103 I0.1045 J-0.7931
G1 X-59.9165 Y72.0561
G3 X-59.9841 Y72.038 I0.173 J-0.7811
G1 X-60.2231 Y71.9626
G3 X-60.2888 Y71.9387 I0.2406 J-0.763
G1 X-60.5203 Y71.8427
G3 X-60.5833 Y71.8134 I0.3063 J-0.7391
G1 X-60.8057 Y71.6977
G3 X-60.8663 Y71.6627 I0.3692 J-0.7097
G1 X-61.0776 Y71.5281
G3 X-61.135 Y71.4879 I0.4298 J-0.6747
G1 X-61.3338 Y71.3353
G3 X-61.387 Y71.2906 I0.4872 J-0.6345
G1 X-61.5718 Y71.1213
G3 X-61.6212 Y71.0719 I0.5404 J-0.5899
G1 X-61.7905 Y70.8872
G3 X-61.8355 Y70.8336 I0.5898 J-0.5405
G1 X-61.9881 Y70.6346
G3 X-62.0278 Y70.5778 I0.6348 J-0.4869
G1 X-62.1626 Y70.3665
G3 X-62.1977 Y70.3058 I0.6746 J-0.4301
G1 X-62.3133 Y70.0835
G3 X-62.3427 Y70.0204 I0.7096 J-0.3693
G1 X-62.4387 Y69.7889
G3 X-62.4626 Y69.7232 I0.7391 J-0.3063
G1 X-62.538 Y69.4842
G3 X-62.5561 Y69.4166 I0.763 J-0.2406
G1 X-62.6103 Y69.172
G3 X-62.6224 Y69.1035 I0.7811 J-0.173
G1 X-62.6551 Y68.8549
G3 X-62.6612 Y68.7853 I0.7931 J-0.1045
G1 X-62.6722 Y68.5321
G3 X-62.673 Y68.4972 I0.7992 J-0.0348
G1 Y9.5028
G3 X-62.6722 Y9.4679 I0.8 J0.0
G1 X-62.6612 Y9.2147
G3 X-62.6551 Y9.145 I0.7992 J0.0348
G1 X-62.6223 Y8.8966
G3 X-62.6103 Y8.8282 I0.7931 J0.1046
G1 X-62.5561 Y8.5834
G3 X-62.538 Y8.5158 I0.7811 J0.173
G1 X-62.4626 Y8.2768
G3 X-62.4387 Y8.2111 I0.763 J0.2406
G1 X-62.3427 Y7.9796
G3 X-62.3133 Y7.9165 I0.7391 J0.3063
G1 X-62.1976 Y7.6942
G3 X-62.1627 Y7.6337 I0.7096 J0.3693
G1 X-62.0281 Y7.4224
G3 X-61.988 Y7.3652 I0.6747 J0.4298
G1 X-61.8354 Y7.1663
G3 X-61.7905 Y7.1128 I0.6346 J0.4871
G1 X-61.6212 Y6.928
G3 X-61.572 Y6.8788 I0.5898 J0.5405
G1 X-61.3872 Y6.7095
G3 X-61.3337 Y6.6646 I0.5405 J0.5898
G1 X-61.1348 Y6.512
G3 X-61.0776 Y6.4719 I0.4871 J0.6346
G1 X-60.8663 Y6.3373
G3 X-60.8058 Y6.3024 I0.4298 J0.6747
G1 X-60.5835 Y6.1867
G3 X-60.5204 Y6.1573 I0.3693 J0.7096
G1 X-60.2889 Y6.0613
G3 X-60.2232 Y6.0374 I0.3063 J0.7391
G1 X-59.9842 Y5.962
G3 X-59.9166 Y5.9439 I0.2406 J0.763
G1 X-59.6718 Y5.8897
G3 X-59.6034 Y5.8777 I0.173 J0.7811
G1 X-59.355 Y5.8449
G3 X-59.2853 Y5.8388 I0.1046 J0.7931
G1 X-59.0321 Y5.8278
G3 X-58.9972 Y5.827 I0.0348 J0.7992
G1 X-9.0028
G3 X-8.9679 Y5.8278 I0.0 J0.8
G1 X-8.7147 Y5.8388
G3 X-8.645 Y5.8449 I-0.0348 J0.7992
G1 X-8.3966 Y5.8777
G3 X-8.3282 Y5.8897 I-0.1046 J0.7931
G1 X-8.0834 Y5.9439
G3 X-8.0158 Y5.962 I-0.173 J0.7811
G1 X-7.7768 Y6.0374
G3 X-7.7111 Y6.0613 I-0.2406 J0.763
G1 X-7.4796 Y6.1573
G3 X-7.4165 Y6.1867 I-0.3063 J0.7391
G1 X-7.1942 Y6.3024
G3 X-7.1337 Y6.3373 I-0.3693 J0.7096
G1 X-6.9224 Y6.4719
G3 X-6.8652 Y6.512 I-0.4298 J0.6747
G1 X-6.6663 Y6.6646
G3 X-6.6128 Y6.7095 I-0.4871 J0.6346
G1 X-6.428 Y6.8788
G3 X-6.3788 Y6.928 I-0.5405 J0.5898
G1 X-6.2095 Y7.1128
G3 X-6.1646 Y7.1663 I-0.5898 J0.5405
G1 X-6.012 Y7.3652
G3 X-5.9719 Y7.4224 I-0.6346 J0.4871
G1 X-5.8373 Y7.6337
G3 X-5.8024 Y7.6942 I-0.6747 J0.4298
G1 X-5.6867 Y7.9165
G3 X-5.6573 Y7.9796 I-0.7096 J0.3693
G1 X-5.5613 Y8.2111
G3 X-5.5374 Y8.2768 I-0.7391 J0.3063
G1 X-5.462 Y8.5158
G3 X-5.4439 Y8.5834 I-0.763 J0.2406
G1 X-5.3897 Y8.8282
G3 X-5.3777 Y8.8966 I-0.7811 J0.173
G1 X-5.3449 Y9.145
G3 X-5.3388 Y9.2147 I-0.7931 J0.1046
G1 X-5.3278 Y9.4679
G3 X-5.327 Y9.5028 I-0.7992 J0.0348
G1 Y13.373
G3 X-6.127 Y14.173 I-0.8 J0.0
G1 X-12.1725
G1 X-12.1995 Y14.1742
G1 X-12.2114 Y14.1757
G1 X-12.2232 Y14.1784
G1 X-12.2346 Y14.1819
G1 X-12.2459 Y14.1867
G1 X-12.2569 Y14.1924
G1 X-12.267 Y14.1988
G1 X-12.2765 Y14.2061
G1 X-12.2856 Y14.2144
G1 X-12.2939 Y14.2235
G1 X-12.3012 Y14.233
G1 X-12.3076 Y14.2431
G1 X-12.3133 Y14.2541
G1 X-12.3181 Y14.2654
G1 X-12.3216 Y14.2768
G1 X-12.3243 Y14.2886
G1 X-12.3258 Y14.3005
G1 X-12.327 Y14.3275
G1 Y63.6725
G1 X-12.3258 Y63.6995
G1 X-12.3243 Y63.7114
G1 X-12.3216 Y63.7232
G1 X-12.3181 Y63.7346
G1 X-12.3133 Y63.7459
G1 X-12.3076 Y63.7569
G1 X-12.3012 Y63.767
G1 X-12.2939 Y63.7765
G1 X-12.2856 Y63.7856
G1 X-12.2765 Y63.7939
G1 X-12.267 Y63.8012
G1 X-12.2569 Y63.8076
G1 X-12.2459 Y63.8133
G1 X-12.2346 Y63.8181
G1 X-12.2232 Y63.8216
G1 X-12.2114 Y63.8243
G1 X-12.1995 Y63.8258
G1 X-12.1725 Y63.827
G1 F100.0 Z-2.0
G1 F300.0 X-6.127
G3 X-5.327 Y64.627 I0.0 J0.8
G1 Y68.4972
G3 X-5.3278 Y68.5321 I-0.8 J0.0
G1 X-5.3388 Y68.7853
G3 X-5.3449 Y68.8549 I-0.7992 J-0.0348
G1 X-5.3776 Y69.1035
G3 X-5.3897 Y69.172 I-0.7931 J-0.1045
G1 X-5.4439 Y69.4166
G3 X-5.462 Y69.4842 I-0.7811 J-0.173
G1 X-5.5374 Y69.7232
G3 X-5.5613 Y69.7889 I-0.763 J-0.2406
G1 X-5.6573 Y70.0204
G3 X-5.6867 Y70.0835 I-0.7391 J-0.3063
G1 X-5.8023 Y70.3058
G3 X-5.8374 Y70.3665 I-0.7096 J-0.3693
G1 X-5.9722 Y70.5778
G3 X-6.0119 Y70.6346 I-0.6746 J-0.4301
G1 X-6.1645 Y70.8336
G3 X-6.2095 Y70.8872 I-0.6348 J-0.4869
G1 X-6.3788 Y71.0719
G3 X-6.4282 Y71.1213 I-0.5898 J-0.5405
G1 X-6.613 Y71.2906
G3 X-6.6662 Y71.3353 I-0.5404 J-0.5899
G1 X-6.865 Y71.4879
G3 X-6.9224 Y71.5281 I-0.4872 J-0.6345
G1 X-7.1337 Y71.6627
G3 X-7.1943 Y71.6977 I-0.4298 J-0.6747
G1 X-7.4167 Y71.8134
G3 X-7.4797 Y71.8427 I-0.3692 J-0.7097
G1 X-7.7112 Y71.9387
G3 X-7.7769 Y71.9626 I-0.3063 J-0.7391
G1 X-8.0159 Y72.038
G3 X-8.0835 Y72.0561 I-0.2406 J-0.763
G1 X-8.3281 Y72.1103
G3 X-8.3966 Y72.1224 I-0.173 J-0.7811
G1 X-8.6452 Y72.1551
G3 X-8.7148 Y72.1612 I-0.1045 J-0.7931
G1 X-8.968 Y72.1722
G3 X-9.0029 Y72.173 I-0.0348 J-0.7992
G1 X-58.9971
G3 X-59.032 Y72.1722 I0.0 J-0.8
G1 X-59.2852 Y72.1612
G3 X-59.3548 Y72.1551 I0.0348 J-0.7992
G1 X-59.6034 Y72.1224
G3 X-59.6719 Y72.1103 I0.1045 J-0.7931
G1 X-59.9165 Y72.0561
G3 X-59.9841 Y72.038 I0.173 J-0.7811
G1 X-60.2231 Y71.9626
G3 X-60.2888 Y71.9387 I0.2406 J-0.763
G1 X-60.5203 Y71.8427
G3 X-60.5833 Y71.8134 I0.3063 J-0.7391
G1 X-60.8057 Y71.6977
G3 X-60.8663 Y71.6627 I0.3692 J-0.7097
G1 X-61.0776 Y71.5281
G3 X-61.135 Y71.4879 I0.4298 J-0.6747
G1 X-61.3338 Y71.3353
G3 X-61.387 Y71.2906 I0.4872 J-0.6345
G1 X-61.5718 Y71.1213
G3 X-61.6212 Y71.0719 I0.5404 J-0.5899
G1 X-61.7905 Y70.8872
G3 X-61.8355 Y70.8336 I0.5898 J-0.5405
G1 X-61.9881 Y70.6346
G3 X-62.0278 Y70.5778 I0.6348 J-0.4869
G1 X-62.1626 Y70.3665
G3 X-62.1977 Y70.3058 I0.6746 J-0.4301
G1 X-62.3133 Y70.0835
G3 X-62.3427 Y70.0204 I0.7096 J-0.3693
G1 X-62.4387 Y69.7889
G3 X-62.4626 Y69.7232 I0.7391 J-0.3063
G1 X-62.538 Y69.4842
G3 X-62.5561 Y69.4166 I0.763 J-0.2406
G1 X-62.6103 Y69.172
G3 X-62.6224 Y69.1035 I0.7811 J-0.173
G1 X-62.6551 Y68.8549
G3 X-62.6612 Y68.7853 I0.7931 J-0.1045
G1 X-62.6722 Y68.5321
G3 X-62.673 Y68.4972 I0.7992 J-0.0348
G1 Y9.5028
G3 X-62.6722 Y9.4679 I0.8 J0.0
G1 X-62.6612 Y9.2147
G3 X-62.6551 Y9.145 I0.7992 J0.0348
G1 X-62.6223 Y8.8966
G3 X-62.6103 Y8.8282 I0.7931 J0.1046
G1 X-62.5561 Y8.5834
G3 X-62.538 Y8.5158 I0.7811 J0.173
G1 X-62.4626 Y8.2768
G3 X-62.4387 Y8.2111 I0.763 J0.2406
G1 X-62.3427 Y7.9796
G3 X-62.3133 Y7.9165 I0.7391 J0.3063
G1 X-62.1976 Y7.6942
G3 X-62.1627 Y7.6337 I0.7096 J0.3693
G1 X-62.0281 Y7.4224
G3 X-61.988 Y7.3652 I0.6747 J0.4298
G1 X-61.8354 Y7.1663
G3 X-61.7905 Y7.1128 I0.6346 J0.4871
G1 X-61.6212 Y6.928
G3 X-61.572 Y6.8788 I0.5898 J0.5405
G1 X-61.3872 Y6.7095
G3 X-61.3337 Y6.6646 I0.5405 J0.5898
G1 X-61.1348 Y6.512
G3 X-61.0776 Y6.4719 I0.4871 J0.6346
G1 X-60.8663 Y6.3373
G3 X-60.8058 Y6.3024 I0.4298 J0.6747
G1 X-60.5835 Y6.1867
G3 X-60.5204 Y6.1573 I0.3693 J0.7096
G1 X-60.2889 Y6.0613
G3 X-60.2232 Y6.0374 I0.3063 J0.7391
G1 X-59.9842 Y5.962
G3 X-59.9166 Y5.9439 I0.2406 J0.763
G1 X-59.6718 Y5.8897
G3 X-59.6034 Y5.8777 I0.173 J0.7811
G1 X-59.355 Y5.8449
G3 X-59.2853 Y5.8388 I0.1046 J0.7931
G1 X-59.0321 Y5.8278
G3 X-58.9972 Y5.827 I0.0348 J0.7992
G1 X-9.0028
G3 X-8.9679 Y5.8278 I0.0 J0.8
G1 X-8.7147 Y5.8388
G3 X-8.645 Y5.8449 I-0.0348 J0.7992
G1 X-8.3966 Y5.8777
G3 X-8.3282 Y5.8897 I-0.1046 J0.7931
G1 X-8.0834 Y5.9439
G3 X-8.0158 Y5.962 I-0.173 J0.7811
G1 X-7.7768 Y6.0374
G3 X-7.7111 Y6.0613 I-0.2406 J0.763
G1 X-7.4796 Y6.1573
G3 X-7.4165 Y6.1867 I-0.3063 J0.7391
G1 X-7.1942 Y6.3024
G3 X-7.1337 Y6.3373 I-0.3693 J0.7096
G1 X-6.9224 Y6.4719
G3 X-6.8652 Y6.512 I-0.4298 J0.6747
G1 X-6.6663 Y6.6646
G3 X-6.6128 Y6.7095 I-0.4871 J0.6346
G1 X-6.428 Y6.8788
G3 X-6.3788 Y6.928 I-0.5405 J0.5898
G1 X-6.2095 Y7.1128
G3 X-6.1646 Y7.1663 I-0.5898 J0.5405
G1 X-6.012 Y7.3652
G3 X-5.9719 Y7.4224 I-0.6346 J0.4871
G1 X-5.8373 Y7.6337
G3 X-5.8024 Y7.6942 I-0.6747 J0.4298
G1 X-5.6867 Y7.9165
G3 X-5.6573 Y7.9796 I-0.7096 J0.3693
G1 X-5.5613 Y8.2111
G3 X-5.5374 Y8.2768 I-0.7391 J0.3063
G1 X-5.462 Y8.5158
G3 X-5.4439 Y8.5834 I-0.763 J0.2406
G1 X-5.3897 Y8.8282
G3 X-5.3777 Y8.8966 I-0.7811 J0.173
G1 X-5.3449 Y9.145
G3 X-5.3388 Y9.2147 I-0.7931 J0.1046
G1 X-5.3278 Y9.4679
G3 X-5.327 Y9.5028 I-0.7992 J0.0348
G1 Y13.373
G3 X-6.127 Y14.173 I-0.8 J0.0
G1 X-12.1725
G1 X-12.1995 Y14.1742
G1 X-12.2114 Y14.1757
G1 X-12.2232 Y14.1784
G1 X-12.2346 Y14.1819
G1 X-12.2459 Y14.1867
G1 X-12.2569 Y14.1924
G1 X-12.267 Y14.1988
G1 X-12.2765 Y14.2061
G1 X-12.2856 Y14.2144
G1 X-12.2939 Y14.2235
G1 X-12.3012 Y14.233
G1 X-12.3076 Y14.2431
G1 X-12.3133 Y14.2541
G1 X-12.3181 Y14.2654
G1 X-12.3216 Y14.2768
G1 X-12.3243 Y14.2886
G1 X-12.3258 Y14.3005
G1 X-12.327 Y14.3275
G1 Y63.6725
G1 X-12.3258 Y63.6995
G1 X-12.3243 Y63.7114
G1 X-12.3216 Y63.7232
G1 X-12.3181 Y63.7346
G1 X-12.3133 Y63.7459
G1 X-12.3076 Y63.7569
G1 X-12.3012 Y63.767
G1 X-12.2939 Y63.7765
G1 X-12.2856 Y63.7856
G1 X-12.2765 Y63.7939
G1 X-12.267 Y63.8012
G1 X-12.2569 Y63.8076
G1 X-12.2459 Y63.8133
G1 X-12.2346 Y63.8181
G1 X-12.2232 Y63.8216
G1 X-12.2114 Y63.8243
G1 X-12.1995 Y63.8258
G1 X-12.1725 Y63.827
G0 Z2.0
M5
M30
