( Made using CamBam - http://www.cambam.co.uk )
( pcb_imu 4/4/2022 10:51:14 AM )
( T0 : 1.6 )
G21 G90 G40
G0 Z2.0
( T0 : 1.6 )
T0 M6
( 4_drill_32 )
G17
M3 S1000
G0 X-9.1152 Y9.4627
G1 F100.0 Z-0.2
G1 F300.0 X-9.1508 Y9.4389
G1 X-9.1886 Y9.4171
G1 X-9.2272 Y9.3981
G1 X-9.2673 Y9.3815
G1 X-9.3085 Y9.3675
G1 X-9.3495 Y9.3565
G1 X-9.3922 Y9.348
G1 X-9.4354 Y9.3423
G1 X-9.4784 Y9.3395
G1 X-9.5216
G1 X-9.5646 Y9.3423
G1 X-9.6078 Y9.348
G1 X-9.6505 Y9.3565
G1 X-9.6915 Y9.3675
G1 X-9.7327 Y9.3815
G1 X-9.7728 Y9.3981
G1 X-9.8114 Y9.4171
G1 X-9.8492 Y9.4389
G1 X-9.8848 Y9.4627
G1 X-9.9192 Y9.4892
G1 X-9.952 Y9.5178
G1 X-9.9822 Y9.548
G1 X-10.0108 Y9.5808
G1 X-10.0373 Y9.6152
G1 X-10.0611 Y9.6508
G1 X-10.0829 Y9.6886
G1 X-10.1019 Y9.7272
G1 X-10.1185 Y9.7673
G1 X-10.1325 Y9.8085
G1 X-10.1435 Y9.8495
G1 X-10.152 Y9.8922
G1 X-10.1577 Y9.9354
G1 X-10.1605 Y9.9784
G1 Y10.0216
G1 X-10.1577 Y10.0646
G1 X-10.152 Y10.1078
G1 X-10.1435 Y10.1505
G1 X-10.1325 Y10.1915
G1 X-10.1185 Y10.2327
G1 X-10.1019 Y10.2728
G1 X-10.0829 Y10.3114
G1 X-10.0611 Y10.3492
G1 X-10.0373 Y10.3848
G1 X-10.0108 Y10.4192
G1 X-9.9822 Y10.452
G1 X-9.952 Y10.4822
G1 X-9.9192 Y10.5108
G1 X-9.8848 Y10.5373
G1 X-9.8492 Y10.5611
G1 X-9.8114 Y10.5829
G1 X-9.7728 Y10.6019
G1 X-9.7327 Y10.6185
G1 X-9.6915 Y10.6325
G1 X-9.6505 Y10.6435
G1 X-9.6078 Y10.652
G1 X-9.5646 Y10.6577
G1 X-9.5216 Y10.6605
G1 X-9.4784
G1 X-9.4354 Y10.6577
G1 X-9.3922 Y10.652
G1 X-9.3495 Y10.6435
G1 X-9.3085 Y10.6325
G1 X-9.2673 Y10.6185
G1 X-9.2272 Y10.6019
G1 X-9.1886 Y10.5829
G1 X-9.1508 Y10.5611
G1 X-9.1152 Y10.5373
G1 X-9.0808 Y10.5108
G1 X-9.048 Y10.4822
G1 X-9.0178 Y10.452
G1 X-8.9892 Y10.4192
G1 X-8.9627 Y10.3848
G1 X-8.9389 Y10.3492
G1 X-8.9171 Y10.3114
G1 X-8.8981 Y10.2728
G1 X-8.8815 Y10.2327
G1 X-8.8675 Y10.1915
G1 X-8.8565 Y10.1505
G1 X-8.848 Y10.1078
G1 X-8.8423 Y10.0646
G1 X-8.8395 Y10.0216
G1 Y9.9784
G1 X-8.8423 Y9.9354
G1 X-8.848 Y9.8922
G1 X-8.8565 Y9.8495
G1 X-8.8675 Y9.8085
G1 X-8.8815 Y9.7673
G1 X-8.8981 Y9.7272
G1 X-8.9171 Y9.6886
G1 X-8.9389 Y9.6508
G1 X-8.9627 Y9.6152
G1 X-8.9892 Y9.5808
G1 X-9.0178 Y9.548
G1 X-9.048 Y9.5178
G1 X-9.0808 Y9.4892
G1 X-9.1152 Y9.4627
G1 F100.0 Z-0.4
G1 F300.0 X-9.1508 Y9.4389
G1 X-9.1886 Y9.4171
G1 X-9.2272 Y9.3981
G1 X-9.2673 Y9.3815
G1 X-9.3085 Y9.3675
G1 X-9.3495 Y9.3565
G1 X-9.3922 Y9.348
G1 X-9.4354 Y9.3423
G1 X-9.4784 Y9.3395
G1 X-9.5216
G1 X-9.5646 Y9.3423
G1 X-9.6078 Y9.348
G1 X-9.6505 Y9.3565
G1 X-9.6915 Y9.3675
G1 X-9.7327 Y9.3815
G1 X-9.7728 Y9.3981
G1 X-9.8114 Y9.4171
G1 X-9.8492 Y9.4389
G1 X-9.8848 Y9.4627
G1 X-9.9192 Y9.4892
G1 X-9.952 Y9.5178
G1 X-9.9822 Y9.548
G1 X-10.0108 Y9.5808
G1 X-10.0373 Y9.6152
G1 X-10.0611 Y9.6508
G1 X-10.0829 Y9.6886
G1 X-10.1019 Y9.7272
G1 X-10.1185 Y9.7673
G1 X-10.1325 Y9.8085
G1 X-10.1435 Y9.8495
G1 X-10.152 Y9.8922
G1 X-10.1577 Y9.9354
G1 X-10.1605 Y9.9784
G1 Y10.0216
G1 X-10.1577 Y10.0646
G1 X-10.152 Y10.1078
G1 X-10.1435 Y10.1505
G1 X-10.1325 Y10.1915
G1 X-10.1185 Y10.2327
G1 X-10.1019 Y10.2728
G1 X-10.0829 Y10.3114
G1 X-10.0611 Y10.3492
G1 X-10.0373 Y10.3848
G1 X-10.0108 Y10.4192
G1 X-9.9822 Y10.452
G1 X-9.952 Y10.4822
G1 X-9.9192 Y10.5108
G1 X-9.8848 Y10.5373
G1 X-9.8492 Y10.5611
G1 X-9.8114 Y10.5829
G1 X-9.7728 Y10.6019
G1 X-9.7327 Y10.6185
G1 X-9.6915 Y10.6325
G1 X-9.6505 Y10.6435
G1 X-9.6078 Y10.652
G1 X-9.5646 Y10.6577
G1 X-9.5216 Y10.6605
G1 X-9.4784
G1 X-9.4354 Y10.6577
G1 X-9.3922 Y10.652
G1 X-9.3495 Y10.6435
G1 X-9.3085 Y10.6325
G1 X-9.2673 Y10.6185
G1 X-9.2272 Y10.6019
G1 X-9.1886 Y10.5829
G1 X-9.1508 Y10.5611
G1 X-9.1152 Y10.5373
G1 X-9.0808 Y10.5108
G1 X-9.048 Y10.4822
G1 X-9.0178 Y10.452
G1 X-8.9892 Y10.4192
G1 X-8.9627 Y10.3848
G1 X-8.9389 Y10.3492
G1 X-8.9171 Y10.3114
G1 X-8.8981 Y10.2728
G1 X-8.8815 Y10.2327
G1 X-8.8675 Y10.1915
G1 X-8.8565 Y10.1505
G1 X-8.848 Y10.1078
G1 X-8.8423 Y10.0646
G1 X-8.8395 Y10.0216
G1 Y9.9784
G1 X-8.8423 Y9.9354
G1 X-8.848 Y9.8922
G1 X-8.8565 Y9.8495
G1 X-8.8675 Y9.8085
G1 X-8.8815 Y9.7673
G1 X-8.8981 Y9.7272
G1 X-8.9171 Y9.6886
G1 X-8.9389 Y9.6508
G1 X-8.9627 Y9.6152
G1 X-8.9892 Y9.5808
G1 X-9.0178 Y9.548
G1 X-9.048 Y9.5178
G1 X-9.0808 Y9.4892
G1 X-9.1152 Y9.4627
G1 F100.0 Z-0.6
G1 F300.0 X-9.1508 Y9.4389
G1 X-9.1886 Y9.4171
G1 X-9.2272 Y9.3981
G1 X-9.2673 Y9.3815
G1 X-9.3085 Y9.3675
G1 X-9.3495 Y9.3565
G1 X-9.3922 Y9.348
G1 X-9.4354 Y9.3423
G1 X-9.4784 Y9.3395
G1 X-9.5216
G1 X-9.5646 Y9.3423
G1 X-9.6078 Y9.348
G1 X-9.6505 Y9.3565
G1 X-9.6915 Y9.3675
G1 X-9.7327 Y9.3815
G1 X-9.7728 Y9.3981
G1 X-9.8114 Y9.4171
G1 X-9.8492 Y9.4389
G1 X-9.8848 Y9.4627
G1 X-9.9192 Y9.4892
G1 X-9.952 Y9.5178
G1 X-9.9822 Y9.548
G1 X-10.0108 Y9.5808
G1 X-10.0373 Y9.6152
G1 X-10.0611 Y9.6508
G1 X-10.0829 Y9.6886
G1 X-10.1019 Y9.7272
G1 X-10.1185 Y9.7673
G1 X-10.1325 Y9.8085
G1 X-10.1435 Y9.8495
G1 X-10.152 Y9.8922
G1 X-10.1577 Y9.9354
G1 X-10.1605 Y9.9784
G1 Y10.0216
G1 X-10.1577 Y10.0646
G1 X-10.152 Y10.1078
G1 X-10.1435 Y10.1505
G1 X-10.1325 Y10.1915
G1 X-10.1185 Y10.2327
G1 X-10.1019 Y10.2728
G1 X-10.0829 Y10.3114
G1 X-10.0611 Y10.3492
G1 X-10.0373 Y10.3848
G1 X-10.0108 Y10.4192
G1 X-9.9822 Y10.452
G1 X-9.952 Y10.4822
G1 X-9.9192 Y10.5108
G1 X-9.8848 Y10.5373
G1 X-9.8492 Y10.5611
G1 X-9.8114 Y10.5829
G1 X-9.7728 Y10.6019
G1 X-9.7327 Y10.6185
G1 X-9.6915 Y10.6325
G1 X-9.6505 Y10.6435
G1 X-9.6078 Y10.652
G1 X-9.5646 Y10.6577
G1 X-9.5216 Y10.6605
G1 X-9.4784
G1 X-9.4354 Y10.6577
G1 X-9.3922 Y10.652
G1 X-9.3495 Y10.6435
G1 X-9.3085 Y10.6325
G1 X-9.2673 Y10.6185
G1 X-9.2272 Y10.6019
G1 X-9.1886 Y10.5829
G1 X-9.1508 Y10.5611
G1 X-9.1152 Y10.5373
G1 X-9.0808 Y10.5108
G1 X-9.048 Y10.4822
G1 X-9.0178 Y10.452
G1 X-8.9892 Y10.4192
G1 X-8.9627 Y10.3848
G1 X-8.9389 Y10.3492
G1 X-8.9171 Y10.3114
G1 X-8.8981 Y10.2728
G1 X-8.8815 Y10.2327
G1 X-8.8675 Y10.1915
G1 X-8.8565 Y10.1505
G1 X-8.848 Y10.1078
G1 X-8.8423 Y10.0646
G1 X-8.8395 Y10.0216
G1 Y9.9784
G1 X-8.8423 Y9.9354
G1 X-8.848 Y9.8922
G1 X-8.8565 Y9.8495
G1 X-8.8675 Y9.8085
G1 X-8.8815 Y9.7673
G1 X-8.8981 Y9.7272
G1 X-8.9171 Y9.6886
G1 X-8.9389 Y9.6508
G1 X-8.9627 Y9.6152
G1 X-8.9892 Y9.5808
G1 X-9.0178 Y9.548
G1 X-9.048 Y9.5178
G1 X-9.0808 Y9.4892
G1 X-9.1152 Y9.4627
G1 F100.0 Z-0.8
G1 F300.0 X-9.1508 Y9.4389
G1 X-9.1886 Y9.4171
G1 X-9.2272 Y9.3981
G1 X-9.2673 Y9.3815
G1 X-9.3085 Y9.3675
G1 X-9.3495 Y9.3565
G1 X-9.3922 Y9.348
G1 X-9.4354 Y9.3423
G1 X-9.4784 Y9.3395
G1 X-9.5216
G1 X-9.5646 Y9.3423
G1 X-9.6078 Y9.348
G1 X-9.6505 Y9.3565
G1 X-9.6915 Y9.3675
G1 X-9.7327 Y9.3815
G1 X-9.7728 Y9.3981
G1 X-9.8114 Y9.4171
G1 X-9.8492 Y9.4389
G1 X-9.8848 Y9.4627
G1 X-9.9192 Y9.4892
G1 X-9.952 Y9.5178
G1 X-9.9822 Y9.548
G1 X-10.0108 Y9.5808
G1 X-10.0373 Y9.6152
G1 X-10.0611 Y9.6508
G1 X-10.0829 Y9.6886
G1 X-10.1019 Y9.7272
G1 X-10.1185 Y9.7673
G1 X-10.1325 Y9.8085
G1 X-10.1435 Y9.8495
G1 X-10.152 Y9.8922
G1 X-10.1577 Y9.9354
G1 X-10.1605 Y9.9784
G1 Y10.0216
G1 X-10.1577 Y10.0646
G1 X-10.152 Y10.1078
G1 X-10.1435 Y10.1505
G1 X-10.1325 Y10.1915
G1 X-10.1185 Y10.2327
G1 X-10.1019 Y10.2728
G1 X-10.0829 Y10.3114
G1 X-10.0611 Y10.3492
G1 X-10.0373 Y10.3848
G1 X-10.0108 Y10.4192
G1 X-9.9822 Y10.452
G1 X-9.952 Y10.4822
G1 X-9.9192 Y10.5108
G1 X-9.8848 Y10.5373
G1 X-9.8492 Y10.5611
G1 X-9.8114 Y10.5829
G1 X-9.7728 Y10.6019
G1 X-9.7327 Y10.6185
G1 X-9.6915 Y10.6325
G1 X-9.6505 Y10.6435
G1 X-9.6078 Y10.652
G1 X-9.5646 Y10.6577
G1 X-9.5216 Y10.6605
G1 X-9.4784
G1 X-9.4354 Y10.6577
G1 X-9.3922 Y10.652
G1 X-9.3495 Y10.6435
G1 X-9.3085 Y10.6325
G1 X-9.2673 Y10.6185
G1 X-9.2272 Y10.6019
G1 X-9.1886 Y10.5829
G1 X-9.1508 Y10.5611
G1 X-9.1152 Y10.5373
G1 X-9.0808 Y10.5108
G1 X-9.048 Y10.4822
G1 X-9.0178 Y10.452
G1 X-8.9892 Y10.4192
G1 X-8.9627 Y10.3848
G1 X-8.9389 Y10.3492
G1 X-8.9171 Y10.3114
G1 X-8.8981 Y10.2728
G1 X-8.8815 Y10.2327
G1 X-8.8675 Y10.1915
G1 X-8.8565 Y10.1505
G1 X-8.848 Y10.1078
G1 X-8.8423 Y10.0646
G1 X-8.8395 Y10.0216
G1 Y9.9784
G1 X-8.8423 Y9.9354
G1 X-8.848 Y9.8922
G1 X-8.8565 Y9.8495
G1 X-8.8675 Y9.8085
G1 X-8.8815 Y9.7673
G1 X-8.8981 Y9.7272
G1 X-8.9171 Y9.6886
G1 X-8.9389 Y9.6508
G1 X-8.9627 Y9.6152
G1 X-8.9892 Y9.5808
G1 X-9.0178 Y9.548
G1 X-9.048 Y9.5178
G1 X-9.0808 Y9.4892
G1 X-9.1152 Y9.4627
G1 F100.0 Z-1.0
G1 F300.0 X-9.1508 Y9.4389
G1 X-9.1886 Y9.4171
G1 X-9.2272 Y9.3981
G1 X-9.2673 Y9.3815
G1 X-9.3085 Y9.3675
G1 X-9.3495 Y9.3565
G1 X-9.3922 Y9.348
G1 X-9.4354 Y9.3423
G1 X-9.4784 Y9.3395
G1 X-9.5216
G1 X-9.5646 Y9.3423
G1 X-9.6078 Y9.348
G1 X-9.6505 Y9.3565
G1 X-9.6915 Y9.3675
G1 X-9.7327 Y9.3815
G1 X-9.7728 Y9.3981
G1 X-9.8114 Y9.4171
G1 X-9.8492 Y9.4389
G1 X-9.8848 Y9.4627
G1 X-9.9192 Y9.4892
G1 X-9.952 Y9.5178
G1 X-9.9822 Y9.548
G1 X-10.0108 Y9.5808
G1 X-10.0373 Y9.6152
G1 X-10.0611 Y9.6508
G1 X-10.0829 Y9.6886
G1 X-10.1019 Y9.7272
G1 X-10.1185 Y9.7673
G1 X-10.1325 Y9.8085
G1 X-10.1435 Y9.8495
G1 X-10.152 Y9.8922
G1 X-10.1577 Y9.9354
G1 X-10.1605 Y9.9784
G1 Y10.0216
G1 X-10.1577 Y10.0646
G1 X-10.152 Y10.1078
G1 X-10.1435 Y10.1505
G1 X-10.1325 Y10.1915
G1 X-10.1185 Y10.2327
G1 X-10.1019 Y10.2728
G1 X-10.0829 Y10.3114
G1 X-10.0611 Y10.3492
G1 X-10.0373 Y10.3848
G1 X-10.0108 Y10.4192
G1 X-9.9822 Y10.452
G1 X-9.952 Y10.4822
G1 X-9.9192 Y10.5108
G1 X-9.8848 Y10.5373
G1 X-9.8492 Y10.5611
G1 X-9.8114 Y10.5829
G1 X-9.7728 Y10.6019
G1 X-9.7327 Y10.6185
G1 X-9.6915 Y10.6325
G1 X-9.6505 Y10.6435
G1 X-9.6078 Y10.652
G1 X-9.5646 Y10.6577
G1 X-9.5216 Y10.6605
G1 X-9.4784
G1 X-9.4354 Y10.6577
G1 X-9.3922 Y10.652
G1 X-9.3495 Y10.6435
G1 X-9.3085 Y10.6325
G1 X-9.2673 Y10.6185
G1 X-9.2272 Y10.6019
G1 X-9.1886 Y10.5829
G1 X-9.1508 Y10.5611
G1 X-9.1152 Y10.5373
G1 X-9.0808 Y10.5108
G1 X-9.048 Y10.4822
G1 X-9.0178 Y10.452
G1 X-8.9892 Y10.4192
G1 X-8.9627 Y10.3848
G1 X-8.9389 Y10.3492
G1 X-8.9171 Y10.3114
G1 X-8.8981 Y10.2728
G1 X-8.8815 Y10.2327
G1 X-8.8675 Y10.1915
G1 X-8.8565 Y10.1505
G1 X-8.848 Y10.1078
G1 X-8.8423 Y10.0646
G1 X-8.8395 Y10.0216
G1 Y9.9784
G1 X-8.8423 Y9.9354
G1 X-8.848 Y9.8922
G1 X-8.8565 Y9.8495
G1 X-8.8675 Y9.8085
G1 X-8.8815 Y9.7673
G1 X-8.8981 Y9.7272
G1 X-8.9171 Y9.6886
G1 X-8.9389 Y9.6508
G1 X-8.9627 Y9.6152
G1 X-8.9892 Y9.5808
G1 X-9.0178 Y9.548
G1 X-9.048 Y9.5178
G1 X-9.0808 Y9.4892
G1 X-9.1152 Y9.4627
G1 F100.0 Z-1.2
G1 F300.0 X-9.1508 Y9.4389
G1 X-9.1886 Y9.4171
G1 X-9.2272 Y9.3981
G1 X-9.2673 Y9.3815
G1 X-9.3085 Y9.3675
G1 X-9.3495 Y9.3565
G1 X-9.3922 Y9.348
G1 X-9.4354 Y9.3423
G1 X-9.4784 Y9.3395
G1 X-9.5216
G1 X-9.5646 Y9.3423
G1 X-9.6078 Y9.348
G1 X-9.6505 Y9.3565
G1 X-9.6915 Y9.3675
G1 X-9.7327 Y9.3815
G1 X-9.7728 Y9.3981
G1 X-9.8114 Y9.4171
G1 X-9.8492 Y9.4389
G1 X-9.8848 Y9.4627
G1 X-9.9192 Y9.4892
G1 X-9.952 Y9.5178
G1 X-9.9822 Y9.548
G1 X-10.0108 Y9.5808
G1 X-10.0373 Y9.6152
G1 X-10.0611 Y9.6508
G1 X-10.0829 Y9.6886
G1 X-10.1019 Y9.7272
G1 X-10.1185 Y9.7673
G1 X-10.1325 Y9.8085
G1 X-10.1435 Y9.8495
G1 X-10.152 Y9.8922
G1 X-10.1577 Y9.9354
G1 X-10.1605 Y9.9784
G1 Y10.0216
G1 X-10.1577 Y10.0646
G1 X-10.152 Y10.1078
G1 X-10.1435 Y10.1505
G1 X-10.1325 Y10.1915
G1 X-10.1185 Y10.2327
G1 X-10.1019 Y10.2728
G1 X-10.0829 Y10.3114
G1 X-10.0611 Y10.3492
G1 X-10.0373 Y10.3848
G1 X-10.0108 Y10.4192
G1 X-9.9822 Y10.452
G1 X-9.952 Y10.4822
G1 X-9.9192 Y10.5108
G1 X-9.8848 Y10.5373
G1 X-9.8492 Y10.5611
G1 X-9.8114 Y10.5829
G1 X-9.7728 Y10.6019
G1 X-9.7327 Y10.6185
G1 X-9.6915 Y10.6325
G1 X-9.6505 Y10.6435
G1 X-9.6078 Y10.652
G1 X-9.5646 Y10.6577
G1 X-9.5216 Y10.6605
G1 X-9.4784
G1 X-9.4354 Y10.6577
G1 X-9.3922 Y10.652
G1 X-9.3495 Y10.6435
G1 X-9.3085 Y10.6325
G1 X-9.2673 Y10.6185
G1 X-9.2272 Y10.6019
G1 X-9.1886 Y10.5829
G1 X-9.1508 Y10.5611
G1 X-9.1152 Y10.5373
G1 X-9.0808 Y10.5108
G1 X-9.048 Y10.4822
G1 X-9.0178 Y10.452
G1 X-8.9892 Y10.4192
G1 X-8.9627 Y10.3848
G1 X-8.9389 Y10.3492
G1 X-8.9171 Y10.3114
G1 X-8.8981 Y10.2728
G1 X-8.8815 Y10.2327
G1 X-8.8675 Y10.1915
G1 X-8.8565 Y10.1505
G1 X-8.848 Y10.1078
G1 X-8.8423 Y10.0646
G1 X-8.8395 Y10.0216
G1 Y9.9784
G1 X-8.8423 Y9.9354
G1 X-8.848 Y9.8922
G1 X-8.8565 Y9.8495
G1 X-8.8675 Y9.8085
G1 X-8.8815 Y9.7673
G1 X-8.8981 Y9.7272
G1 X-8.9171 Y9.6886
G1 X-8.9389 Y9.6508
G1 X-8.9627 Y9.6152
G1 X-8.9892 Y9.5808
G1 X-9.0178 Y9.548
G1 X-9.048 Y9.5178
G1 X-9.0808 Y9.4892
G1 X-9.1152 Y9.4627
G1 F100.0 Z-1.4
G1 F300.0 X-9.1508 Y9.4389
G1 X-9.1886 Y9.4171
G1 X-9.2272 Y9.3981
G1 X-9.2673 Y9.3815
G1 X-9.3085 Y9.3675
G1 X-9.3495 Y9.3565
G1 X-9.3922 Y9.348
G1 X-9.4354 Y9.3423
G1 X-9.4784 Y9.3395
G1 X-9.5216
G1 X-9.5646 Y9.3423
G1 X-9.6078 Y9.348
G1 X-9.6505 Y9.3565
G1 X-9.6915 Y9.3675
G1 X-9.7327 Y9.3815
G1 X-9.7728 Y9.3981
G1 X-9.8114 Y9.4171
G1 X-9.8492 Y9.4389
G1 X-9.8848 Y9.4627
G1 X-9.9192 Y9.4892
G1 X-9.952 Y9.5178
G1 X-9.9822 Y9.548
G1 X-10.0108 Y9.5808
G1 X-10.0373 Y9.6152
G1 X-10.0611 Y9.6508
G1 X-10.0829 Y9.6886
G1 X-10.1019 Y9.7272
G1 X-10.1185 Y9.7673
G1 X-10.1325 Y9.8085
G1 X-10.1435 Y9.8495
G1 X-10.152 Y9.8922
G1 X-10.1577 Y9.9354
G1 X-10.1605 Y9.9784
G1 Y10.0216
G1 X-10.1577 Y10.0646
G1 X-10.152 Y10.1078
G1 X-10.1435 Y10.1505
G1 X-10.1325 Y10.1915
G1 X-10.1185 Y10.2327
G1 X-10.1019 Y10.2728
G1 X-10.0829 Y10.3114
G1 X-10.0611 Y10.3492
G1 X-10.0373 Y10.3848
G1 X-10.0108 Y10.4192
G1 X-9.9822 Y10.452
G1 X-9.952 Y10.4822
G1 X-9.9192 Y10.5108
G1 X-9.8848 Y10.5373
G1 X-9.8492 Y10.5611
G1 X-9.8114 Y10.5829
G1 X-9.7728 Y10.6019
G1 X-9.7327 Y10.6185
G1 X-9.6915 Y10.6325
G1 X-9.6505 Y10.6435
G1 X-9.6078 Y10.652
G1 X-9.5646 Y10.6577
G1 X-9.5216 Y10.6605
G1 X-9.4784
G1 X-9.4354 Y10.6577
G1 X-9.3922 Y10.652
G1 X-9.3495 Y10.6435
G1 X-9.3085 Y10.6325
G1 X-9.2673 Y10.6185
G1 X-9.2272 Y10.6019
G1 X-9.1886 Y10.5829
G1 X-9.1508 Y10.5611
G1 X-9.1152 Y10.5373
G1 X-9.0808 Y10.5108
G1 X-9.048 Y10.4822
G1 X-9.0178 Y10.452
G1 X-8.9892 Y10.4192
G1 X-8.9627 Y10.3848
G1 X-8.9389 Y10.3492
G1 X-8.9171 Y10.3114
G1 X-8.8981 Y10.2728
G1 X-8.8815 Y10.2327
G1 X-8.8675 Y10.1915
G1 X-8.8565 Y10.1505
G1 X-8.848 Y10.1078
G1 X-8.8423 Y10.0646
G1 X-8.8395 Y10.0216
G1 Y9.9784
G1 X-8.8423 Y9.9354
G1 X-8.848 Y9.8922
G1 X-8.8565 Y9.8495
G1 X-8.8675 Y9.8085
G1 X-8.8815 Y9.7673
G1 X-8.8981 Y9.7272
G1 X-8.9171 Y9.6886
G1 X-8.9389 Y9.6508
G1 X-8.9627 Y9.6152
G1 X-8.9892 Y9.5808
G1 X-9.0178 Y9.548
G1 X-9.048 Y9.5178
G1 X-9.0808 Y9.4892
G1 X-9.1152 Y9.4627
G1 F100.0 Z-1.6
G1 F300.0 X-9.1508 Y9.4389
G1 X-9.1886 Y9.4171
G1 X-9.2272 Y9.3981
G1 X-9.2673 Y9.3815
G1 X-9.3085 Y9.3675
G1 X-9.3495 Y9.3565
G1 X-9.3922 Y9.348
G1 X-9.4354 Y9.3423
G1 X-9.4784 Y9.3395
G1 X-9.5216
G1 X-9.5646 Y9.3423
G1 X-9.6078 Y9.348
G1 X-9.6505 Y9.3565
G1 X-9.6915 Y9.3675
G1 X-9.7327 Y9.3815
G1 X-9.7728 Y9.3981
G1 X-9.8114 Y9.4171
G1 X-9.8492 Y9.4389
G1 X-9.8848 Y9.4627
G1 X-9.9192 Y9.4892
G1 X-9.952 Y9.5178
G1 X-9.9822 Y9.548
G1 X-10.0108 Y9.5808
G1 X-10.0373 Y9.6152
G1 X-10.0611 Y9.6508
G1 X-10.0829 Y9.6886
G1 X-10.1019 Y9.7272
G1 X-10.1185 Y9.7673
G1 X-10.1325 Y9.8085
G1 X-10.1435 Y9.8495
G1 X-10.152 Y9.8922
G1 X-10.1577 Y9.9354
G1 X-10.1605 Y9.9784
G1 Y10.0216
G1 X-10.1577 Y10.0646
G1 X-10.152 Y10.1078
G1 X-10.1435 Y10.1505
G1 X-10.1325 Y10.1915
G1 X-10.1185 Y10.2327
G1 X-10.1019 Y10.2728
G1 X-10.0829 Y10.3114
G1 X-10.0611 Y10.3492
G1 X-10.0373 Y10.3848
G1 X-10.0108 Y10.4192
G1 X-9.9822 Y10.452
G1 X-9.952 Y10.4822
G1 X-9.9192 Y10.5108
G1 X-9.8848 Y10.5373
G1 X-9.8492 Y10.5611
G1 X-9.8114 Y10.5829
G1 X-9.7728 Y10.6019
G1 X-9.7327 Y10.6185
G1 X-9.6915 Y10.6325
G1 X-9.6505 Y10.6435
G1 X-9.6078 Y10.652
G1 X-9.5646 Y10.6577
G1 X-9.5216 Y10.6605
G1 X-9.4784
G1 X-9.4354 Y10.6577
G1 X-9.3922 Y10.652
G1 X-9.3495 Y10.6435
G1 X-9.3085 Y10.6325
G1 X-9.2673 Y10.6185
G1 X-9.2272 Y10.6019
G1 X-9.1886 Y10.5829
G1 X-9.1508 Y10.5611
G1 X-9.1152 Y10.5373
G1 X-9.0808 Y10.5108
G1 X-9.048 Y10.4822
G1 X-9.0178 Y10.452
G1 X-8.9892 Y10.4192
G1 X-8.9627 Y10.3848
G1 X-8.9389 Y10.3492
G1 X-8.9171 Y10.3114
G1 X-8.8981 Y10.2728
G1 X-8.8815 Y10.2327
G1 X-8.8675 Y10.1915
G1 X-8.8565 Y10.1505
G1 X-8.848 Y10.1078
G1 X-8.8423 Y10.0646
G1 X-8.8395 Y10.0216
G1 Y9.9784
G1 X-8.8423 Y9.9354
G1 X-8.848 Y9.8922
G1 X-8.8565 Y9.8495
G1 X-8.8675 Y9.8085
G1 X-8.8815 Y9.7673
G1 X-8.8981 Y9.7272
G1 X-8.9171 Y9.6886
G1 X-8.9389 Y9.6508
G1 X-8.9627 Y9.6152
G1 X-8.9892 Y9.5808
G1 X-9.0178 Y9.548
G1 X-9.048 Y9.5178
G1 X-9.0808 Y9.4892
G1 X-9.1152 Y9.4627
G1 F100.0 Z-1.8
G1 F300.0 X-9.1508 Y9.4389
G1 X-9.1886 Y9.4171
G1 X-9.2272 Y9.3981
G1 X-9.2673 Y9.3815
G1 X-9.3085 Y9.3675
G1 X-9.3495 Y9.3565
G1 X-9.3922 Y9.348
G1 X-9.4354 Y9.3423
G1 X-9.4784 Y9.3395
G1 X-9.5216
G1 X-9.5646 Y9.3423
G1 X-9.6078 Y9.348
G1 X-9.6505 Y9.3565
G1 X-9.6915 Y9.3675
G1 X-9.7327 Y9.3815
G1 X-9.7728 Y9.3981
G1 X-9.8114 Y9.4171
G1 X-9.8492 Y9.4389
G1 X-9.8848 Y9.4627
G1 X-9.9192 Y9.4892
G1 X-9.952 Y9.5178
G1 X-9.9822 Y9.548
G1 X-10.0108 Y9.5808
G1 X-10.0373 Y9.6152
G1 X-10.0611 Y9.6508
G1 X-10.0829 Y9.6886
G1 X-10.1019 Y9.7272
G1 X-10.1185 Y9.7673
G1 X-10.1325 Y9.8085
G1 X-10.1435 Y9.8495
G1 X-10.152 Y9.8922
G1 X-10.1577 Y9.9354
G1 X-10.1605 Y9.9784
G1 Y10.0216
G1 X-10.1577 Y10.0646
G1 X-10.152 Y10.1078
G1 X-10.1435 Y10.1505
G1 X-10.1325 Y10.1915
G1 X-10.1185 Y10.2327
G1 X-10.1019 Y10.2728
G1 X-10.0829 Y10.3114
G1 X-10.0611 Y10.3492
G1 X-10.0373 Y10.3848
G1 X-10.0108 Y10.4192
G1 X-9.9822 Y10.452
G1 X-9.952 Y10.4822
G1 X-9.9192 Y10.5108
G1 X-9.8848 Y10.5373
G1 X-9.8492 Y10.5611
G1 X-9.8114 Y10.5829
G1 X-9.7728 Y10.6019
G1 X-9.7327 Y10.6185
G1 X-9.6915 Y10.6325
G1 X-9.6505 Y10.6435
G1 X-9.6078 Y10.652
G1 X-9.5646 Y10.6577
G1 X-9.5216 Y10.6605
G1 X-9.4784
G1 X-9.4354 Y10.6577
G1 X-9.3922 Y10.652
G1 X-9.3495 Y10.6435
G1 X-9.3085 Y10.6325
G1 X-9.2673 Y10.6185
G1 X-9.2272 Y10.6019
G1 X-9.1886 Y10.5829
G1 X-9.1508 Y10.5611
G1 X-9.1152 Y10.5373
G1 X-9.0808 Y10.5108
G1 X-9.048 Y10.4822
G1 X-9.0178 Y10.452
G1 X-8.9892 Y10.4192
G1 X-8.9627 Y10.3848
G1 X-8.9389 Y10.3492
G1 X-8.9171 Y10.3114
G1 X-8.8981 Y10.2728
G1 X-8.8815 Y10.2327
G1 X-8.8675 Y10.1915
G1 X-8.8565 Y10.1505
G1 X-8.848 Y10.1078
G1 X-8.8423 Y10.0646
G1 X-8.8395 Y10.0216
G1 Y9.9784
G1 X-8.8423 Y9.9354
G1 X-8.848 Y9.8922
G1 X-8.8565 Y9.8495
G1 X-8.8675 Y9.8085
G1 X-8.8815 Y9.7673
G1 X-8.8981 Y9.7272
G1 X-8.9171 Y9.6886
G1 X-8.9389 Y9.6508
G1 X-8.9627 Y9.6152
G1 X-8.9892 Y9.5808
G1 X-9.0178 Y9.548
G1 X-9.048 Y9.5178
G1 X-9.0808 Y9.4892
G1 X-9.1152 Y9.4627
G1 F100.0 Z-2.0
G1 F300.0 X-9.1508 Y9.4389
G1 X-9.1886 Y9.4171
G1 X-9.2272 Y9.3981
G1 X-9.2673 Y9.3815
G1 X-9.3085 Y9.3675
G1 X-9.3495 Y9.3565
G1 X-9.3922 Y9.348
G1 X-9.4354 Y9.3423
G1 X-9.4784 Y9.3395
G1 X-9.5216
G1 X-9.5646 Y9.3423
G1 X-9.6078 Y9.348
G1 X-9.6505 Y9.3565
G1 X-9.6915 Y9.3675
G1 X-9.7327 Y9.3815
G1 X-9.7728 Y9.3981
G1 X-9.8114 Y9.4171
G1 X-9.8492 Y9.4389
G1 X-9.8848 Y9.4627
G1 X-9.9192 Y9.4892
G1 X-9.952 Y9.5178
G1 X-9.9822 Y9.548
G1 X-10.0108 Y9.5808
G1 X-10.0373 Y9.6152
G1 X-10.0611 Y9.6508
G1 X-10.0829 Y9.6886
G1 X-10.1019 Y9.7272
G1 X-10.1185 Y9.7673
G1 X-10.1325 Y9.8085
G1 X-10.1435 Y9.8495
G1 X-10.152 Y9.8922
G1 X-10.1577 Y9.9354
G1 X-10.1605 Y9.9784
G1 Y10.0216
G1 X-10.1577 Y10.0646
G1 X-10.152 Y10.1078
G1 X-10.1435 Y10.1505
G1 X-10.1325 Y10.1915
G1 X-10.1185 Y10.2327
G1 X-10.1019 Y10.2728
G1 X-10.0829 Y10.3114
G1 X-10.0611 Y10.3492
G1 X-10.0373 Y10.3848
G1 X-10.0108 Y10.4192
G1 X-9.9822 Y10.452
G1 X-9.952 Y10.4822
G1 X-9.9192 Y10.5108
G1 X-9.8848 Y10.5373
G1 X-9.8492 Y10.5611
G1 X-9.8114 Y10.5829
G1 X-9.7728 Y10.6019
G1 X-9.7327 Y10.6185
G1 X-9.6915 Y10.6325
G1 X-9.6505 Y10.6435
G1 X-9.6078 Y10.652
G1 X-9.5646 Y10.6577
G1 X-9.5216 Y10.6605
G1 X-9.4784
G1 X-9.4354 Y10.6577
G1 X-9.3922 Y10.652
G1 X-9.3495 Y10.6435
G1 X-9.3085 Y10.6325
G1 X-9.2673 Y10.6185
G1 X-9.2272 Y10.6019
G1 X-9.1886 Y10.5829
G1 X-9.1508 Y10.5611
G1 X-9.1152 Y10.5373
G1 X-9.0808 Y10.5108
G1 X-9.048 Y10.4822
G1 X-9.0178 Y10.452
G1 X-8.9892 Y10.4192
G1 X-8.9627 Y10.3848
G1 X-8.9389 Y10.3492
G1 X-8.9171 Y10.3114
G1 X-8.8981 Y10.2728
G1 X-8.8815 Y10.2327
G1 X-8.8675 Y10.1915
G1 X-8.8565 Y10.1505
G1 X-8.848 Y10.1078
G1 X-8.8423 Y10.0646
G1 X-8.8395 Y10.0216
G1 Y9.9784
G1 X-8.8423 Y9.9354
G1 X-8.848 Y9.8922
G1 X-8.8565 Y9.8495
G1 X-8.8675 Y9.8085
G1 X-8.8815 Y9.7673
G1 X-8.8981 Y9.7272
G1 X-8.9171 Y9.6886
G1 X-8.9389 Y9.6508
G1 X-8.9627 Y9.6152
G1 X-8.9892 Y9.5808
G1 X-9.0178 Y9.548
G1 X-9.048 Y9.5178
G1 X-9.0808 Y9.4892
G1 X-9.1152 Y9.4627
G0 Z2.0
G0 X-57.8395 Y9.9784
G1 F100.0 Z-0.2
G1 F300.0 X-57.8423 Y9.9354
G1 X-57.848 Y9.8922
G1 X-57.8565 Y9.8495
G1 X-57.8675 Y9.8085
G1 X-57.8815 Y9.7673
G1 X-57.8981 Y9.7272
G1 X-57.9171 Y9.6886
G1 X-57.9389 Y9.6508
G1 X-57.9627 Y9.6152
G1 X-57.9892 Y9.5808
G1 X-58.0178 Y9.548
G1 X-58.048 Y9.5178
G1 X-58.0808 Y9.4892
G1 X-58.1152 Y9.4627
G1 X-58.1508 Y9.4389
G1 X-58.1886 Y9.4171
G1 X-58.2272 Y9.3981
G1 X-58.2673 Y9.3815
G1 X-58.3085 Y9.3675
G1 X-58.3495 Y9.3565
G1 X-58.3922 Y9.348
G1 X-58.4354 Y9.3423
G1 X-58.4784 Y9.3395
G1 X-58.5216
G1 X-58.5646 Y9.3423
G1 X-58.6078 Y9.348
G1 X-58.6505 Y9.3565
G1 X-58.6915 Y9.3675
G1 X-58.7327 Y9.3815
G1 X-58.7728 Y9.3981
G1 X-58.8114 Y9.4171
G1 X-58.8492 Y9.4389
G1 X-58.8848 Y9.4627
G1 X-58.9192 Y9.4892
G1 X-58.952 Y9.5178
G1 X-58.9822 Y9.548
G1 X-59.0108 Y9.5808
G1 X-59.0373 Y9.6152
G1 X-59.0611 Y9.6508
G1 X-59.0829 Y9.6886
G1 X-59.1019 Y9.7272
G1 X-59.1185 Y9.7673
G1 X-59.1325 Y9.8085
G1 X-59.1435 Y9.8495
G1 X-59.152 Y9.8922
G1 X-59.1577 Y9.9354
G1 X-59.1605 Y9.9784
G1 Y10.0216
G1 X-59.1577 Y10.0646
G1 X-59.152 Y10.1078
G1 X-59.1435 Y10.1505
G1 X-59.1325 Y10.1915
G1 X-59.1185 Y10.2327
G1 X-59.1019 Y10.2728
G1 X-59.0829 Y10.3114
G1 X-59.0611 Y10.3492
G1 X-59.0373 Y10.3848
G1 X-59.0108 Y10.4192
G1 X-58.9822 Y10.452
G1 X-58.952 Y10.4822
G1 X-58.9192 Y10.5108
G1 X-58.8848 Y10.5373
G1 X-58.8492 Y10.5611
G1 X-58.8114 Y10.5829
G1 X-58.7728 Y10.6019
G1 X-58.7327 Y10.6185
G1 X-58.6915 Y10.6325
G1 X-58.6505 Y10.6435
G1 X-58.6078 Y10.652
G1 X-58.5646 Y10.6577
G1 X-58.5216 Y10.6605
G1 X-58.4784
G1 X-58.4354 Y10.6577
G1 X-58.3922 Y10.652
G1 X-58.3495 Y10.6435
G1 X-58.3085 Y10.6325
G1 X-58.2673 Y10.6185
G1 X-58.2272 Y10.6019
G1 X-58.1886 Y10.5829
G1 X-58.1508 Y10.5611
G1 X-58.1152 Y10.5373
G1 X-58.0808 Y10.5108
G1 X-58.048 Y10.4822
G1 X-58.0178 Y10.452
G1 X-57.9892 Y10.4192
G1 X-57.9627 Y10.3848
G1 X-57.9389 Y10.3492
G1 X-57.9171 Y10.3114
G1 X-57.8981 Y10.2728
G1 X-57.8815 Y10.2327
G1 X-57.8675 Y10.1915
G1 X-57.8565 Y10.1505
G1 X-57.848 Y10.1078
G1 X-57.8423 Y10.0646
G1 X-57.8395 Y10.0216
G1 Y9.9784
G1 F100.0 Z-0.4
G1 F300.0 X-57.8423 Y9.9354
G1 X-57.848 Y9.8922
G1 X-57.8565 Y9.8495
G1 X-57.8675 Y9.8085
G1 X-57.8815 Y9.7673
G1 X-57.8981 Y9.7272
G1 X-57.9171 Y9.6886
G1 X-57.9389 Y9.6508
G1 X-57.9627 Y9.6152
G1 X-57.9892 Y9.5808
G1 X-58.0178 Y9.548
G1 X-58.048 Y9.5178
G1 X-58.0808 Y9.4892
G1 X-58.1152 Y9.4627
G1 X-58.1508 Y9.4389
G1 X-58.1886 Y9.4171
G1 X-58.2272 Y9.3981
G1 X-58.2673 Y9.3815
G1 X-58.3085 Y9.3675
G1 X-58.3495 Y9.3565
G1 X-58.3922 Y9.348
G1 X-58.4354 Y9.3423
G1 X-58.4784 Y9.3395
G1 X-58.5216
G1 X-58.5646 Y9.3423
G1 X-58.6078 Y9.348
G1 X-58.6505 Y9.3565
G1 X-58.6915 Y9.3675
G1 X-58.7327 Y9.3815
G1 X-58.7728 Y9.3981
G1 X-58.8114 Y9.4171
G1 X-58.8492 Y9.4389
G1 X-58.8848 Y9.4627
G1 X-58.9192 Y9.4892
G1 X-58.952 Y9.5178
G1 X-58.9822 Y9.548
G1 X-59.0108 Y9.5808
G1 X-59.0373 Y9.6152
G1 X-59.0611 Y9.6508
G1 X-59.0829 Y9.6886
G1 X-59.1019 Y9.7272
G1 X-59.1185 Y9.7673
G1 X-59.1325 Y9.8085
G1 X-59.1435 Y9.8495
G1 X-59.152 Y9.8922
G1 X-59.1577 Y9.9354
G1 X-59.1605 Y9.9784
G1 Y10.0216
G1 X-59.1577 Y10.0646
G1 X-59.152 Y10.1078
G1 X-59.1435 Y10.1505
G1 X-59.1325 Y10.1915
G1 X-59.1185 Y10.2327
G1 X-59.1019 Y10.2728
G1 X-59.0829 Y10.3114
G1 X-59.0611 Y10.3492
G1 X-59.0373 Y10.3848
G1 X-59.0108 Y10.4192
G1 X-58.9822 Y10.452
G1 X-58.952 Y10.4822
G1 X-58.9192 Y10.5108
G1 X-58.8848 Y10.5373
G1 X-58.8492 Y10.5611
G1 X-58.8114 Y10.5829
G1 X-58.7728 Y10.6019
G1 X-58.7327 Y10.6185
G1 X-58.6915 Y10.6325
G1 X-58.6505 Y10.6435
G1 X-58.6078 Y10.652
G1 X-58.5646 Y10.6577
G1 X-58.5216 Y10.6605
G1 X-58.4784
G1 X-58.4354 Y10.6577
G1 X-58.3922 Y10.652
G1 X-58.3495 Y10.6435
G1 X-58.3085 Y10.6325
G1 X-58.2673 Y10.6185
G1 X-58.2272 Y10.6019
G1 X-58.1886 Y10.5829
G1 X-58.1508 Y10.5611
G1 X-58.1152 Y10.5373
G1 X-58.0808 Y10.5108
G1 X-58.048 Y10.4822
G1 X-58.0178 Y10.452
G1 X-57.9892 Y10.4192
G1 X-57.9627 Y10.3848
G1 X-57.9389 Y10.3492
G1 X-57.9171 Y10.3114
G1 X-57.8981 Y10.2728
G1 X-57.8815 Y10.2327
G1 X-57.8675 Y10.1915
G1 X-57.8565 Y10.1505
G1 X-57.848 Y10.1078
G1 X-57.8423 Y10.0646
G1 X-57.8395 Y10.0216
G1 Y9.9784
G1 F100.0 Z-0.6
G1 F300.0 X-57.8423 Y9.9354
G1 X-57.848 Y9.8922
G1 X-57.8565 Y9.8495
G1 X-57.8675 Y9.8085
G1 X-57.8815 Y9.7673
G1 X-57.8981 Y9.7272
G1 X-57.9171 Y9.6886
G1 X-57.9389 Y9.6508
G1 X-57.9627 Y9.6152
G1 X-57.9892 Y9.5808
G1 X-58.0178 Y9.548
G1 X-58.048 Y9.5178
G1 X-58.0808 Y9.4892
G1 X-58.1152 Y9.4627
G1 X-58.1508 Y9.4389
G1 X-58.1886 Y9.4171
G1 X-58.2272 Y9.3981
G1 X-58.2673 Y9.3815
G1 X-58.3085 Y9.3675
G1 X-58.3495 Y9.3565
G1 X-58.3922 Y9.348
G1 X-58.4354 Y9.3423
G1 X-58.4784 Y9.3395
G1 X-58.5216
G1 X-58.5646 Y9.3423
G1 X-58.6078 Y9.348
G1 X-58.6505 Y9.3565
G1 X-58.6915 Y9.3675
G1 X-58.7327 Y9.3815
G1 X-58.7728 Y9.3981
G1 X-58.8114 Y9.4171
G1 X-58.8492 Y9.4389
G1 X-58.8848 Y9.4627
G1 X-58.9192 Y9.4892
G1 X-58.952 Y9.5178
G1 X-58.9822 Y9.548
G1 X-59.0108 Y9.5808
G1 X-59.0373 Y9.6152
G1 X-59.0611 Y9.6508
G1 X-59.0829 Y9.6886
G1 X-59.1019 Y9.7272
G1 X-59.1185 Y9.7673
G1 X-59.1325 Y9.8085
G1 X-59.1435 Y9.8495
G1 X-59.152 Y9.8922
G1 X-59.1577 Y9.9354
G1 X-59.1605 Y9.9784
G1 Y10.0216
G1 X-59.1577 Y10.0646
G1 X-59.152 Y10.1078
G1 X-59.1435 Y10.1505
G1 X-59.1325 Y10.1915
G1 X-59.1185 Y10.2327
G1 X-59.1019 Y10.2728
G1 X-59.0829 Y10.3114
G1 X-59.0611 Y10.3492
G1 X-59.0373 Y10.3848
G1 X-59.0108 Y10.4192
G1 X-58.9822 Y10.452
G1 X-58.952 Y10.4822
G1 X-58.9192 Y10.5108
G1 X-58.8848 Y10.5373
G1 X-58.8492 Y10.5611
G1 X-58.8114 Y10.5829
G1 X-58.7728 Y10.6019
G1 X-58.7327 Y10.6185
G1 X-58.6915 Y10.6325
G1 X-58.6505 Y10.6435
G1 X-58.6078 Y10.652
G1 X-58.5646 Y10.6577
G1 X-58.5216 Y10.6605
G1 X-58.4784
G1 X-58.4354 Y10.6577
G1 X-58.3922 Y10.652
G1 X-58.3495 Y10.6435
G1 X-58.3085 Y10.6325
G1 X-58.2673 Y10.6185
G1 X-58.2272 Y10.6019
G1 X-58.1886 Y10.5829
G1 X-58.1508 Y10.5611
G1 X-58.1152 Y10.5373
G1 X-58.0808 Y10.5108
G1 X-58.048 Y10.4822
G1 X-58.0178 Y10.452
G1 X-57.9892 Y10.4192
G1 X-57.9627 Y10.3848
G1 X-57.9389 Y10.3492
G1 X-57.9171 Y10.3114
G1 X-57.8981 Y10.2728
G1 X-57.8815 Y10.2327
G1 X-57.8675 Y10.1915
G1 X-57.8565 Y10.1505
G1 X-57.848 Y10.1078
G1 X-57.8423 Y10.0646
G1 X-57.8395 Y10.0216
G1 Y9.9784
G1 F100.0 Z-0.8
G1 F300.0 X-57.8423 Y9.9354
G1 X-57.848 Y9.8922
G1 X-57.8565 Y9.8495
G1 X-57.8675 Y9.8085
G1 X-57.8815 Y9.7673
G1 X-57.8981 Y9.7272
G1 X-57.9171 Y9.6886
G1 X-57.9389 Y9.6508
G1 X-57.9627 Y9.6152
G1 X-57.9892 Y9.5808
G1 X-58.0178 Y9.548
G1 X-58.048 Y9.5178
G1 X-58.0808 Y9.4892
G1 X-58.1152 Y9.4627
G1 X-58.1508 Y9.4389
G1 X-58.1886 Y9.4171
G1 X-58.2272 Y9.3981
G1 X-58.2673 Y9.3815
G1 X-58.3085 Y9.3675
G1 X-58.3495 Y9.3565
G1 X-58.3922 Y9.348
G1 X-58.4354 Y9.3423
G1 X-58.4784 Y9.3395
G1 X-58.5216
G1 X-58.5646 Y9.3423
G1 X-58.6078 Y9.348
G1 X-58.6505 Y9.3565
G1 X-58.6915 Y9.3675
G1 X-58.7327 Y9.3815
G1 X-58.7728 Y9.3981
G1 X-58.8114 Y9.4171
G1 X-58.8492 Y9.4389
G1 X-58.8848 Y9.4627
G1 X-58.9192 Y9.4892
G1 X-58.952 Y9.5178
G1 X-58.9822 Y9.548
G1 X-59.0108 Y9.5808
G1 X-59.0373 Y9.6152
G1 X-59.0611 Y9.6508
G1 X-59.0829 Y9.6886
G1 X-59.1019 Y9.7272
G1 X-59.1185 Y9.7673
G1 X-59.1325 Y9.8085
G1 X-59.1435 Y9.8495
G1 X-59.152 Y9.8922
G1 X-59.1577 Y9.9354
G1 X-59.1605 Y9.9784
G1 Y10.0216
G1 X-59.1577 Y10.0646
G1 X-59.152 Y10.1078
G1 X-59.1435 Y10.1505
G1 X-59.1325 Y10.1915
G1 X-59.1185 Y10.2327
G1 X-59.1019 Y10.2728
G1 X-59.0829 Y10.3114
G1 X-59.0611 Y10.3492
G1 X-59.0373 Y10.3848
G1 X-59.0108 Y10.4192
G1 X-58.9822 Y10.452
G1 X-58.952 Y10.4822
G1 X-58.9192 Y10.5108
G1 X-58.8848 Y10.5373
G1 X-58.8492 Y10.5611
G1 X-58.8114 Y10.5829
G1 X-58.7728 Y10.6019
G1 X-58.7327 Y10.6185
G1 X-58.6915 Y10.6325
G1 X-58.6505 Y10.6435
G1 X-58.6078 Y10.652
G1 X-58.5646 Y10.6577
G1 X-58.5216 Y10.6605
G1 X-58.4784
G1 X-58.4354 Y10.6577
G1 X-58.3922 Y10.652
G1 X-58.3495 Y10.6435
G1 X-58.3085 Y10.6325
G1 X-58.2673 Y10.6185
G1 X-58.2272 Y10.6019
G1 X-58.1886 Y10.5829
G1 X-58.1508 Y10.5611
G1 X-58.1152 Y10.5373
G1 X-58.0808 Y10.5108
G1 X-58.048 Y10.4822
G1 X-58.0178 Y10.452
G1 X-57.9892 Y10.4192
G1 X-57.9627 Y10.3848
G1 X-57.9389 Y10.3492
G1 X-57.9171 Y10.3114
G1 X-57.8981 Y10.2728
G1 X-57.8815 Y10.2327
G1 X-57.8675 Y10.1915
G1 X-57.8565 Y10.1505
G1 X-57.848 Y10.1078
G1 X-57.8423 Y10.0646
G1 X-57.8395 Y10.0216
G1 Y9.9784
G1 F100.0 Z-1.0
G1 F300.0 X-57.8423 Y9.9354
G1 X-57.848 Y9.8922
G1 X-57.8565 Y9.8495
G1 X-57.8675 Y9.8085
G1 X-57.8815 Y9.7673
G1 X-57.8981 Y9.7272
G1 X-57.9171 Y9.6886
G1 X-57.9389 Y9.6508
G1 X-57.9627 Y9.6152
G1 X-57.9892 Y9.5808
G1 X-58.0178 Y9.548
G1 X-58.048 Y9.5178
G1 X-58.0808 Y9.4892
G1 X-58.1152 Y9.4627
G1 X-58.1508 Y9.4389
G1 X-58.1886 Y9.4171
G1 X-58.2272 Y9.3981
G1 X-58.2673 Y9.3815
G1 X-58.3085 Y9.3675
G1 X-58.3495 Y9.3565
G1 X-58.3922 Y9.348
G1 X-58.4354 Y9.3423
G1 X-58.4784 Y9.3395
G1 X-58.5216
G1 X-58.5646 Y9.3423
G1 X-58.6078 Y9.348
G1 X-58.6505 Y9.3565
G1 X-58.6915 Y9.3675
G1 X-58.7327 Y9.3815
G1 X-58.7728 Y9.3981
G1 X-58.8114 Y9.4171
G1 X-58.8492 Y9.4389
G1 X-58.8848 Y9.4627
G1 X-58.9192 Y9.4892
G1 X-58.952 Y9.5178
G1 X-58.9822 Y9.548
G1 X-59.0108 Y9.5808
G1 X-59.0373 Y9.6152
G1 X-59.0611 Y9.6508
G1 X-59.0829 Y9.6886
G1 X-59.1019 Y9.7272
G1 X-59.1185 Y9.7673
G1 X-59.1325 Y9.8085
G1 X-59.1435 Y9.8495
G1 X-59.152 Y9.8922
G1 X-59.1577 Y9.9354
G1 X-59.1605 Y9.9784
G1 Y10.0216
G1 X-59.1577 Y10.0646
G1 X-59.152 Y10.1078
G1 X-59.1435 Y10.1505
G1 X-59.1325 Y10.1915
G1 X-59.1185 Y10.2327
G1 X-59.1019 Y10.2728
G1 X-59.0829 Y10.3114
G1 X-59.0611 Y10.3492
G1 X-59.0373 Y10.3848
G1 X-59.0108 Y10.4192
G1 X-58.9822 Y10.452
G1 X-58.952 Y10.4822
G1 X-58.9192 Y10.5108
G1 X-58.8848 Y10.5373
G1 X-58.8492 Y10.5611
G1 X-58.8114 Y10.5829
G1 X-58.7728 Y10.6019
G1 X-58.7327 Y10.6185
G1 X-58.6915 Y10.6325
G1 X-58.6505 Y10.6435
G1 X-58.6078 Y10.652
G1 X-58.5646 Y10.6577
G1 X-58.5216 Y10.6605
G1 X-58.4784
G1 X-58.4354 Y10.6577
G1 X-58.3922 Y10.652
G1 X-58.3495 Y10.6435
G1 X-58.3085 Y10.6325
G1 X-58.2673 Y10.6185
G1 X-58.2272 Y10.6019
G1 X-58.1886 Y10.5829
G1 X-58.1508 Y10.5611
G1 X-58.1152 Y10.5373
G1 X-58.0808 Y10.5108
G1 X-58.048 Y10.4822
G1 X-58.0178 Y10.452
G1 X-57.9892 Y10.4192
G1 X-57.9627 Y10.3848
G1 X-57.9389 Y10.3492
G1 X-57.9171 Y10.3114
G1 X-57.8981 Y10.2728
G1 X-57.8815 Y10.2327
G1 X-57.8675 Y10.1915
G1 X-57.8565 Y10.1505
G1 X-57.848 Y10.1078
G1 X-57.8423 Y10.0646
G1 X-57.8395 Y10.0216
G1 Y9.9784
G1 F100.0 Z-1.2
G1 F300.0 X-57.8423 Y9.9354
G1 X-57.848 Y9.8922
G1 X-57.8565 Y9.8495
G1 X-57.8675 Y9.8085
G1 X-57.8815 Y9.7673
G1 X-57.8981 Y9.7272
G1 X-57.9171 Y9.6886
G1 X-57.9389 Y9.6508
G1 X-57.9627 Y9.6152
G1 X-57.9892 Y9.5808
G1 X-58.0178 Y9.548
G1 X-58.048 Y9.5178
G1 X-58.0808 Y9.4892
G1 X-58.1152 Y9.4627
G1 X-58.1508 Y9.4389
G1 X-58.1886 Y9.4171
G1 X-58.2272 Y9.3981
G1 X-58.2673 Y9.3815
G1 X-58.3085 Y9.3675
G1 X-58.3495 Y9.3565
G1 X-58.3922 Y9.348
G1 X-58.4354 Y9.3423
G1 X-58.4784 Y9.3395
G1 X-58.5216
G1 X-58.5646 Y9.3423
G1 X-58.6078 Y9.348
G1 X-58.6505 Y9.3565
G1 X-58.6915 Y9.3675
G1 X-58.7327 Y9.3815
G1 X-58.7728 Y9.3981
G1 X-58.8114 Y9.4171
G1 X-58.8492 Y9.4389
G1 X-58.8848 Y9.4627
G1 X-58.9192 Y9.4892
G1 X-58.952 Y9.5178
G1 X-58.9822 Y9.548
G1 X-59.0108 Y9.5808
G1 X-59.0373 Y9.6152
G1 X-59.0611 Y9.6508
G1 X-59.0829 Y9.6886
G1 X-59.1019 Y9.7272
G1 X-59.1185 Y9.7673
G1 X-59.1325 Y9.8085
G1 X-59.1435 Y9.8495
G1 X-59.152 Y9.8922
G1 X-59.1577 Y9.9354
G1 X-59.1605 Y9.9784
G1 Y10.0216
G1 X-59.1577 Y10.0646
G1 X-59.152 Y10.1078
G1 X-59.1435 Y10.1505
G1 X-59.1325 Y10.1915
G1 X-59.1185 Y10.2327
G1 X-59.1019 Y10.2728
G1 X-59.0829 Y10.3114
G1 X-59.0611 Y10.3492
G1 X-59.0373 Y10.3848
G1 X-59.0108 Y10.4192
G1 X-58.9822 Y10.452
G1 X-58.952 Y10.4822
G1 X-58.9192 Y10.5108
G1 X-58.8848 Y10.5373
G1 X-58.8492 Y10.5611
G1 X-58.8114 Y10.5829
G1 X-58.7728 Y10.6019
G1 X-58.7327 Y10.6185
G1 X-58.6915 Y10.6325
G1 X-58.6505 Y10.6435
G1 X-58.6078 Y10.652
G1 X-58.5646 Y10.6577
G1 X-58.5216 Y10.6605
G1 X-58.4784
G1 X-58.4354 Y10.6577
G1 X-58.3922 Y10.652
G1 X-58.3495 Y10.6435
G1 X-58.3085 Y10.6325
G1 X-58.2673 Y10.6185
G1 X-58.2272 Y10.6019
G1 X-58.1886 Y10.5829
G1 X-58.1508 Y10.5611
G1 X-58.1152 Y10.5373
G1 X-58.0808 Y10.5108
G1 X-58.048 Y10.4822
G1 X-58.0178 Y10.452
G1 X-57.9892 Y10.4192
G1 X-57.9627 Y10.3848
G1 X-57.9389 Y10.3492
G1 X-57.9171 Y10.3114
G1 X-57.8981 Y10.2728
G1 X-57.8815 Y10.2327
G1 X-57.8675 Y10.1915
G1 X-57.8565 Y10.1505
G1 X-57.848 Y10.1078
G1 X-57.8423 Y10.0646
G1 X-57.8395 Y10.0216
G1 Y9.9784
G1 F100.0 Z-1.4
G1 F300.0 X-57.8423 Y9.9354
G1 X-57.848 Y9.8922
G1 X-57.8565 Y9.8495
G1 X-57.8675 Y9.8085
G1 X-57.8815 Y9.7673
G1 X-57.8981 Y9.7272
G1 X-57.9171 Y9.6886
G1 X-57.9389 Y9.6508
G1 X-57.9627 Y9.6152
G1 X-57.9892 Y9.5808
G1 X-58.0178 Y9.548
G1 X-58.048 Y9.5178
G1 X-58.0808 Y9.4892
G1 X-58.1152 Y9.4627
G1 X-58.1508 Y9.4389
G1 X-58.1886 Y9.4171
G1 X-58.2272 Y9.3981
G1 X-58.2673 Y9.3815
G1 X-58.3085 Y9.3675
G1 X-58.3495 Y9.3565
G1 X-58.3922 Y9.348
G1 X-58.4354 Y9.3423
G1 X-58.4784 Y9.3395
G1 X-58.5216
G1 X-58.5646 Y9.3423
G1 X-58.6078 Y9.348
G1 X-58.6505 Y9.3565
G1 X-58.6915 Y9.3675
G1 X-58.7327 Y9.3815
G1 X-58.7728 Y9.3981
G1 X-58.8114 Y9.4171
G1 X-58.8492 Y9.4389
G1 X-58.8848 Y9.4627
G1 X-58.9192 Y9.4892
G1 X-58.952 Y9.5178
G1 X-58.9822 Y9.548
G1 X-59.0108 Y9.5808
G1 X-59.0373 Y9.6152
G1 X-59.0611 Y9.6508
G1 X-59.0829 Y9.6886
G1 X-59.1019 Y9.7272
G1 X-59.1185 Y9.7673
G1 X-59.1325 Y9.8085
G1 X-59.1435 Y9.8495
G1 X-59.152 Y9.8922
G1 X-59.1577 Y9.9354
G1 X-59.1605 Y9.9784
G1 Y10.0216
G1 X-59.1577 Y10.0646
G1 X-59.152 Y10.1078
G1 X-59.1435 Y10.1505
G1 X-59.1325 Y10.1915
G1 X-59.1185 Y10.2327
G1 X-59.1019 Y10.2728
G1 X-59.0829 Y10.3114
G1 X-59.0611 Y10.3492
G1 X-59.0373 Y10.3848
G1 X-59.0108 Y10.4192
G1 X-58.9822 Y10.452
G1 X-58.952 Y10.4822
G1 X-58.9192 Y10.5108
G1 X-58.8848 Y10.5373
G1 X-58.8492 Y10.5611
G1 X-58.8114 Y10.5829
G1 X-58.7728 Y10.6019
G1 X-58.7327 Y10.6185
G1 X-58.6915 Y10.6325
G1 X-58.6505 Y10.6435
G1 X-58.6078 Y10.652
G1 X-58.5646 Y10.6577
G1 X-58.5216 Y10.6605
G1 X-58.4784
G1 X-58.4354 Y10.6577
G1 X-58.3922 Y10.652
G1 X-58.3495 Y10.6435
G1 X-58.3085 Y10.6325
G1 X-58.2673 Y10.6185
G1 X-58.2272 Y10.6019
G1 X-58.1886 Y10.5829
G1 X-58.1508 Y10.5611
G1 X-58.1152 Y10.5373
G1 X-58.0808 Y10.5108
G1 X-58.048 Y10.4822
G1 X-58.0178 Y10.452
G1 X-57.9892 Y10.4192
G1 X-57.9627 Y10.3848
G1 X-57.9389 Y10.3492
G1 X-57.9171 Y10.3114
G1 X-57.8981 Y10.2728
G1 X-57.8815 Y10.2327
G1 X-57.8675 Y10.1915
G1 X-57.8565 Y10.1505
G1 X-57.848 Y10.1078
G1 X-57.8423 Y10.0646
G1 X-57.8395 Y10.0216
G1 Y9.9784
G1 F100.0 Z-1.6
G1 F300.0 X-57.8423 Y9.9354
G1 X-57.848 Y9.8922
G1 X-57.8565 Y9.8495
G1 X-57.8675 Y9.8085
G1 X-57.8815 Y9.7673
G1 X-57.8981 Y9.7272
G1 X-57.9171 Y9.6886
G1 X-57.9389 Y9.6508
G1 X-57.9627 Y9.6152
G1 X-57.9892 Y9.5808
G1 X-58.0178 Y9.548
G1 X-58.048 Y9.5178
G1 X-58.0808 Y9.4892
G1 X-58.1152 Y9.4627
G1 X-58.1508 Y9.4389
G1 X-58.1886 Y9.4171
G1 X-58.2272 Y9.3981
G1 X-58.2673 Y9.3815
G1 X-58.3085 Y9.3675
G1 X-58.3495 Y9.3565
G1 X-58.3922 Y9.348
G1 X-58.4354 Y9.3423
G1 X-58.4784 Y9.3395
G1 X-58.5216
G1 X-58.5646 Y9.3423
G1 X-58.6078 Y9.348
G1 X-58.6505 Y9.3565
G1 X-58.6915 Y9.3675
G1 X-58.7327 Y9.3815
G1 X-58.7728 Y9.3981
G1 X-58.8114 Y9.4171
G1 X-58.8492 Y9.4389
G1 X-58.8848 Y9.4627
G1 X-58.9192 Y9.4892
G1 X-58.952 Y9.5178
G1 X-58.9822 Y9.548
G1 X-59.0108 Y9.5808
G1 X-59.0373 Y9.6152
G1 X-59.0611 Y9.6508
G1 X-59.0829 Y9.6886
G1 X-59.1019 Y9.7272
G1 X-59.1185 Y9.7673
G1 X-59.1325 Y9.8085
G1 X-59.1435 Y9.8495
G1 X-59.152 Y9.8922
G1 X-59.1577 Y9.9354
G1 X-59.1605 Y9.9784
G1 Y10.0216
G1 X-59.1577 Y10.0646
G1 X-59.152 Y10.1078
G1 X-59.1435 Y10.1505
G1 X-59.1325 Y10.1915
G1 X-59.1185 Y10.2327
G1 X-59.1019 Y10.2728
G1 X-59.0829 Y10.3114
G1 X-59.0611 Y10.3492
G1 X-59.0373 Y10.3848
G1 X-59.0108 Y10.4192
G1 X-58.9822 Y10.452
G1 X-58.952 Y10.4822
G1 X-58.9192 Y10.5108
G1 X-58.8848 Y10.5373
G1 X-58.8492 Y10.5611
G1 X-58.8114 Y10.5829
G1 X-58.7728 Y10.6019
G1 X-58.7327 Y10.6185
G1 X-58.6915 Y10.6325
G1 X-58.6505 Y10.6435
G1 X-58.6078 Y10.652
G1 X-58.5646 Y10.6577
G1 X-58.5216 Y10.6605
G1 X-58.4784
G1 X-58.4354 Y10.6577
G1 X-58.3922 Y10.652
G1 X-58.3495 Y10.6435
G1 X-58.3085 Y10.6325
G1 X-58.2673 Y10.6185
G1 X-58.2272 Y10.6019
G1 X-58.1886 Y10.5829
G1 X-58.1508 Y10.5611
G1 X-58.1152 Y10.5373
G1 X-58.0808 Y10.5108
G1 X-58.048 Y10.4822
G1 X-58.0178 Y10.452
G1 X-57.9892 Y10.4192
G1 X-57.9627 Y10.3848
G1 X-57.9389 Y10.3492
G1 X-57.9171 Y10.3114
G1 X-57.8981 Y10.2728
G1 X-57.8815 Y10.2327
G1 X-57.8675 Y10.1915
G1 X-57.8565 Y10.1505
G1 X-57.848 Y10.1078
G1 X-57.8423 Y10.0646
G1 X-57.8395 Y10.0216
G1 Y9.9784
G1 F100.0 Z-1.8
G1 F300.0 X-57.8423 Y9.9354
G1 X-57.848 Y9.8922
G1 X-57.8565 Y9.8495
G1 X-57.8675 Y9.8085
G1 X-57.8815 Y9.7673
G1 X-57.8981 Y9.7272
G1 X-57.9171 Y9.6886
G1 X-57.9389 Y9.6508
G1 X-57.9627 Y9.6152
G1 X-57.9892 Y9.5808
G1 X-58.0178 Y9.548
G1 X-58.048 Y9.5178
G1 X-58.0808 Y9.4892
G1 X-58.1152 Y9.4627
G1 X-58.1508 Y9.4389
G1 X-58.1886 Y9.4171
G1 X-58.2272 Y9.3981
G1 X-58.2673 Y9.3815
G1 X-58.3085 Y9.3675
G1 X-58.3495 Y9.3565
G1 X-58.3922 Y9.348
G1 X-58.4354 Y9.3423
G1 X-58.4784 Y9.3395
G1 X-58.5216
G1 X-58.5646 Y9.3423
G1 X-58.6078 Y9.348
G1 X-58.6505 Y9.3565
G1 X-58.6915 Y9.3675
G1 X-58.7327 Y9.3815
G1 X-58.7728 Y9.3981
G1 X-58.8114 Y9.4171
G1 X-58.8492 Y9.4389
G1 X-58.8848 Y9.4627
G1 X-58.9192 Y9.4892
G1 X-58.952 Y9.5178
G1 X-58.9822 Y9.548
G1 X-59.0108 Y9.5808
G1 X-59.0373 Y9.6152
G1 X-59.0611 Y9.6508
G1 X-59.0829 Y9.6886
G1 X-59.1019 Y9.7272
G1 X-59.1185 Y9.7673
G1 X-59.1325 Y9.8085
G1 X-59.1435 Y9.8495
G1 X-59.152 Y9.8922
G1 X-59.1577 Y9.9354
G1 X-59.1605 Y9.9784
G1 Y10.0216
G1 X-59.1577 Y10.0646
G1 X-59.152 Y10.1078
G1 X-59.1435 Y10.1505
G1 X-59.1325 Y10.1915
G1 X-59.1185 Y10.2327
G1 X-59.1019 Y10.2728
G1 X-59.0829 Y10.3114
G1 X-59.0611 Y10.3492
G1 X-59.0373 Y10.3848
G1 X-59.0108 Y10.4192
G1 X-58.9822 Y10.452
G1 X-58.952 Y10.4822
G1 X-58.9192 Y10.5108
G1 X-58.8848 Y10.5373
G1 X-58.8492 Y10.5611
G1 X-58.8114 Y10.5829
G1 X-58.7728 Y10.6019
G1 X-58.7327 Y10.6185
G1 X-58.6915 Y10.6325
G1 X-58.6505 Y10.6435
G1 X-58.6078 Y10.652
G1 X-58.5646 Y10.6577
G1 X-58.5216 Y10.6605
G1 X-58.4784
G1 X-58.4354 Y10.6577
G1 X-58.3922 Y10.652
G1 X-58.3495 Y10.6435
G1 X-58.3085 Y10.6325
G1 X-58.2673 Y10.6185
G1 X-58.2272 Y10.6019
G1 X-58.1886 Y10.5829
G1 X-58.1508 Y10.5611
G1 X-58.1152 Y10.5373
G1 X-58.0808 Y10.5108
G1 X-58.048 Y10.4822
G1 X-58.0178 Y10.452
G1 X-57.9892 Y10.4192
G1 X-57.9627 Y10.3848
G1 X-57.9389 Y10.3492
G1 X-57.9171 Y10.3114
G1 X-57.8981 Y10.2728
G1 X-57.8815 Y10.2327
G1 X-57.8675 Y10.1915
G1 X-57.8565 Y10.1505
G1 X-57.848 Y10.1078
G1 X-57.8423 Y10.0646
G1 X-57.8395 Y10.0216
G1 Y9.9784
G1 F100.0 Z-2.0
G1 F300.0 X-57.8423 Y9.9354
G1 X-57.848 Y9.8922
G1 X-57.8565 Y9.8495
G1 X-57.8675 Y9.8085
G1 X-57.8815 Y9.7673
G1 X-57.8981 Y9.7272
G1 X-57.9171 Y9.6886
G1 X-57.9389 Y9.6508
G1 X-57.9627 Y9.6152
G1 X-57.9892 Y9.5808
G1 X-58.0178 Y9.548
G1 X-58.048 Y9.5178
G1 X-58.0808 Y9.4892
G1 X-58.1152 Y9.4627
G1 X-58.1508 Y9.4389
G1 X-58.1886 Y9.4171
G1 X-58.2272 Y9.3981
G1 X-58.2673 Y9.3815
G1 X-58.3085 Y9.3675
G1 X-58.3495 Y9.3565
G1 X-58.3922 Y9.348
G1 X-58.4354 Y9.3423
G1 X-58.4784 Y9.3395
G1 X-58.5216
G1 X-58.5646 Y9.3423
G1 X-58.6078 Y9.348
G1 X-58.6505 Y9.3565
G1 X-58.6915 Y9.3675
G1 X-58.7327 Y9.3815
G1 X-58.7728 Y9.3981
G1 X-58.8114 Y9.4171
G1 X-58.8492 Y9.4389
G1 X-58.8848 Y9.4627
G1 X-58.9192 Y9.4892
G1 X-58.952 Y9.5178
G1 X-58.9822 Y9.548
G1 X-59.0108 Y9.5808
G1 X-59.0373 Y9.6152
G1 X-59.0611 Y9.6508
G1 X-59.0829 Y9.6886
G1 X-59.1019 Y9.7272
G1 X-59.1185 Y9.7673
G1 X-59.1325 Y9.8085
G1 X-59.1435 Y9.8495
G1 X-59.152 Y9.8922
G1 X-59.1577 Y9.9354
G1 X-59.1605 Y9.9784
G1 Y10.0216
G1 X-59.1577 Y10.0646
G1 X-59.152 Y10.1078
G1 X-59.1435 Y10.1505
G1 X-59.1325 Y10.1915
G1 X-59.1185 Y10.2327
G1 X-59.1019 Y10.2728
G1 X-59.0829 Y10.3114
G1 X-59.0611 Y10.3492
G1 X-59.0373 Y10.3848
G1 X-59.0108 Y10.4192
G1 X-58.9822 Y10.452
G1 X-58.952 Y10.4822
G1 X-58.9192 Y10.5108
G1 X-58.8848 Y10.5373
G1 X-58.8492 Y10.5611
G1 X-58.8114 Y10.5829
G1 X-58.7728 Y10.6019
G1 X-58.7327 Y10.6185
G1 X-58.6915 Y10.6325
G1 X-58.6505 Y10.6435
G1 X-58.6078 Y10.652
G1 X-58.5646 Y10.6577
G1 X-58.5216 Y10.6605
G1 X-58.4784
G1 X-58.4354 Y10.6577
G1 X-58.3922 Y10.652
G1 X-58.3495 Y10.6435
G1 X-58.3085 Y10.6325
G1 X-58.2673 Y10.6185
G1 X-58.2272 Y10.6019
G1 X-58.1886 Y10.5829
G1 X-58.1508 Y10.5611
G1 X-58.1152 Y10.5373
G1 X-58.0808 Y10.5108
G1 X-58.048 Y10.4822
G1 X-58.0178 Y10.452
G1 X-57.9892 Y10.4192
G1 X-57.9627 Y10.3848
G1 X-57.9389 Y10.3492
G1 X-57.9171 Y10.3114
G1 X-57.8981 Y10.2728
G1 X-57.8815 Y10.2327
G1 X-57.8675 Y10.1915
G1 X-57.8565 Y10.1505
G1 X-57.848 Y10.1078
G1 X-57.8423 Y10.0646
G1 X-57.8395 Y10.0216
G1 Y9.9784
G0 Z2.0
G0 X-58.4784 Y67.3395
G1 F100.0 Z-0.2
G1 F300.0 X-58.5216
G1 X-58.5646 Y67.3423
G1 X-58.6078 Y67.348
G1 X-58.6505 Y67.3565
G1 X-58.6915 Y67.3675
G1 X-58.7327 Y67.3815
G1 X-58.7728 Y67.3981
G1 X-58.8114 Y67.4171
G1 X-58.8492 Y67.4389
G1 X-58.8848 Y67.4627
G1 X-58.9192 Y67.4892
G1 X-58.952 Y67.5178
G1 X-58.9822 Y67.548
G1 X-59.0108 Y67.5808
G1 X-59.0373 Y67.6152
G1 X-59.0611 Y67.6508
G1 X-59.0829 Y67.6886
G1 X-59.1019 Y67.7272
G1 X-59.1185 Y67.7673
G1 X-59.1325 Y67.8085
G1 X-59.1435 Y67.8495
G1 X-59.152 Y67.8922
G1 X-59.1577 Y67.9354
G1 X-59.1605 Y67.9784
G1 Y68.0216
G1 X-59.1577 Y68.0646
G1 X-59.152 Y68.1078
G1 X-59.1435 Y68.1505
G1 X-59.1325 Y68.1915
G1 X-59.1185 Y68.2327
G1 X-59.1019 Y68.2728
G1 X-59.0829 Y68.3114
G1 X-59.0611 Y68.3492
G1 X-59.0373 Y68.3848
G1 X-59.0108 Y68.4192
G1 X-58.9822 Y68.452
G1 X-58.952 Y68.4822
G1 X-58.9192 Y68.5108
G1 X-58.8848 Y68.5373
G1 X-58.8492 Y68.5611
G1 X-58.8114 Y68.5829
G1 X-58.7728 Y68.6019
G1 X-58.7327 Y68.6185
G1 X-58.6915 Y68.6325
G1 X-58.6505 Y68.6435
G1 X-58.6078 Y68.652
G1 X-58.5646 Y68.6577
G1 X-58.5216 Y68.6605
G1 X-58.4784
G1 X-58.4354 Y68.6577
G1 X-58.3922 Y68.652
G1 X-58.3495 Y68.6435
G1 X-58.3085 Y68.6325
G1 X-58.2673 Y68.6185
G1 X-58.2272 Y68.6019
G1 X-58.1886 Y68.5829
G1 X-58.1508 Y68.5611
G1 X-58.1152 Y68.5373
G1 X-58.0808 Y68.5108
G1 X-58.048 Y68.4822
G1 X-58.0178 Y68.452
G1 X-57.9892 Y68.4192
G1 X-57.9627 Y68.3848
G1 X-57.9389 Y68.3492
G1 X-57.9171 Y68.3114
G1 X-57.8981 Y68.2728
G1 X-57.8815 Y68.2327
G1 X-57.8675 Y68.1915
G1 X-57.8565 Y68.1505
G1 X-57.848 Y68.1078
G1 X-57.8423 Y68.0646
G1 X-57.8395 Y68.0216
G1 Y67.9784
G1 X-57.8423 Y67.9354
G1 X-57.848 Y67.8922
G1 X-57.8565 Y67.8495
G1 X-57.8675 Y67.8085
G1 X-57.8815 Y67.7673
G1 X-57.8981 Y67.7272
G1 X-57.9171 Y67.6886
G1 X-57.9389 Y67.6508
G1 X-57.9627 Y67.6152
G1 X-57.9892 Y67.5808
G1 X-58.0178 Y67.548
G1 X-58.048 Y67.5178
G1 X-58.0808 Y67.4892
G1 X-58.1152 Y67.4627
G1 X-58.1508 Y67.4389
G1 X-58.1886 Y67.4171
G1 X-58.2272 Y67.3981
G1 X-58.2673 Y67.3815
G1 X-58.3085 Y67.3675
G1 X-58.3495 Y67.3565
G1 X-58.3922 Y67.348
G1 X-58.4354 Y67.3423
G1 X-58.4784 Y67.3395
G1 F100.0 Z-0.4
G1 F300.0 X-58.5216
G1 X-58.5646 Y67.3423
G1 X-58.6078 Y67.348
G1 X-58.6505 Y67.3565
G1 X-58.6915 Y67.3675
G1 X-58.7327 Y67.3815
G1 X-58.7728 Y67.3981
G1 X-58.8114 Y67.4171
G1 X-58.8492 Y67.4389
G1 X-58.8848 Y67.4627
G1 X-58.9192 Y67.4892
G1 X-58.952 Y67.5178
G1 X-58.9822 Y67.548
G1 X-59.0108 Y67.5808
G1 X-59.0373 Y67.6152
G1 X-59.0611 Y67.6508
G1 X-59.0829 Y67.6886
G1 X-59.1019 Y67.7272
G1 X-59.1185 Y67.7673
G1 X-59.1325 Y67.8085
G1 X-59.1435 Y67.8495
G1 X-59.152 Y67.8922
G1 X-59.1577 Y67.9354
G1 X-59.1605 Y67.9784
G1 Y68.0216
G1 X-59.1577 Y68.0646
G1 X-59.152 Y68.1078
G1 X-59.1435 Y68.1505
G1 X-59.1325 Y68.1915
G1 X-59.1185 Y68.2327
G1 X-59.1019 Y68.2728
G1 X-59.0829 Y68.3114
G1 X-59.0611 Y68.3492
G1 X-59.0373 Y68.3848
G1 X-59.0108 Y68.4192
G1 X-58.9822 Y68.452
G1 X-58.952 Y68.4822
G1 X-58.9192 Y68.5108
G1 X-58.8848 Y68.5373
G1 X-58.8492 Y68.5611
G1 X-58.8114 Y68.5829
G1 X-58.7728 Y68.6019
G1 X-58.7327 Y68.6185
G1 X-58.6915 Y68.6325
G1 X-58.6505 Y68.6435
G1 X-58.6078 Y68.652
G1 X-58.5646 Y68.6577
G1 X-58.5216 Y68.6605
G1 X-58.4784
G1 X-58.4354 Y68.6577
G1 X-58.3922 Y68.652
G1 X-58.3495 Y68.6435
G1 X-58.3085 Y68.6325
G1 X-58.2673 Y68.6185
G1 X-58.2272 Y68.6019
G1 X-58.1886 Y68.5829
G1 X-58.1508 Y68.5611
G1 X-58.1152 Y68.5373
G1 X-58.0808 Y68.5108
G1 X-58.048 Y68.4822
G1 X-58.0178 Y68.452
G1 X-57.9892 Y68.4192
G1 X-57.9627 Y68.3848
G1 X-57.9389 Y68.3492
G1 X-57.9171 Y68.3114
G1 X-57.8981 Y68.2728
G1 X-57.8815 Y68.2327
G1 X-57.8675 Y68.1915
G1 X-57.8565 Y68.1505
G1 X-57.848 Y68.1078
G1 X-57.8423 Y68.0646
G1 X-57.8395 Y68.0216
G1 Y67.9784
G1 X-57.8423 Y67.9354
G1 X-57.848 Y67.8922
G1 X-57.8565 Y67.8495
G1 X-57.8675 Y67.8085
G1 X-57.8815 Y67.7673
G1 X-57.8981 Y67.7272
G1 X-57.9171 Y67.6886
G1 X-57.9389 Y67.6508
G1 X-57.9627 Y67.6152
G1 X-57.9892 Y67.5808
G1 X-58.0178 Y67.548
G1 X-58.048 Y67.5178
G1 X-58.0808 Y67.4892
G1 X-58.1152 Y67.4627
G1 X-58.1508 Y67.4389
G1 X-58.1886 Y67.4171
G1 X-58.2272 Y67.3981
G1 X-58.2673 Y67.3815
G1 X-58.3085 Y67.3675
G1 X-58.3495 Y67.3565
G1 X-58.3922 Y67.348
G1 X-58.4354 Y67.3423
G1 X-58.4784 Y67.3395
G1 F100.0 Z-0.6
G1 F300.0 X-58.5216
G1 X-58.5646 Y67.3423
G1 X-58.6078 Y67.348
G1 X-58.6505 Y67.3565
G1 X-58.6915 Y67.3675
G1 X-58.7327 Y67.3815
G1 X-58.7728 Y67.3981
G1 X-58.8114 Y67.4171
G1 X-58.8492 Y67.4389
G1 X-58.8848 Y67.4627
G1 X-58.9192 Y67.4892
G1 X-58.952 Y67.5178
G1 X-58.9822 Y67.548
G1 X-59.0108 Y67.5808
G1 X-59.0373 Y67.6152
G1 X-59.0611 Y67.6508
G1 X-59.0829 Y67.6886
G1 X-59.1019 Y67.7272
G1 X-59.1185 Y67.7673
G1 X-59.1325 Y67.8085
G1 X-59.1435 Y67.8495
G1 X-59.152 Y67.8922
G1 X-59.1577 Y67.9354
G1 X-59.1605 Y67.9784
G1 Y68.0216
G1 X-59.1577 Y68.0646
G1 X-59.152 Y68.1078
G1 X-59.1435 Y68.1505
G1 X-59.1325 Y68.1915
G1 X-59.1185 Y68.2327
G1 X-59.1019 Y68.2728
G1 X-59.0829 Y68.3114
G1 X-59.0611 Y68.3492
G1 X-59.0373 Y68.3848
G1 X-59.0108 Y68.4192
G1 X-58.9822 Y68.452
G1 X-58.952 Y68.4822
G1 X-58.9192 Y68.5108
G1 X-58.8848 Y68.5373
G1 X-58.8492 Y68.5611
G1 X-58.8114 Y68.5829
G1 X-58.7728 Y68.6019
G1 X-58.7327 Y68.6185
G1 X-58.6915 Y68.6325
G1 X-58.6505 Y68.6435
G1 X-58.6078 Y68.652
G1 X-58.5646 Y68.6577
G1 X-58.5216 Y68.6605
G1 X-58.4784
G1 X-58.4354 Y68.6577
G1 X-58.3922 Y68.652
G1 X-58.3495 Y68.6435
G1 X-58.3085 Y68.6325
G1 X-58.2673 Y68.6185
G1 X-58.2272 Y68.6019
G1 X-58.1886 Y68.5829
G1 X-58.1508 Y68.5611
G1 X-58.1152 Y68.5373
G1 X-58.0808 Y68.5108
G1 X-58.048 Y68.4822
G1 X-58.0178 Y68.452
G1 X-57.9892 Y68.4192
G1 X-57.9627 Y68.3848
G1 X-57.9389 Y68.3492
G1 X-57.9171 Y68.3114
G1 X-57.8981 Y68.2728
G1 X-57.8815 Y68.2327
G1 X-57.8675 Y68.1915
G1 X-57.8565 Y68.1505
G1 X-57.848 Y68.1078
G1 X-57.8423 Y68.0646
G1 X-57.8395 Y68.0216
G1 Y67.9784
G1 X-57.8423 Y67.9354
G1 X-57.848 Y67.8922
G1 X-57.8565 Y67.8495
G1 X-57.8675 Y67.8085
G1 X-57.8815 Y67.7673
G1 X-57.8981 Y67.7272
G1 X-57.9171 Y67.6886
G1 X-57.9389 Y67.6508
G1 X-57.9627 Y67.6152
G1 X-57.9892 Y67.5808
G1 X-58.0178 Y67.548
G1 X-58.048 Y67.5178
G1 X-58.0808 Y67.4892
G1 X-58.1152 Y67.4627
G1 X-58.1508 Y67.4389
G1 X-58.1886 Y67.4171
G1 X-58.2272 Y67.3981
G1 X-58.2673 Y67.3815
G1 X-58.3085 Y67.3675
G1 X-58.3495 Y67.3565
G1 X-58.3922 Y67.348
G1 X-58.4354 Y67.3423
G1 X-58.4784 Y67.3395
G1 F100.0 Z-0.8
G1 F300.0 X-58.5216
G1 X-58.5646 Y67.3423
G1 X-58.6078 Y67.348
G1 X-58.6505 Y67.3565
G1 X-58.6915 Y67.3675
G1 X-58.7327 Y67.3815
G1 X-58.7728 Y67.3981
G1 X-58.8114 Y67.4171
G1 X-58.8492 Y67.4389
G1 X-58.8848 Y67.4627
G1 X-58.9192 Y67.4892
G1 X-58.952 Y67.5178
G1 X-58.9822 Y67.548
G1 X-59.0108 Y67.5808
G1 X-59.0373 Y67.6152
G1 X-59.0611 Y67.6508
G1 X-59.0829 Y67.6886
G1 X-59.1019 Y67.7272
G1 X-59.1185 Y67.7673
G1 X-59.1325 Y67.8085
G1 X-59.1435 Y67.8495
G1 X-59.152 Y67.8922
G1 X-59.1577 Y67.9354
G1 X-59.1605 Y67.9784
G1 Y68.0216
G1 X-59.1577 Y68.0646
G1 X-59.152 Y68.1078
G1 X-59.1435 Y68.1505
G1 X-59.1325 Y68.1915
G1 X-59.1185 Y68.2327
G1 X-59.1019 Y68.2728
G1 X-59.0829 Y68.3114
G1 X-59.0611 Y68.3492
G1 X-59.0373 Y68.3848
G1 X-59.0108 Y68.4192
G1 X-58.9822 Y68.452
G1 X-58.952 Y68.4822
G1 X-58.9192 Y68.5108
G1 X-58.8848 Y68.5373
G1 X-58.8492 Y68.5611
G1 X-58.8114 Y68.5829
G1 X-58.7728 Y68.6019
G1 X-58.7327 Y68.6185
G1 X-58.6915 Y68.6325
G1 X-58.6505 Y68.6435
G1 X-58.6078 Y68.652
G1 X-58.5646 Y68.6577
G1 X-58.5216 Y68.6605
G1 X-58.4784
G1 X-58.4354 Y68.6577
G1 X-58.3922 Y68.652
G1 X-58.3495 Y68.6435
G1 X-58.3085 Y68.6325
G1 X-58.2673 Y68.6185
G1 X-58.2272 Y68.6019
G1 X-58.1886 Y68.5829
G1 X-58.1508 Y68.5611
G1 X-58.1152 Y68.5373
G1 X-58.0808 Y68.5108
G1 X-58.048 Y68.4822
G1 X-58.0178 Y68.452
G1 X-57.9892 Y68.4192
G1 X-57.9627 Y68.3848
G1 X-57.9389 Y68.3492
G1 X-57.9171 Y68.3114
G1 X-57.8981 Y68.2728
G1 X-57.8815 Y68.2327
G1 X-57.8675 Y68.1915
G1 X-57.8565 Y68.1505
G1 X-57.848 Y68.1078
G1 X-57.8423 Y68.0646
G1 X-57.8395 Y68.0216
G1 Y67.9784
G1 X-57.8423 Y67.9354
G1 X-57.848 Y67.8922
G1 X-57.8565 Y67.8495
G1 X-57.8675 Y67.8085
G1 X-57.8815 Y67.7673
G1 X-57.8981 Y67.7272
G1 X-57.9171 Y67.6886
G1 X-57.9389 Y67.6508
G1 X-57.9627 Y67.6152
G1 X-57.9892 Y67.5808
G1 X-58.0178 Y67.548
G1 X-58.048 Y67.5178
G1 X-58.0808 Y67.4892
G1 X-58.1152 Y67.4627
G1 X-58.1508 Y67.4389
G1 X-58.1886 Y67.4171
G1 X-58.2272 Y67.3981
G1 X-58.2673 Y67.3815
G1 X-58.3085 Y67.3675
G1 X-58.3495 Y67.3565
G1 X-58.3922 Y67.348
G1 X-58.4354 Y67.3423
G1 X-58.4784 Y67.3395
G1 F100.0 Z-1.0
G1 F300.0 X-58.5216
G1 X-58.5646 Y67.3423
G1 X-58.6078 Y67.348
G1 X-58.6505 Y67.3565
G1 X-58.6915 Y67.3675
G1 X-58.7327 Y67.3815
G1 X-58.7728 Y67.3981
G1 X-58.8114 Y67.4171
G1 X-58.8492 Y67.4389
G1 X-58.8848 Y67.4627
G1 X-58.9192 Y67.4892
G1 X-58.952 Y67.5178
G1 X-58.9822 Y67.548
G1 X-59.0108 Y67.5808
G1 X-59.0373 Y67.6152
G1 X-59.0611 Y67.6508
G1 X-59.0829 Y67.6886
G1 X-59.1019 Y67.7272
G1 X-59.1185 Y67.7673
G1 X-59.1325 Y67.8085
G1 X-59.1435 Y67.8495
G1 X-59.152 Y67.8922
G1 X-59.1577 Y67.9354
G1 X-59.1605 Y67.9784
G1 Y68.0216
G1 X-59.1577 Y68.0646
G1 X-59.152 Y68.1078
G1 X-59.1435 Y68.1505
G1 X-59.1325 Y68.1915
G1 X-59.1185 Y68.2327
G1 X-59.1019 Y68.2728
G1 X-59.0829 Y68.3114
G1 X-59.0611 Y68.3492
G1 X-59.0373 Y68.3848
G1 X-59.0108 Y68.4192
G1 X-58.9822 Y68.452
G1 X-58.952 Y68.4822
G1 X-58.9192 Y68.5108
G1 X-58.8848 Y68.5373
G1 X-58.8492 Y68.5611
G1 X-58.8114 Y68.5829
G1 X-58.7728 Y68.6019
G1 X-58.7327 Y68.6185
G1 X-58.6915 Y68.6325
G1 X-58.6505 Y68.6435
G1 X-58.6078 Y68.652
G1 X-58.5646 Y68.6577
G1 X-58.5216 Y68.6605
G1 X-58.4784
G1 X-58.4354 Y68.6577
G1 X-58.3922 Y68.652
G1 X-58.3495 Y68.6435
G1 X-58.3085 Y68.6325
G1 X-58.2673 Y68.6185
G1 X-58.2272 Y68.6019
G1 X-58.1886 Y68.5829
G1 X-58.1508 Y68.5611
G1 X-58.1152 Y68.5373
G1 X-58.0808 Y68.5108
G1 X-58.048 Y68.4822
G1 X-58.0178 Y68.452
G1 X-57.9892 Y68.4192
G1 X-57.9627 Y68.3848
G1 X-57.9389 Y68.3492
G1 X-57.9171 Y68.3114
G1 X-57.8981 Y68.2728
G1 X-57.8815 Y68.2327
G1 X-57.8675 Y68.1915
G1 X-57.8565 Y68.1505
G1 X-57.848 Y68.1078
G1 X-57.8423 Y68.0646
G1 X-57.8395 Y68.0216
G1 Y67.9784
G1 X-57.8423 Y67.9354
G1 X-57.848 Y67.8922
G1 X-57.8565 Y67.8495
G1 X-57.8675 Y67.8085
G1 X-57.8815 Y67.7673
G1 X-57.8981 Y67.7272
G1 X-57.9171 Y67.6886
G1 X-57.9389 Y67.6508
G1 X-57.9627 Y67.6152
G1 X-57.9892 Y67.5808
G1 X-58.0178 Y67.548
G1 X-58.048 Y67.5178
G1 X-58.0808 Y67.4892
G1 X-58.1152 Y67.4627
G1 X-58.1508 Y67.4389
G1 X-58.1886 Y67.4171
G1 X-58.2272 Y67.3981
G1 X-58.2673 Y67.3815
G1 X-58.3085 Y67.3675
G1 X-58.3495 Y67.3565
G1 X-58.3922 Y67.348
G1 X-58.4354 Y67.3423
G1 X-58.4784 Y67.3395
G1 F100.0 Z-1.2
G1 F300.0 X-58.5216
G1 X-58.5646 Y67.3423
G1 X-58.6078 Y67.348
G1 X-58.6505 Y67.3565
G1 X-58.6915 Y67.3675
G1 X-58.7327 Y67.3815
G1 X-58.7728 Y67.3981
G1 X-58.8114 Y67.4171
G1 X-58.8492 Y67.4389
G1 X-58.8848 Y67.4627
G1 X-58.9192 Y67.4892
G1 X-58.952 Y67.5178
G1 X-58.9822 Y67.548
G1 X-59.0108 Y67.5808
G1 X-59.0373 Y67.6152
G1 X-59.0611 Y67.6508
G1 X-59.0829 Y67.6886
G1 X-59.1019 Y67.7272
G1 X-59.1185 Y67.7673
G1 X-59.1325 Y67.8085
G1 X-59.1435 Y67.8495
G1 X-59.152 Y67.8922
G1 X-59.1577 Y67.9354
G1 X-59.1605 Y67.9784
G1 Y68.0216
G1 X-59.1577 Y68.0646
G1 X-59.152 Y68.1078
G1 X-59.1435 Y68.1505
G1 X-59.1325 Y68.1915
G1 X-59.1185 Y68.2327
G1 X-59.1019 Y68.2728
G1 X-59.0829 Y68.3114
G1 X-59.0611 Y68.3492
G1 X-59.0373 Y68.3848
G1 X-59.0108 Y68.4192
G1 X-58.9822 Y68.452
G1 X-58.952 Y68.4822
G1 X-58.9192 Y68.5108
G1 X-58.8848 Y68.5373
G1 X-58.8492 Y68.5611
G1 X-58.8114 Y68.5829
G1 X-58.7728 Y68.6019
G1 X-58.7327 Y68.6185
G1 X-58.6915 Y68.6325
G1 X-58.6505 Y68.6435
G1 X-58.6078 Y68.652
G1 X-58.5646 Y68.6577
G1 X-58.5216 Y68.6605
G1 X-58.4784
G1 X-58.4354 Y68.6577
G1 X-58.3922 Y68.652
G1 X-58.3495 Y68.6435
G1 X-58.3085 Y68.6325
G1 X-58.2673 Y68.6185
G1 X-58.2272 Y68.6019
G1 X-58.1886 Y68.5829
G1 X-58.1508 Y68.5611
G1 X-58.1152 Y68.5373
G1 X-58.0808 Y68.5108
G1 X-58.048 Y68.4822
G1 X-58.0178 Y68.452
G1 X-57.9892 Y68.4192
G1 X-57.9627 Y68.3848
G1 X-57.9389 Y68.3492
G1 X-57.9171 Y68.3114
G1 X-57.8981 Y68.2728
G1 X-57.8815 Y68.2327
G1 X-57.8675 Y68.1915
G1 X-57.8565 Y68.1505
G1 X-57.848 Y68.1078
G1 X-57.8423 Y68.0646
G1 X-57.8395 Y68.0216
G1 Y67.9784
G1 X-57.8423 Y67.9354
G1 X-57.848 Y67.8922
G1 X-57.8565 Y67.8495
G1 X-57.8675 Y67.8085
G1 X-57.8815 Y67.7673
G1 X-57.8981 Y67.7272
G1 X-57.9171 Y67.6886
G1 X-57.9389 Y67.6508
G1 X-57.9627 Y67.6152
G1 X-57.9892 Y67.5808
G1 X-58.0178 Y67.548
G1 X-58.048 Y67.5178
G1 X-58.0808 Y67.4892
G1 X-58.1152 Y67.4627
G1 X-58.1508 Y67.4389
G1 X-58.1886 Y67.4171
G1 X-58.2272 Y67.3981
G1 X-58.2673 Y67.3815
G1 X-58.3085 Y67.3675
G1 X-58.3495 Y67.3565
G1 X-58.3922 Y67.348
G1 X-58.4354 Y67.3423
G1 X-58.4784 Y67.3395
G1 F100.0 Z-1.4
G1 F300.0 X-58.5216
G1 X-58.5646 Y67.3423
G1 X-58.6078 Y67.348
G1 X-58.6505 Y67.3565
G1 X-58.6915 Y67.3675
G1 X-58.7327 Y67.3815
G1 X-58.7728 Y67.3981
G1 X-58.8114 Y67.4171
G1 X-58.8492 Y67.4389
G1 X-58.8848 Y67.4627
G1 X-58.9192 Y67.4892
G1 X-58.952 Y67.5178
G1 X-58.9822 Y67.548
G1 X-59.0108 Y67.5808
G1 X-59.0373 Y67.6152
G1 X-59.0611 Y67.6508
G1 X-59.0829 Y67.6886
G1 X-59.1019 Y67.7272
G1 X-59.1185 Y67.7673
G1 X-59.1325 Y67.8085
G1 X-59.1435 Y67.8495
G1 X-59.152 Y67.8922
G1 X-59.1577 Y67.9354
G1 X-59.1605 Y67.9784
G1 Y68.0216
G1 X-59.1577 Y68.0646
G1 X-59.152 Y68.1078
G1 X-59.1435 Y68.1505
G1 X-59.1325 Y68.1915
G1 X-59.1185 Y68.2327
G1 X-59.1019 Y68.2728
G1 X-59.0829 Y68.3114
G1 X-59.0611 Y68.3492
G1 X-59.0373 Y68.3848
G1 X-59.0108 Y68.4192
G1 X-58.9822 Y68.452
G1 X-58.952 Y68.4822
G1 X-58.9192 Y68.5108
G1 X-58.8848 Y68.5373
G1 X-58.8492 Y68.5611
G1 X-58.8114 Y68.5829
G1 X-58.7728 Y68.6019
G1 X-58.7327 Y68.6185
G1 X-58.6915 Y68.6325
G1 X-58.6505 Y68.6435
G1 X-58.6078 Y68.652
G1 X-58.5646 Y68.6577
G1 X-58.5216 Y68.6605
G1 X-58.4784
G1 X-58.4354 Y68.6577
G1 X-58.3922 Y68.652
G1 X-58.3495 Y68.6435
G1 X-58.3085 Y68.6325
G1 X-58.2673 Y68.6185
G1 X-58.2272 Y68.6019
G1 X-58.1886 Y68.5829
G1 X-58.1508 Y68.5611
G1 X-58.1152 Y68.5373
G1 X-58.0808 Y68.5108
G1 X-58.048 Y68.4822
G1 X-58.0178 Y68.452
G1 X-57.9892 Y68.4192
G1 X-57.9627 Y68.3848
G1 X-57.9389 Y68.3492
G1 X-57.9171 Y68.3114
G1 X-57.8981 Y68.2728
G1 X-57.8815 Y68.2327
G1 X-57.8675 Y68.1915
G1 X-57.8565 Y68.1505
G1 X-57.848 Y68.1078
G1 X-57.8423 Y68.0646
G1 X-57.8395 Y68.0216
G1 Y67.9784
G1 X-57.8423 Y67.9354
G1 X-57.848 Y67.8922
G1 X-57.8565 Y67.8495
G1 X-57.8675 Y67.8085
G1 X-57.8815 Y67.7673
G1 X-57.8981 Y67.7272
G1 X-57.9171 Y67.6886
G1 X-57.9389 Y67.6508
G1 X-57.9627 Y67.6152
G1 X-57.9892 Y67.5808
G1 X-58.0178 Y67.548
G1 X-58.048 Y67.5178
G1 X-58.0808 Y67.4892
G1 X-58.1152 Y67.4627
G1 X-58.1508 Y67.4389
G1 X-58.1886 Y67.4171
G1 X-58.2272 Y67.3981
G1 X-58.2673 Y67.3815
G1 X-58.3085 Y67.3675
G1 X-58.3495 Y67.3565
G1 X-58.3922 Y67.348
G1 X-58.4354 Y67.3423
G1 X-58.4784 Y67.3395
G1 F100.0 Z-1.6
G1 F300.0 X-58.5216
G1 X-58.5646 Y67.3423
G1 X-58.6078 Y67.348
G1 X-58.6505 Y67.3565
G1 X-58.6915 Y67.3675
G1 X-58.7327 Y67.3815
G1 X-58.7728 Y67.3981
G1 X-58.8114 Y67.4171
G1 X-58.8492 Y67.4389
G1 X-58.8848 Y67.4627
G1 X-58.9192 Y67.4892
G1 X-58.952 Y67.5178
G1 X-58.9822 Y67.548
G1 X-59.0108 Y67.5808
G1 X-59.0373 Y67.6152
G1 X-59.0611 Y67.6508
G1 X-59.0829 Y67.6886
G1 X-59.1019 Y67.7272
G1 X-59.1185 Y67.7673
G1 X-59.1325 Y67.8085
G1 X-59.1435 Y67.8495
G1 X-59.152 Y67.8922
G1 X-59.1577 Y67.9354
G1 X-59.1605 Y67.9784
G1 Y68.0216
G1 X-59.1577 Y68.0646
G1 X-59.152 Y68.1078
G1 X-59.1435 Y68.1505
G1 X-59.1325 Y68.1915
G1 X-59.1185 Y68.2327
G1 X-59.1019 Y68.2728
G1 X-59.0829 Y68.3114
G1 X-59.0611 Y68.3492
G1 X-59.0373 Y68.3848
G1 X-59.0108 Y68.4192
G1 X-58.9822 Y68.452
G1 X-58.952 Y68.4822
G1 X-58.9192 Y68.5108
G1 X-58.8848 Y68.5373
G1 X-58.8492 Y68.5611
G1 X-58.8114 Y68.5829
G1 X-58.7728 Y68.6019
G1 X-58.7327 Y68.6185
G1 X-58.6915 Y68.6325
G1 X-58.6505 Y68.6435
G1 X-58.6078 Y68.652
G1 X-58.5646 Y68.6577
G1 X-58.5216 Y68.6605
G1 X-58.4784
G1 X-58.4354 Y68.6577
G1 X-58.3922 Y68.652
G1 X-58.3495 Y68.6435
G1 X-58.3085 Y68.6325
G1 X-58.2673 Y68.6185
G1 X-58.2272 Y68.6019
G1 X-58.1886 Y68.5829
G1 X-58.1508 Y68.5611
G1 X-58.1152 Y68.5373
G1 X-58.0808 Y68.5108
G1 X-58.048 Y68.4822
G1 X-58.0178 Y68.452
G1 X-57.9892 Y68.4192
G1 X-57.9627 Y68.3848
G1 X-57.9389 Y68.3492
G1 X-57.9171 Y68.3114
G1 X-57.8981 Y68.2728
G1 X-57.8815 Y68.2327
G1 X-57.8675 Y68.1915
G1 X-57.8565 Y68.1505
G1 X-57.848 Y68.1078
G1 X-57.8423 Y68.0646
G1 X-57.8395 Y68.0216
G1 Y67.9784
G1 X-57.8423 Y67.9354
G1 X-57.848 Y67.8922
G1 X-57.8565 Y67.8495
G1 X-57.8675 Y67.8085
G1 X-57.8815 Y67.7673
G1 X-57.8981 Y67.7272
G1 X-57.9171 Y67.6886
G1 X-57.9389 Y67.6508
G1 X-57.9627 Y67.6152
G1 X-57.9892 Y67.5808
G1 X-58.0178 Y67.548
G1 X-58.048 Y67.5178
G1 X-58.0808 Y67.4892
G1 X-58.1152 Y67.4627
G1 X-58.1508 Y67.4389
G1 X-58.1886 Y67.4171
G1 X-58.2272 Y67.3981
G1 X-58.2673 Y67.3815
G1 X-58.3085 Y67.3675
G1 X-58.3495 Y67.3565
G1 X-58.3922 Y67.348
G1 X-58.4354 Y67.3423
G1 X-58.4784 Y67.3395
G1 F100.0 Z-1.8
G1 F300.0 X-58.5216
G1 X-58.5646 Y67.3423
G1 X-58.6078 Y67.348
G1 X-58.6505 Y67.3565
G1 X-58.6915 Y67.3675
G1 X-58.7327 Y67.3815
G1 X-58.7728 Y67.3981
G1 X-58.8114 Y67.4171
G1 X-58.8492 Y67.4389
G1 X-58.8848 Y67.4627
G1 X-58.9192 Y67.4892
G1 X-58.952 Y67.5178
G1 X-58.9822 Y67.548
G1 X-59.0108 Y67.5808
G1 X-59.0373 Y67.6152
G1 X-59.0611 Y67.6508
G1 X-59.0829 Y67.6886
G1 X-59.1019 Y67.7272
G1 X-59.1185 Y67.7673
G1 X-59.1325 Y67.8085
G1 X-59.1435 Y67.8495
G1 X-59.152 Y67.8922
G1 X-59.1577 Y67.9354
G1 X-59.1605 Y67.9784
G1 Y68.0216
G1 X-59.1577 Y68.0646
G1 X-59.152 Y68.1078
G1 X-59.1435 Y68.1505
G1 X-59.1325 Y68.1915
G1 X-59.1185 Y68.2327
G1 X-59.1019 Y68.2728
G1 X-59.0829 Y68.3114
G1 X-59.0611 Y68.3492
G1 X-59.0373 Y68.3848
G1 X-59.0108 Y68.4192
G1 X-58.9822 Y68.452
G1 X-58.952 Y68.4822
G1 X-58.9192 Y68.5108
G1 X-58.8848 Y68.5373
G1 X-58.8492 Y68.5611
G1 X-58.8114 Y68.5829
G1 X-58.7728 Y68.6019
G1 X-58.7327 Y68.6185
G1 X-58.6915 Y68.6325
G1 X-58.6505 Y68.6435
G1 X-58.6078 Y68.652
G1 X-58.5646 Y68.6577
G1 X-58.5216 Y68.6605
G1 X-58.4784
G1 X-58.4354 Y68.6577
G1 X-58.3922 Y68.652
G1 X-58.3495 Y68.6435
G1 X-58.3085 Y68.6325
G1 X-58.2673 Y68.6185
G1 X-58.2272 Y68.6019
G1 X-58.1886 Y68.5829
G1 X-58.1508 Y68.5611
G1 X-58.1152 Y68.5373
G1 X-58.0808 Y68.5108
G1 X-58.048 Y68.4822
G1 X-58.0178 Y68.452
G1 X-57.9892 Y68.4192
G1 X-57.9627 Y68.3848
G1 X-57.9389 Y68.3492
G1 X-57.9171 Y68.3114
G1 X-57.8981 Y68.2728
G1 X-57.8815 Y68.2327
G1 X-57.8675 Y68.1915
G1 X-57.8565 Y68.1505
G1 X-57.848 Y68.1078
G1 X-57.8423 Y68.0646
G1 X-57.8395 Y68.0216
G1 Y67.9784
G1 X-57.8423 Y67.9354
G1 X-57.848 Y67.8922
G1 X-57.8565 Y67.8495
G1 X-57.8675 Y67.8085
G1 X-57.8815 Y67.7673
G1 X-57.8981 Y67.7272
G1 X-57.9171 Y67.6886
G1 X-57.9389 Y67.6508
G1 X-57.9627 Y67.6152
G1 X-57.9892 Y67.5808
G1 X-58.0178 Y67.548
G1 X-58.048 Y67.5178
G1 X-58.0808 Y67.4892
G1 X-58.1152 Y67.4627
G1 X-58.1508 Y67.4389
G1 X-58.1886 Y67.4171
G1 X-58.2272 Y67.3981
G1 X-58.2673 Y67.3815
G1 X-58.3085 Y67.3675
G1 X-58.3495 Y67.3565
G1 X-58.3922 Y67.348
G1 X-58.4354 Y67.3423
G1 X-58.4784 Y67.3395
G1 F100.0 Z-2.0
G1 F300.0 X-58.5216
G1 X-58.5646 Y67.3423
G1 X-58.6078 Y67.348
G1 X-58.6505 Y67.3565
G1 X-58.6915 Y67.3675
G1 X-58.7327 Y67.3815
G1 X-58.7728 Y67.3981
G1 X-58.8114 Y67.4171
G1 X-58.8492 Y67.4389
G1 X-58.8848 Y67.4627
G1 X-58.9192 Y67.4892
G1 X-58.952 Y67.5178
G1 X-58.9822 Y67.548
G1 X-59.0108 Y67.5808
G1 X-59.0373 Y67.6152
G1 X-59.0611 Y67.6508
G1 X-59.0829 Y67.6886
G1 X-59.1019 Y67.7272
G1 X-59.1185 Y67.7673
G1 X-59.1325 Y67.8085
G1 X-59.1435 Y67.8495
G1 X-59.152 Y67.8922
G1 X-59.1577 Y67.9354
G1 X-59.1605 Y67.9784
G1 Y68.0216
G1 X-59.1577 Y68.0646
G1 X-59.152 Y68.1078
G1 X-59.1435 Y68.1505
G1 X-59.1325 Y68.1915
G1 X-59.1185 Y68.2327
G1 X-59.1019 Y68.2728
G1 X-59.0829 Y68.3114
G1 X-59.0611 Y68.3492
G1 X-59.0373 Y68.3848
G1 X-59.0108 Y68.4192
G1 X-58.9822 Y68.452
G1 X-58.952 Y68.4822
G1 X-58.9192 Y68.5108
G1 X-58.8848 Y68.5373
G1 X-58.8492 Y68.5611
G1 X-58.8114 Y68.5829
G1 X-58.7728 Y68.6019
G1 X-58.7327 Y68.6185
G1 X-58.6915 Y68.6325
G1 X-58.6505 Y68.6435
G1 X-58.6078 Y68.652
G1 X-58.5646 Y68.6577
G1 X-58.5216 Y68.6605
G1 X-58.4784
G1 X-58.4354 Y68.6577
G1 X-58.3922 Y68.652
G1 X-58.3495 Y68.6435
G1 X-58.3085 Y68.6325
G1 X-58.2673 Y68.6185
G1 X-58.2272 Y68.6019
G1 X-58.1886 Y68.5829
G1 X-58.1508 Y68.5611
G1 X-58.1152 Y68.5373
G1 X-58.0808 Y68.5108
G1 X-58.048 Y68.4822
G1 X-58.0178 Y68.452
G1 X-57.9892 Y68.4192
G1 X-57.9627 Y68.3848
G1 X-57.9389 Y68.3492
G1 X-57.9171 Y68.3114
G1 X-57.8981 Y68.2728
G1 X-57.8815 Y68.2327
G1 X-57.8675 Y68.1915
G1 X-57.8565 Y68.1505
G1 X-57.848 Y68.1078
G1 X-57.8423 Y68.0646
G1 X-57.8395 Y68.0216
G1 Y67.9784
G1 X-57.8423 Y67.9354
G1 X-57.848 Y67.8922
G1 X-57.8565 Y67.8495
G1 X-57.8675 Y67.8085
G1 X-57.8815 Y67.7673
G1 X-57.8981 Y67.7272
G1 X-57.9171 Y67.6886
G1 X-57.9389 Y67.6508
G1 X-57.9627 Y67.6152
G1 X-57.9892 Y67.5808
G1 X-58.0178 Y67.548
G1 X-58.048 Y67.5178
G1 X-58.0808 Y67.4892
G1 X-58.1152 Y67.4627
G1 X-58.1508 Y67.4389
G1 X-58.1886 Y67.4171
G1 X-58.2272 Y67.3981
G1 X-58.2673 Y67.3815
G1 X-58.3085 Y67.3675
G1 X-58.3495 Y67.3565
G1 X-58.3922 Y67.348
G1 X-58.4354 Y67.3423
G1 X-58.4784 Y67.3395
G0 Z2.0
G0 X-10.1605 Y67.9784
G1 F100.0 Z-0.2
G1 F300.0 Y68.0216
G1 X-10.1577 Y68.0646
G1 X-10.152 Y68.1078
G1 X-10.1435 Y68.1505
G1 X-10.1325 Y68.1915
G1 X-10.1185 Y68.2327
G1 X-10.1019 Y68.2728
G1 X-10.0829 Y68.3114
G1 X-10.0611 Y68.3492
G1 X-10.0373 Y68.3848
G1 X-10.0108 Y68.4192
G1 X-9.9822 Y68.452
G1 X-9.952 Y68.4822
G1 X-9.9192 Y68.5108
G1 X-9.8848 Y68.5373
G1 X-9.8492 Y68.5611
G1 X-9.8114 Y68.5829
G1 X-9.7728 Y68.6019
G1 X-9.7327 Y68.6185
G1 X-9.6915 Y68.6325
G1 X-9.6505 Y68.6435
G1 X-9.6078 Y68.652
G1 X-9.5646 Y68.6577
G1 X-9.5216 Y68.6605
G1 X-9.4784
G1 X-9.4354 Y68.6577
G1 X-9.3922 Y68.652
G1 X-9.3495 Y68.6435
G1 X-9.3085 Y68.6325
G1 X-9.2673 Y68.6185
G1 X-9.2272 Y68.6019
G1 X-9.1886 Y68.5829
G1 X-9.1508 Y68.5611
G1 X-9.1152 Y68.5373
G1 X-9.0808 Y68.5108
G1 X-9.048 Y68.4822
G1 X-9.0178 Y68.452
G1 X-8.9892 Y68.4192
G1 X-8.9627 Y68.3848
G1 X-8.9389 Y68.3492
G1 X-8.9171 Y68.3114
G1 X-8.8981 Y68.2728
G1 X-8.8815 Y68.2327
G1 X-8.8675 Y68.1915
G1 X-8.8565 Y68.1505
G1 X-8.848 Y68.1078
G1 X-8.8423 Y68.0646
G1 X-8.8395 Y68.0216
G1 Y67.9784
G1 X-8.8423 Y67.9354
G1 X-8.848 Y67.8922
G1 X-8.8565 Y67.8495
G1 X-8.8675 Y67.8085
G1 X-8.8815 Y67.7673
G1 X-8.8981 Y67.7272
G1 X-8.9171 Y67.6886
G1 X-8.9389 Y67.6508
G1 X-8.9627 Y67.6152
G1 X-8.9892 Y67.5808
G1 X-9.0178 Y67.548
G1 X-9.048 Y67.5178
G1 X-9.0808 Y67.4892
G1 X-9.1152 Y67.4627
G1 X-9.1508 Y67.4389
G1 X-9.1886 Y67.4171
G1 X-9.2272 Y67.3981
G1 X-9.2673 Y67.3815
G1 X-9.3085 Y67.3675
G1 X-9.3495 Y67.3565
G1 X-9.3922 Y67.348
G1 X-9.4354 Y67.3423
G1 X-9.4784 Y67.3395
G1 X-9.5216
G1 X-9.5646 Y67.3423
G1 X-9.6078 Y67.348
G1 X-9.6505 Y67.3565
G1 X-9.6915 Y67.3675
G1 X-9.7327 Y67.3815
G1 X-9.7728 Y67.3981
G1 X-9.8114 Y67.4171
G1 X-9.8492 Y67.4389
G1 X-9.8848 Y67.4627
G1 X-9.9192 Y67.4892
G1 X-9.952 Y67.5178
G1 X-9.9822 Y67.548
G1 X-10.0108 Y67.5808
G1 X-10.0373 Y67.6152
G1 X-10.0611 Y67.6508
G1 X-10.0829 Y67.6886
G1 X-10.1019 Y67.7272
G1 X-10.1185 Y67.7673
G1 X-10.1325 Y67.8085
G1 X-10.1435 Y67.8495
G1 X-10.152 Y67.8922
G1 X-10.1577 Y67.9354
G1 X-10.1605 Y67.9784
G1 F100.0 Z-0.4
G1 F300.0 Y68.0216
G1 X-10.1577 Y68.0646
G1 X-10.152 Y68.1078
G1 X-10.1435 Y68.1505
G1 X-10.1325 Y68.1915
G1 X-10.1185 Y68.2327
G1 X-10.1019 Y68.2728
G1 X-10.0829 Y68.3114
G1 X-10.0611 Y68.3492
G1 X-10.0373 Y68.3848
G1 X-10.0108 Y68.4192
G1 X-9.9822 Y68.452
G1 X-9.952 Y68.4822
G1 X-9.9192 Y68.5108
G1 X-9.8848 Y68.5373
G1 X-9.8492 Y68.5611
G1 X-9.8114 Y68.5829
G1 X-9.7728 Y68.6019
G1 X-9.7327 Y68.6185
G1 X-9.6915 Y68.6325
G1 X-9.6505 Y68.6435
G1 X-9.6078 Y68.652
G1 X-9.5646 Y68.6577
G1 X-9.5216 Y68.6605
G1 X-9.4784
G1 X-9.4354 Y68.6577
G1 X-9.3922 Y68.652
G1 X-9.3495 Y68.6435
G1 X-9.3085 Y68.6325
G1 X-9.2673 Y68.6185
G1 X-9.2272 Y68.6019
G1 X-9.1886 Y68.5829
G1 X-9.1508 Y68.5611
G1 X-9.1152 Y68.5373
G1 X-9.0808 Y68.5108
G1 X-9.048 Y68.4822
G1 X-9.0178 Y68.452
G1 X-8.9892 Y68.4192
G1 X-8.9627 Y68.3848
G1 X-8.9389 Y68.3492
G1 X-8.9171 Y68.3114
G1 X-8.8981 Y68.2728
G1 X-8.8815 Y68.2327
G1 X-8.8675 Y68.1915
G1 X-8.8565 Y68.1505
G1 X-8.848 Y68.1078
G1 X-8.8423 Y68.0646
G1 X-8.8395 Y68.0216
G1 Y67.9784
G1 X-8.8423 Y67.9354
G1 X-8.848 Y67.8922
G1 X-8.8565 Y67.8495
G1 X-8.8675 Y67.8085
G1 X-8.8815 Y67.7673
G1 X-8.8981 Y67.7272
G1 X-8.9171 Y67.6886
G1 X-8.9389 Y67.6508
G1 X-8.9627 Y67.6152
G1 X-8.9892 Y67.5808
G1 X-9.0178 Y67.548
G1 X-9.048 Y67.5178
G1 X-9.0808 Y67.4892
G1 X-9.1152 Y67.4627
G1 X-9.1508 Y67.4389
G1 X-9.1886 Y67.4171
G1 X-9.2272 Y67.3981
G1 X-9.2673 Y67.3815
G1 X-9.3085 Y67.3675
G1 X-9.3495 Y67.3565
G1 X-9.3922 Y67.348
G1 X-9.4354 Y67.3423
G1 X-9.4784 Y67.3395
G1 X-9.5216
G1 X-9.5646 Y67.3423
G1 X-9.6078 Y67.348
G1 X-9.6505 Y67.3565
G1 X-9.6915 Y67.3675
G1 X-9.7327 Y67.3815
G1 X-9.7728 Y67.3981
G1 X-9.8114 Y67.4171
G1 X-9.8492 Y67.4389
G1 X-9.8848 Y67.4627
G1 X-9.9192 Y67.4892
G1 X-9.952 Y67.5178
G1 X-9.9822 Y67.548
G1 X-10.0108 Y67.5808
G1 X-10.0373 Y67.6152
G1 X-10.0611 Y67.6508
G1 X-10.0829 Y67.6886
G1 X-10.1019 Y67.7272
G1 X-10.1185 Y67.7673
G1 X-10.1325 Y67.8085
G1 X-10.1435 Y67.8495
G1 X-10.152 Y67.8922
G1 X-10.1577 Y67.9354
G1 X-10.1605 Y67.9784
G1 F100.0 Z-0.6
G1 F300.0 Y68.0216
G1 X-10.1577 Y68.0646
G1 X-10.152 Y68.1078
G1 X-10.1435 Y68.1505
G1 X-10.1325 Y68.1915
G1 X-10.1185 Y68.2327
G1 X-10.1019 Y68.2728
G1 X-10.0829 Y68.3114
G1 X-10.0611 Y68.3492
G1 X-10.0373 Y68.3848
G1 X-10.0108 Y68.4192
G1 X-9.9822 Y68.452
G1 X-9.952 Y68.4822
G1 X-9.9192 Y68.5108
G1 X-9.8848 Y68.5373
G1 X-9.8492 Y68.5611
G1 X-9.8114 Y68.5829
G1 X-9.7728 Y68.6019
G1 X-9.7327 Y68.6185
G1 X-9.6915 Y68.6325
G1 X-9.6505 Y68.6435
G1 X-9.6078 Y68.652
G1 X-9.5646 Y68.6577
G1 X-9.5216 Y68.6605
G1 X-9.4784
G1 X-9.4354 Y68.6577
G1 X-9.3922 Y68.652
G1 X-9.3495 Y68.6435
G1 X-9.3085 Y68.6325
G1 X-9.2673 Y68.6185
G1 X-9.2272 Y68.6019
G1 X-9.1886 Y68.5829
G1 X-9.1508 Y68.5611
G1 X-9.1152 Y68.5373
G1 X-9.0808 Y68.5108
G1 X-9.048 Y68.4822
G1 X-9.0178 Y68.452
G1 X-8.9892 Y68.4192
G1 X-8.9627 Y68.3848
G1 X-8.9389 Y68.3492
G1 X-8.9171 Y68.3114
G1 X-8.8981 Y68.2728
G1 X-8.8815 Y68.2327
G1 X-8.8675 Y68.1915
G1 X-8.8565 Y68.1505
G1 X-8.848 Y68.1078
G1 X-8.8423 Y68.0646
G1 X-8.8395 Y68.0216
G1 Y67.9784
G1 X-8.8423 Y67.9354
G1 X-8.848 Y67.8922
G1 X-8.8565 Y67.8495
G1 X-8.8675 Y67.8085
G1 X-8.8815 Y67.7673
G1 X-8.8981 Y67.7272
G1 X-8.9171 Y67.6886
G1 X-8.9389 Y67.6508
G1 X-8.9627 Y67.6152
G1 X-8.9892 Y67.5808
G1 X-9.0178 Y67.548
G1 X-9.048 Y67.5178
G1 X-9.0808 Y67.4892
G1 X-9.1152 Y67.4627
G1 X-9.1508 Y67.4389
G1 X-9.1886 Y67.4171
G1 X-9.2272 Y67.3981
G1 X-9.2673 Y67.3815
G1 X-9.3085 Y67.3675
G1 X-9.3495 Y67.3565
G1 X-9.3922 Y67.348
G1 X-9.4354 Y67.3423
G1 X-9.4784 Y67.3395
G1 X-9.5216
G1 X-9.5646 Y67.3423
G1 X-9.6078 Y67.348
G1 X-9.6505 Y67.3565
G1 X-9.6915 Y67.3675
G1 X-9.7327 Y67.3815
G1 X-9.7728 Y67.3981
G1 X-9.8114 Y67.4171
G1 X-9.8492 Y67.4389
G1 X-9.8848 Y67.4627
G1 X-9.9192 Y67.4892
G1 X-9.952 Y67.5178
G1 X-9.9822 Y67.548
G1 X-10.0108 Y67.5808
G1 X-10.0373 Y67.6152
G1 X-10.0611 Y67.6508
G1 X-10.0829 Y67.6886
G1 X-10.1019 Y67.7272
G1 X-10.1185 Y67.7673
G1 X-10.1325 Y67.8085
G1 X-10.1435 Y67.8495
G1 X-10.152 Y67.8922
G1 X-10.1577 Y67.9354
G1 X-10.1605 Y67.9784
G1 F100.0 Z-0.8
G1 F300.0 Y68.0216
G1 X-10.1577 Y68.0646
G1 X-10.152 Y68.1078
G1 X-10.1435 Y68.1505
G1 X-10.1325 Y68.1915
G1 X-10.1185 Y68.2327
G1 X-10.1019 Y68.2728
G1 X-10.0829 Y68.3114
G1 X-10.0611 Y68.3492
G1 X-10.0373 Y68.3848
G1 X-10.0108 Y68.4192
G1 X-9.9822 Y68.452
G1 X-9.952 Y68.4822
G1 X-9.9192 Y68.5108
G1 X-9.8848 Y68.5373
G1 X-9.8492 Y68.5611
G1 X-9.8114 Y68.5829
G1 X-9.7728 Y68.6019
G1 X-9.7327 Y68.6185
G1 X-9.6915 Y68.6325
G1 X-9.6505 Y68.6435
G1 X-9.6078 Y68.652
G1 X-9.5646 Y68.6577
G1 X-9.5216 Y68.6605
G1 X-9.4784
G1 X-9.4354 Y68.6577
G1 X-9.3922 Y68.652
G1 X-9.3495 Y68.6435
G1 X-9.3085 Y68.6325
G1 X-9.2673 Y68.6185
G1 X-9.2272 Y68.6019
G1 X-9.1886 Y68.5829
G1 X-9.1508 Y68.5611
G1 X-9.1152 Y68.5373
G1 X-9.0808 Y68.5108
G1 X-9.048 Y68.4822
G1 X-9.0178 Y68.452
G1 X-8.9892 Y68.4192
G1 X-8.9627 Y68.3848
G1 X-8.9389 Y68.3492
G1 X-8.9171 Y68.3114
G1 X-8.8981 Y68.2728
G1 X-8.8815 Y68.2327
G1 X-8.8675 Y68.1915
G1 X-8.8565 Y68.1505
G1 X-8.848 Y68.1078
G1 X-8.8423 Y68.0646
G1 X-8.8395 Y68.0216
G1 Y67.9784
G1 X-8.8423 Y67.9354
G1 X-8.848 Y67.8922
G1 X-8.8565 Y67.8495
G1 X-8.8675 Y67.8085
G1 X-8.8815 Y67.7673
G1 X-8.8981 Y67.7272
G1 X-8.9171 Y67.6886
G1 X-8.9389 Y67.6508
G1 X-8.9627 Y67.6152
G1 X-8.9892 Y67.5808
G1 X-9.0178 Y67.548
G1 X-9.048 Y67.5178
G1 X-9.0808 Y67.4892
G1 X-9.1152 Y67.4627
G1 X-9.1508 Y67.4389
G1 X-9.1886 Y67.4171
G1 X-9.2272 Y67.3981
G1 X-9.2673 Y67.3815
G1 X-9.3085 Y67.3675
G1 X-9.3495 Y67.3565
G1 X-9.3922 Y67.348
G1 X-9.4354 Y67.3423
G1 X-9.4784 Y67.3395
G1 X-9.5216
G1 X-9.5646 Y67.3423
G1 X-9.6078 Y67.348
G1 X-9.6505 Y67.3565
G1 X-9.6915 Y67.3675
G1 X-9.7327 Y67.3815
G1 X-9.7728 Y67.3981
G1 X-9.8114 Y67.4171
G1 X-9.8492 Y67.4389
G1 X-9.8848 Y67.4627
G1 X-9.9192 Y67.4892
G1 X-9.952 Y67.5178
G1 X-9.9822 Y67.548
G1 X-10.0108 Y67.5808
G1 X-10.0373 Y67.6152
G1 X-10.0611 Y67.6508
G1 X-10.0829 Y67.6886
G1 X-10.1019 Y67.7272
G1 X-10.1185 Y67.7673
G1 X-10.1325 Y67.8085
G1 X-10.1435 Y67.8495
G1 X-10.152 Y67.8922
G1 X-10.1577 Y67.9354
G1 X-10.1605 Y67.9784
G1 F100.0 Z-1.0
G1 F300.0 Y68.0216
G1 X-10.1577 Y68.0646
G1 X-10.152 Y68.1078
G1 X-10.1435 Y68.1505
G1 X-10.1325 Y68.1915
G1 X-10.1185 Y68.2327
G1 X-10.1019 Y68.2728
G1 X-10.0829 Y68.3114
G1 X-10.0611 Y68.3492
G1 X-10.0373 Y68.3848
G1 X-10.0108 Y68.4192
G1 X-9.9822 Y68.452
G1 X-9.952 Y68.4822
G1 X-9.9192 Y68.5108
G1 X-9.8848 Y68.5373
G1 X-9.8492 Y68.5611
G1 X-9.8114 Y68.5829
G1 X-9.7728 Y68.6019
G1 X-9.7327 Y68.6185
G1 X-9.6915 Y68.6325
G1 X-9.6505 Y68.6435
G1 X-9.6078 Y68.652
G1 X-9.5646 Y68.6577
G1 X-9.5216 Y68.6605
G1 X-9.4784
G1 X-9.4354 Y68.6577
G1 X-9.3922 Y68.652
G1 X-9.3495 Y68.6435
G1 X-9.3085 Y68.6325
G1 X-9.2673 Y68.6185
G1 X-9.2272 Y68.6019
G1 X-9.1886 Y68.5829
G1 X-9.1508 Y68.5611
G1 X-9.1152 Y68.5373
G1 X-9.0808 Y68.5108
G1 X-9.048 Y68.4822
G1 X-9.0178 Y68.452
G1 X-8.9892 Y68.4192
G1 X-8.9627 Y68.3848
G1 X-8.9389 Y68.3492
G1 X-8.9171 Y68.3114
G1 X-8.8981 Y68.2728
G1 X-8.8815 Y68.2327
G1 X-8.8675 Y68.1915
G1 X-8.8565 Y68.1505
G1 X-8.848 Y68.1078
G1 X-8.8423 Y68.0646
G1 X-8.8395 Y68.0216
G1 Y67.9784
G1 X-8.8423 Y67.9354
G1 X-8.848 Y67.8922
G1 X-8.8565 Y67.8495
G1 X-8.8675 Y67.8085
G1 X-8.8815 Y67.7673
G1 X-8.8981 Y67.7272
G1 X-8.9171 Y67.6886
G1 X-8.9389 Y67.6508
G1 X-8.9627 Y67.6152
G1 X-8.9892 Y67.5808
G1 X-9.0178 Y67.548
G1 X-9.048 Y67.5178
G1 X-9.0808 Y67.4892
G1 X-9.1152 Y67.4627
G1 X-9.1508 Y67.4389
G1 X-9.1886 Y67.4171
G1 X-9.2272 Y67.3981
G1 X-9.2673 Y67.3815
G1 X-9.3085 Y67.3675
G1 X-9.3495 Y67.3565
G1 X-9.3922 Y67.348
G1 X-9.4354 Y67.3423
G1 X-9.4784 Y67.3395
G1 X-9.5216
G1 X-9.5646 Y67.3423
G1 X-9.6078 Y67.348
G1 X-9.6505 Y67.3565
G1 X-9.6915 Y67.3675
G1 X-9.7327 Y67.3815
G1 X-9.7728 Y67.3981
G1 X-9.8114 Y67.4171
G1 X-9.8492 Y67.4389
G1 X-9.8848 Y67.4627
G1 X-9.9192 Y67.4892
G1 X-9.952 Y67.5178
G1 X-9.9822 Y67.548
G1 X-10.0108 Y67.5808
G1 X-10.0373 Y67.6152
G1 X-10.0611 Y67.6508
G1 X-10.0829 Y67.6886
G1 X-10.1019 Y67.7272
G1 X-10.1185 Y67.7673
G1 X-10.1325 Y67.8085
G1 X-10.1435 Y67.8495
G1 X-10.152 Y67.8922
G1 X-10.1577 Y67.9354
G1 X-10.1605 Y67.9784
G1 F100.0 Z-1.2
G1 F300.0 Y68.0216
G1 X-10.1577 Y68.0646
G1 X-10.152 Y68.1078
G1 X-10.1435 Y68.1505
G1 X-10.1325 Y68.1915
G1 X-10.1185 Y68.2327
G1 X-10.1019 Y68.2728
G1 X-10.0829 Y68.3114
G1 X-10.0611 Y68.3492
G1 X-10.0373 Y68.3848
G1 X-10.0108 Y68.4192
G1 X-9.9822 Y68.452
G1 X-9.952 Y68.4822
G1 X-9.9192 Y68.5108
G1 X-9.8848 Y68.5373
G1 X-9.8492 Y68.5611
G1 X-9.8114 Y68.5829
G1 X-9.7728 Y68.6019
G1 X-9.7327 Y68.6185
G1 X-9.6915 Y68.6325
G1 X-9.6505 Y68.6435
G1 X-9.6078 Y68.652
G1 X-9.5646 Y68.6577
G1 X-9.5216 Y68.6605
G1 X-9.4784
G1 X-9.4354 Y68.6577
G1 X-9.3922 Y68.652
G1 X-9.3495 Y68.6435
G1 X-9.3085 Y68.6325
G1 X-9.2673 Y68.6185
G1 X-9.2272 Y68.6019
G1 X-9.1886 Y68.5829
G1 X-9.1508 Y68.5611
G1 X-9.1152 Y68.5373
G1 X-9.0808 Y68.5108
G1 X-9.048 Y68.4822
G1 X-9.0178 Y68.452
G1 X-8.9892 Y68.4192
G1 X-8.9627 Y68.3848
G1 X-8.9389 Y68.3492
G1 X-8.9171 Y68.3114
G1 X-8.8981 Y68.2728
G1 X-8.8815 Y68.2327
G1 X-8.8675 Y68.1915
G1 X-8.8565 Y68.1505
G1 X-8.848 Y68.1078
G1 X-8.8423 Y68.0646
G1 X-8.8395 Y68.0216
G1 Y67.9784
G1 X-8.8423 Y67.9354
G1 X-8.848 Y67.8922
G1 X-8.8565 Y67.8495
G1 X-8.8675 Y67.8085
G1 X-8.8815 Y67.7673
G1 X-8.8981 Y67.7272
G1 X-8.9171 Y67.6886
G1 X-8.9389 Y67.6508
G1 X-8.9627 Y67.6152
G1 X-8.9892 Y67.5808
G1 X-9.0178 Y67.548
G1 X-9.048 Y67.5178
G1 X-9.0808 Y67.4892
G1 X-9.1152 Y67.4627
G1 X-9.1508 Y67.4389
G1 X-9.1886 Y67.4171
G1 X-9.2272 Y67.3981
G1 X-9.2673 Y67.3815
G1 X-9.3085 Y67.3675
G1 X-9.3495 Y67.3565
G1 X-9.3922 Y67.348
G1 X-9.4354 Y67.3423
G1 X-9.4784 Y67.3395
G1 X-9.5216
G1 X-9.5646 Y67.3423
G1 X-9.6078 Y67.348
G1 X-9.6505 Y67.3565
G1 X-9.6915 Y67.3675
G1 X-9.7327 Y67.3815
G1 X-9.7728 Y67.3981
G1 X-9.8114 Y67.4171
G1 X-9.8492 Y67.4389
G1 X-9.8848 Y67.4627
G1 X-9.9192 Y67.4892
G1 X-9.952 Y67.5178
G1 X-9.9822 Y67.548
G1 X-10.0108 Y67.5808
G1 X-10.0373 Y67.6152
G1 X-10.0611 Y67.6508
G1 X-10.0829 Y67.6886
G1 X-10.1019 Y67.7272
G1 X-10.1185 Y67.7673
G1 X-10.1325 Y67.8085
G1 X-10.1435 Y67.8495
G1 X-10.152 Y67.8922
G1 X-10.1577 Y67.9354
G1 X-10.1605 Y67.9784
G1 F100.0 Z-1.4
G1 F300.0 Y68.0216
G1 X-10.1577 Y68.0646
G1 X-10.152 Y68.1078
G1 X-10.1435 Y68.1505
G1 X-10.1325 Y68.1915
G1 X-10.1185 Y68.2327
G1 X-10.1019 Y68.2728
G1 X-10.0829 Y68.3114
G1 X-10.0611 Y68.3492
G1 X-10.0373 Y68.3848
G1 X-10.0108 Y68.4192
G1 X-9.9822 Y68.452
G1 X-9.952 Y68.4822
G1 X-9.9192 Y68.5108
G1 X-9.8848 Y68.5373
G1 X-9.8492 Y68.5611
G1 X-9.8114 Y68.5829
G1 X-9.7728 Y68.6019
G1 X-9.7327 Y68.6185
G1 X-9.6915 Y68.6325
G1 X-9.6505 Y68.6435
G1 X-9.6078 Y68.652
G1 X-9.5646 Y68.6577
G1 X-9.5216 Y68.6605
G1 X-9.4784
G1 X-9.4354 Y68.6577
G1 X-9.3922 Y68.652
G1 X-9.3495 Y68.6435
G1 X-9.3085 Y68.6325
G1 X-9.2673 Y68.6185
G1 X-9.2272 Y68.6019
G1 X-9.1886 Y68.5829
G1 X-9.1508 Y68.5611
G1 X-9.1152 Y68.5373
G1 X-9.0808 Y68.5108
G1 X-9.048 Y68.4822
G1 X-9.0178 Y68.452
G1 X-8.9892 Y68.4192
G1 X-8.9627 Y68.3848
G1 X-8.9389 Y68.3492
G1 X-8.9171 Y68.3114
G1 X-8.8981 Y68.2728
G1 X-8.8815 Y68.2327
G1 X-8.8675 Y68.1915
G1 X-8.8565 Y68.1505
G1 X-8.848 Y68.1078
G1 X-8.8423 Y68.0646
G1 X-8.8395 Y68.0216
G1 Y67.9784
G1 X-8.8423 Y67.9354
G1 X-8.848 Y67.8922
G1 X-8.8565 Y67.8495
G1 X-8.8675 Y67.8085
G1 X-8.8815 Y67.7673
G1 X-8.8981 Y67.7272
G1 X-8.9171 Y67.6886
G1 X-8.9389 Y67.6508
G1 X-8.9627 Y67.6152
G1 X-8.9892 Y67.5808
G1 X-9.0178 Y67.548
G1 X-9.048 Y67.5178
G1 X-9.0808 Y67.4892
G1 X-9.1152 Y67.4627
G1 X-9.1508 Y67.4389
G1 X-9.1886 Y67.4171
G1 X-9.2272 Y67.3981
G1 X-9.2673 Y67.3815
G1 X-9.3085 Y67.3675
G1 X-9.3495 Y67.3565
G1 X-9.3922 Y67.348
G1 X-9.4354 Y67.3423
G1 X-9.4784 Y67.3395
G1 X-9.5216
G1 X-9.5646 Y67.3423
G1 X-9.6078 Y67.348
G1 X-9.6505 Y67.3565
G1 X-9.6915 Y67.3675
G1 X-9.7327 Y67.3815
G1 X-9.7728 Y67.3981
G1 X-9.8114 Y67.4171
G1 X-9.8492 Y67.4389
G1 X-9.8848 Y67.4627
G1 X-9.9192 Y67.4892
G1 X-9.952 Y67.5178
G1 X-9.9822 Y67.548
G1 X-10.0108 Y67.5808
G1 X-10.0373 Y67.6152
G1 X-10.0611 Y67.6508
G1 X-10.0829 Y67.6886
G1 X-10.1019 Y67.7272
G1 X-10.1185 Y67.7673
G1 X-10.1325 Y67.8085
G1 X-10.1435 Y67.8495
G1 X-10.152 Y67.8922
G1 X-10.1577 Y67.9354
G1 X-10.1605 Y67.9784
G1 F100.0 Z-1.6
G1 F300.0 Y68.0216
G1 X-10.1577 Y68.0646
G1 X-10.152 Y68.1078
G1 X-10.1435 Y68.1505
G1 X-10.1325 Y68.1915
G1 X-10.1185 Y68.2327
G1 X-10.1019 Y68.2728
G1 X-10.0829 Y68.3114
G1 X-10.0611 Y68.3492
G1 X-10.0373 Y68.3848
G1 X-10.0108 Y68.4192
G1 X-9.9822 Y68.452
G1 X-9.952 Y68.4822
G1 X-9.9192 Y68.5108
G1 X-9.8848 Y68.5373
G1 X-9.8492 Y68.5611
G1 X-9.8114 Y68.5829
G1 X-9.7728 Y68.6019
G1 X-9.7327 Y68.6185
G1 X-9.6915 Y68.6325
G1 X-9.6505 Y68.6435
G1 X-9.6078 Y68.652
G1 X-9.5646 Y68.6577
G1 X-9.5216 Y68.6605
G1 X-9.4784
G1 X-9.4354 Y68.6577
G1 X-9.3922 Y68.652
G1 X-9.3495 Y68.6435
G1 X-9.3085 Y68.6325
G1 X-9.2673 Y68.6185
G1 X-9.2272 Y68.6019
G1 X-9.1886 Y68.5829
G1 X-9.1508 Y68.5611
G1 X-9.1152 Y68.5373
G1 X-9.0808 Y68.5108
G1 X-9.048 Y68.4822
G1 X-9.0178 Y68.452
G1 X-8.9892 Y68.4192
G1 X-8.9627 Y68.3848
G1 X-8.9389 Y68.3492
G1 X-8.9171 Y68.3114
G1 X-8.8981 Y68.2728
G1 X-8.8815 Y68.2327
G1 X-8.8675 Y68.1915
G1 X-8.8565 Y68.1505
G1 X-8.848 Y68.1078
G1 X-8.8423 Y68.0646
G1 X-8.8395 Y68.0216
G1 Y67.9784
G1 X-8.8423 Y67.9354
G1 X-8.848 Y67.8922
G1 X-8.8565 Y67.8495
G1 X-8.8675 Y67.8085
G1 X-8.8815 Y67.7673
G1 X-8.8981 Y67.7272
G1 X-8.9171 Y67.6886
G1 X-8.9389 Y67.6508
G1 X-8.9627 Y67.6152
G1 X-8.9892 Y67.5808
G1 X-9.0178 Y67.548
G1 X-9.048 Y67.5178
G1 X-9.0808 Y67.4892
G1 X-9.1152 Y67.4627
G1 X-9.1508 Y67.4389
G1 X-9.1886 Y67.4171
G1 X-9.2272 Y67.3981
G1 X-9.2673 Y67.3815
G1 X-9.3085 Y67.3675
G1 X-9.3495 Y67.3565
G1 X-9.3922 Y67.348
G1 X-9.4354 Y67.3423
G1 X-9.4784 Y67.3395
G1 X-9.5216
G1 X-9.5646 Y67.3423
G1 X-9.6078 Y67.348
G1 X-9.6505 Y67.3565
G1 X-9.6915 Y67.3675
G1 X-9.7327 Y67.3815
G1 X-9.7728 Y67.3981
G1 X-9.8114 Y67.4171
G1 X-9.8492 Y67.4389
G1 X-9.8848 Y67.4627
G1 X-9.9192 Y67.4892
G1 X-9.952 Y67.5178
G1 X-9.9822 Y67.548
G1 X-10.0108 Y67.5808
G1 X-10.0373 Y67.6152
G1 X-10.0611 Y67.6508
G1 X-10.0829 Y67.6886
G1 X-10.1019 Y67.7272
G1 X-10.1185 Y67.7673
G1 X-10.1325 Y67.8085
G1 X-10.1435 Y67.8495
G1 X-10.152 Y67.8922
G1 X-10.1577 Y67.9354
G1 X-10.1605 Y67.9784
G1 F100.0 Z-1.8
G1 F300.0 Y68.0216
G1 X-10.1577 Y68.0646
G1 X-10.152 Y68.1078
G1 X-10.1435 Y68.1505
G1 X-10.1325 Y68.1915
G1 X-10.1185 Y68.2327
G1 X-10.1019 Y68.2728
G1 X-10.0829 Y68.3114
G1 X-10.0611 Y68.3492
G1 X-10.0373 Y68.3848
G1 X-10.0108 Y68.4192
G1 X-9.9822 Y68.452
G1 X-9.952 Y68.4822
G1 X-9.9192 Y68.5108
G1 X-9.8848 Y68.5373
G1 X-9.8492 Y68.5611
G1 X-9.8114 Y68.5829
G1 X-9.7728 Y68.6019
G1 X-9.7327 Y68.6185
G1 X-9.6915 Y68.6325
G1 X-9.6505 Y68.6435
G1 X-9.6078 Y68.652
G1 X-9.5646 Y68.6577
G1 X-9.5216 Y68.6605
G1 X-9.4784
G1 X-9.4354 Y68.6577
G1 X-9.3922 Y68.652
G1 X-9.3495 Y68.6435
G1 X-9.3085 Y68.6325
G1 X-9.2673 Y68.6185
G1 X-9.2272 Y68.6019
G1 X-9.1886 Y68.5829
G1 X-9.1508 Y68.5611
G1 X-9.1152 Y68.5373
G1 X-9.0808 Y68.5108
G1 X-9.048 Y68.4822
G1 X-9.0178 Y68.452
G1 X-8.9892 Y68.4192
G1 X-8.9627 Y68.3848
G1 X-8.9389 Y68.3492
G1 X-8.9171 Y68.3114
G1 X-8.8981 Y68.2728
G1 X-8.8815 Y68.2327
G1 X-8.8675 Y68.1915
G1 X-8.8565 Y68.1505
G1 X-8.848 Y68.1078
G1 X-8.8423 Y68.0646
G1 X-8.8395 Y68.0216
G1 Y67.9784
G1 X-8.8423 Y67.9354
G1 X-8.848 Y67.8922
G1 X-8.8565 Y67.8495
G1 X-8.8675 Y67.8085
G1 X-8.8815 Y67.7673
G1 X-8.8981 Y67.7272
G1 X-8.9171 Y67.6886
G1 X-8.9389 Y67.6508
G1 X-8.9627 Y67.6152
G1 X-8.9892 Y67.5808
G1 X-9.0178 Y67.548
G1 X-9.048 Y67.5178
G1 X-9.0808 Y67.4892
G1 X-9.1152 Y67.4627
G1 X-9.1508 Y67.4389
G1 X-9.1886 Y67.4171
G1 X-9.2272 Y67.3981
G1 X-9.2673 Y67.3815
G1 X-9.3085 Y67.3675
G1 X-9.3495 Y67.3565
G1 X-9.3922 Y67.348
G1 X-9.4354 Y67.3423
G1 X-9.4784 Y67.3395
G1 X-9.5216
G1 X-9.5646 Y67.3423
G1 X-9.6078 Y67.348
G1 X-9.6505 Y67.3565
G1 X-9.6915 Y67.3675
G1 X-9.7327 Y67.3815
G1 X-9.7728 Y67.3981
G1 X-9.8114 Y67.4171
G1 X-9.8492 Y67.4389
G1 X-9.8848 Y67.4627
G1 X-9.9192 Y67.4892
G1 X-9.952 Y67.5178
G1 X-9.9822 Y67.548
G1 X-10.0108 Y67.5808
G1 X-10.0373 Y67.6152
G1 X-10.0611 Y67.6508
G1 X-10.0829 Y67.6886
G1 X-10.1019 Y67.7272
G1 X-10.1185 Y67.7673
G1 X-10.1325 Y67.8085
G1 X-10.1435 Y67.8495
G1 X-10.152 Y67.8922
G1 X-10.1577 Y67.9354
G1 X-10.1605 Y67.9784
G1 F100.0 Z-2.0
G1 F300.0 Y68.0216
G1 X-10.1577 Y68.0646
G1 X-10.152 Y68.1078
G1 X-10.1435 Y68.1505
G1 X-10.1325 Y68.1915
G1 X-10.1185 Y68.2327
G1 X-10.1019 Y68.2728
G1 X-10.0829 Y68.3114
G1 X-10.0611 Y68.3492
G1 X-10.0373 Y68.3848
G1 X-10.0108 Y68.4192
G1 X-9.9822 Y68.452
G1 X-9.952 Y68.4822
G1 X-9.9192 Y68.5108
G1 X-9.8848 Y68.5373
G1 X-9.8492 Y68.5611
G1 X-9.8114 Y68.5829
G1 X-9.7728 Y68.6019
G1 X-9.7327 Y68.6185
G1 X-9.6915 Y68.6325
G1 X-9.6505 Y68.6435
G1 X-9.6078 Y68.652
G1 X-9.5646 Y68.6577
G1 X-9.5216 Y68.6605
G1 X-9.4784
G1 X-9.4354 Y68.6577
G1 X-9.3922 Y68.652
G1 X-9.3495 Y68.6435
G1 X-9.3085 Y68.6325
G1 X-9.2673 Y68.6185
G1 X-9.2272 Y68.6019
G1 X-9.1886 Y68.5829
G1 X-9.1508 Y68.5611
G1 X-9.1152 Y68.5373
G1 X-9.0808 Y68.5108
G1 X-9.048 Y68.4822
G1 X-9.0178 Y68.452
G1 X-8.9892 Y68.4192
G1 X-8.9627 Y68.3848
G1 X-8.9389 Y68.3492
G1 X-8.9171 Y68.3114
G1 X-8.8981 Y68.2728
G1 X-8.8815 Y68.2327
G1 X-8.8675 Y68.1915
G1 X-8.8565 Y68.1505
G1 X-8.848 Y68.1078
G1 X-8.8423 Y68.0646
G1 X-8.8395 Y68.0216
G1 Y67.9784
G1 X-8.8423 Y67.9354
G1 X-8.848 Y67.8922
G1 X-8.8565 Y67.8495
G1 X-8.8675 Y67.8085
G1 X-8.8815 Y67.7673
G1 X-8.8981 Y67.7272
G1 X-8.9171 Y67.6886
G1 X-8.9389 Y67.6508
G1 X-8.9627 Y67.6152
G1 X-8.9892 Y67.5808
G1 X-9.0178 Y67.548
G1 X-9.048 Y67.5178
G1 X-9.0808 Y67.4892
G1 X-9.1152 Y67.4627
G1 X-9.1508 Y67.4389
G1 X-9.1886 Y67.4171
G1 X-9.2272 Y67.3981
G1 X-9.2673 Y67.3815
G1 X-9.3085 Y67.3675
G1 X-9.3495 Y67.3565
G1 X-9.3922 Y67.348
G1 X-9.4354 Y67.3423
G1 X-9.4784 Y67.3395
G1 X-9.5216
G1 X-9.5646 Y67.3423
G1 X-9.6078 Y67.348
G1 X-9.6505 Y67.3565
G1 X-9.6915 Y67.3675
G1 X-9.7327 Y67.3815
G1 X-9.7728 Y67.3981
G1 X-9.8114 Y67.4171
G1 X-9.8492 Y67.4389
G1 X-9.8848 Y67.4627
G1 X-9.9192 Y67.4892
G1 X-9.952 Y67.5178
G1 X-9.9822 Y67.548
G1 X-10.0108 Y67.5808
G1 X-10.0373 Y67.6152
G1 X-10.0611 Y67.6508
G1 X-10.0829 Y67.6886
G1 X-10.1019 Y67.7272
G1 X-10.1185 Y67.7673
G1 X-10.1325 Y67.8085
G1 X-10.1435 Y67.8495
G1 X-10.152 Y67.8922
G1 X-10.1577 Y67.9354
G1 X-10.1605 Y67.9784
G0 Z2.0
M5
M30
