( Made using CamBam - http://www.cambam.co.uk )
( pcb_servo 4/7/2022 2:42:42 PM )
( T0 : 0.15 )
G21 G90 G40
G0 Z2.0
( T0 : 0.15 )
T0 M6
( 1_trace )
G17
M3 S1000
G0 X24.84 Y40.8224
G1 F100.0 Z-0.15
G3 F300.0 X25.8728 Y42.6113 I0.0 J1.1926
G3 X23.8072 I-1.0328 J-0.5963
G3 X24.84 Y40.8224 I1.0328 J-0.5963
G0 Z2.0
G0 X26.3005 Y41.5081
G1 F100.0 Z-0.15
G3 F300.0 X27.38 Y40.8224 I1.0795 J0.5069
G3 X28.4128 Y42.6113 I0.0 J1.1926
G3 X26.3472 I-1.0328 J-0.5963
G3 X26.3005 Y41.5081 I1.0328 J-0.5963
G0 Z2.0
G0 X26.8207 Y40.5283
G1 F100.0 Z-0.15
G3 F300.0 X26.3472 Y40.0713 I0.5593 J-1.0533
G3 X27.38 Y38.2824 I1.0328 J-0.5963
G3 X28.0824 Y38.5112 I0.0 J1.1926
G1 X36.2712 Y30.3225
G1 Y26.14
G3 X36.4568 Y25.6918 I0.6338 J0.0
G1 X37.0918 Y25.0568
G3 X37.54 Y24.8712 I0.4482 J0.4482
G1 X37.7998
G3 X38.81 Y24.3124 I1.0102 J0.6338
G3 X39.8428 Y26.1013 I0.0 J1.1926
G3 X37.8008 Y26.1405 I-1.0328 J-0.5963
G1 X37.5388 Y26.4025
G1 Y30.585
G3 X37.3532 Y31.0332 I-0.6338 J0.0
G1 X28.4991 Y39.8872
G3 X28.4128 Y40.0713 I-1.1191 J-0.4122
G3 X26.8207 Y40.5283 I-1.0328 J-0.5963
G0 Z2.0
G0 X27.1966 Y38.1134
G1 F100.0 Z-0.15
G3 F300.0 X26.3472 Y37.5313 I0.1834 J-1.1784
G3 X27.38 Y35.7424 I1.0328 J-0.5963
G3 X28.3892 Y36.2995 I0.0 J1.1926
G1 X35.0012 Y29.6875
G1 Y25.505
G3 X35.1868 Y25.0568 I0.6338 J0.0
G1 X37.6909 Y22.5528
G3 X38.81 Y21.7724 I1.1191 J0.4122
G3 X39.8428 Y23.5613 I0.0 J1.1926
G3 X38.1076 Y23.9288 I-1.0328 J-0.5963
G1 X36.2688 Y25.7675
G1 Y29.95
G3 X36.0832 Y30.3982 I-0.6338 J0.0
G1 X29.0982 Y37.3832
G3 X28.65 Y37.5688 I-0.4482 J-0.4482
G1 X28.3902
G3 X27.1966 Y38.1134 I-1.0102 J-0.6338
G0 Z2.0
G0 X25.9067 Y37.4684
G1 F100.0 Z-0.15
G3 F300.0 X25.8728 Y37.5313 I-1.0667 J-0.5334
G3 X23.8072 I-1.0328 J-0.5963
G3 X24.4278 Y35.8159 I1.0328 J-0.5963
G1 X26.2968 Y33.9468
G3 X26.745 Y33.7612 I0.4482 J0.4482
G1 X29.285
G3 Y35.0288 I0.0 J0.6338
G1 X27.0075
G1 X25.8038 Y36.2326
G3 X25.9067 Y37.4684 I-0.9638 J0.7024
G0 Z2.0
G0 X23.4593 Y35.021
G1 F100.0 Z-0.15
G1 F300.0 X21.6638 Y36.8165
G1 Y44.533
G3 X21.919 Y44.5054 I0.2552 J1.165
G3 X22.9518 Y46.2943 I0.0 J1.1926
G3 X20.8862 I-1.0328 J-0.5963
G3 X20.7999 Y46.1102 I1.0328 J-0.5963
G1 X20.5818 Y45.8922
G3 X20.3962 Y45.444 I0.4482 J-0.4482
G1 Y36.554
G3 X20.5818 Y36.1058 I0.6338 J0.0
G1 X27.3812 Y29.3065
G1 Y18.7825
G1 X22.8318 Y14.2332
G3 X22.6462 Y13.785 I0.4482 J-0.4482
G1 Y13.1523
G3 X23.28 Y12.0823 I0.6338 J-0.3473
G3 X23.9138 Y13.1523 I0.0 J0.7227
G1 Y13.5225
G1 X28.4632 Y18.0718
G3 X28.6488 Y18.52 I-0.4482 J0.4482
G1 Y29.569
G3 X28.4632 Y30.0172 I-0.6338 J0.0
G1 X23.4593 Y35.021
G0 Z2.0
G0 X22.5068 Y34.0685
G1 F100.0 Z-0.15
G1 F300.0 X20.3938 Y36.1815
G1 Y46.4515
G1 X21.2166 Y47.2742
G3 X21.919 Y47.0454 I0.7024 J0.9638
G3 X22.9518 Y48.8343 I0.0 J1.1926
G3 X20.8862 I-1.0328 J-0.5963
G3 X20.7999 Y48.6502 I1.0328 J-0.5963
G1 X19.3118 Y47.1622
G3 X19.1262 Y46.714 I0.4482 J-0.4482
G1 Y35.919
G3 X19.3118 Y35.4708 I0.6338 J0.0
G1 X26.1112 Y28.6715
G1 Y19.4175
G1 X21.3318 Y14.6382
G3 X21.1462 Y14.19 I0.4482 J-0.4482
G1 Y13.1523
G3 X21.78 Y12.0823 I0.6338 J-0.3473
G3 X22.4138 Y13.1523 I0.0 J0.7227
G1 Y13.9275
G1 X27.1932 Y18.7068
G3 X27.3788 Y19.155 I-0.4482 J0.4482
G1 Y28.934
G3 X27.1932 Y29.3822 I-0.6338 J0.0
G1 X22.5068 Y34.0685
G0 Z2.0
G0 X20.4748 Y32.0365
G1 F100.0 Z-0.15
G1 F300.0 X13.8582 Y38.6532
G3 X13.41 Y38.8388 I-0.4482 J-0.4482
G1 X11.7675
G1 X10.7191 Y39.8872
G3 X10.6328 Y40.0713 I-1.1191 J-0.4122
G3 X8.5672 I-1.0328 J-0.5963
G3 X9.6 Y38.2824 I1.0328 J-0.5963
G3 X10.3024 Y38.5112 I0.0 J1.1926
G1 X11.0568 Y37.7568
G3 X11.505 Y37.5712 I0.4482 J0.4482
G1 X13.1475
G1 X22.3012 Y28.4175
G1 Y26.14
G3 X22.4868 Y25.6918 I0.6338 J0.0
G1 X23.1218 Y25.0568
G3 X23.57 Y24.8712 I0.4482 J0.4482
G1 X23.8298
G3 X24.84 Y24.3124 I1.0102 J0.6338
G3 X25.8728 Y26.1013 I0.0 J1.1926
G3 X23.8308 Y26.1405 I-1.0328 J-0.5963
G1 X23.5688 Y26.4025
G1 Y28.68
G3 X23.3832 Y29.1282 I-0.6338 J0.0
G1 X20.4748 Y32.0365
G0 Z2.0
G0 X19.5223 Y31.084
G1 F100.0 Z-0.15
G1 F300.0 X13.2232 Y37.3832
G3 X12.775 Y37.5688 I-0.4482 J-0.4482
G1 X10.6102
G3 X8.5672 Y37.5313 I-1.0102 J-0.6338
G3 X9.6 Y35.7424 I1.0328 J-0.5963
G3 X10.6102 Y36.3012 I0.0 J1.1926
G1 X12.5125
G1 X21.0312 Y27.7825
G1 Y25.4426
G3 X21.2168 Y24.9944 I0.6338 J0.0
G1 X23.6944 Y22.5168
G3 X23.7596 Y22.46 I0.4482 J0.4482
G3 X24.84 Y21.7724 I1.0804 J0.505
G3 X25.8728 Y23.5613 I0.0 J1.1926
G3 X24.1021 Y23.9019 I-1.0328 J-0.5963
G1 X22.2988 Y25.7051
G1 Y28.045
G3 X22.1132 Y28.4932 I-0.6338 J0.0
G1 X19.5223 Y31.084
G0 Z2.0
G0 X17.9402 Y28.9956
G1 F100.0 Z-0.15
G3 F300.0 X16.1872 Y28.6413 I-0.7202 J-0.9506
G3 X17.22 Y26.8524 I1.0328 J-0.5963
G3 X17.9224 Y27.0812 I0.0 J1.1926
G1 X18.4912 Y26.5125
G1 Y23.6
G3 X18.6768 Y23.1518 I0.6338 J0.0
G1 X19.7612 Y22.0675
G1 Y15.6075
G1 X18.3318 Y14.1782
G3 X18.1462 Y13.73 I0.4482 J-0.4482
G1 Y13.1523
G3 X18.78 Y12.0823 I0.6338 J-0.3473
G3 X19.4138 Y13.1523 I0.0 J0.7227
G1 Y13.4675
G1 X20.8432 Y14.8968
G3 X21.0288 Y15.345 I-0.4482 J0.4482
G1 Y22.33
G3 X20.8432 Y22.7782 I-0.6338 J0.0
G1 X19.7588 Y23.8625
G1 Y26.775
G3 X19.5732 Y27.2232 I-0.6338 J0.0
G1 X18.3391 Y28.4572
G3 X18.2528 Y28.6413 I-1.1191 J-0.4122
G3 X17.9402 Y28.9956 I-1.0328 J-0.5963
G0 Z2.0
G0 X17.3614 Y24.1492
G1 F100.0 Z-0.15
G3 F300.0 X16.1872 Y23.5613 I-0.1414 J-1.1842
G3 X17.22 Y21.7724 I1.0328 J-0.5963
G3 X17.9224 Y22.0012 I0.0 J1.1926
G1 X18.4912 Y21.4325
G1 Y16.2425
G1 X16.8318 Y14.5832
G3 X16.6462 Y14.135 I0.4482 J-0.4482
G1 Y13.1523
G3 X17.28 Y12.0823 I0.6338 J-0.3473
G3 X17.9138 Y13.1523 I0.0 J0.7227
G1 Y13.8725
G1 X19.5732 Y15.5318
G3 X19.7588 Y15.98 I-0.4482 J0.4482
G1 Y21.695
G3 X19.5732 Y22.1432 I-0.6338 J0.0
G1 X18.3391 Y23.3772
G3 X18.2528 Y23.5613 I-1.1191 J-0.4122
G3 X17.3614 Y24.1492 I-1.0328 J-0.5963
G0 Z2.0
G0 X17.2653 Y21.6167
G1 F100.0 Z-0.15
G3 F300.0 X16.1872 Y21.0213 I-0.0453 J-1.1917
G3 X16.5862 Y19.4148 I1.0328 J-0.5963
G1 Y17.7967
G3 X16.4951 Y17.6685 I0.6338 J-0.5467
G3 X17.22 Y16.413 I0.7249 J-0.4185
G3 X17.9449 Y17.6685 I0.0 J0.837
G3 X17.8538 Y17.7967 I-0.7249 J-0.4185
G1 Y19.4148
G3 X18.2528 Y21.0213 I-0.6338 J1.0102
G3 X17.2653 Y21.6167 I-1.0328 J-0.5963
G0 Z2.0
G0 X23.6619 Y20.6104
G1 F100.0 Z-0.15
G3 F300.0 X24.84 Y19.2324 I1.1781 J-0.1854
G3 X25.8728 Y21.0213 I0.0 J1.1926
G3 X23.8072 I-1.0328 J-0.5963
G3 X23.6619 Y20.6104 I1.0328 J-0.5963
G0 Z2.0
G0 X29.9978 Y20.4544
G1 F100.0 Z-0.15
G3 F300.0 X30.5562 Y19.4148 I1.1922 J-0.0294
G1 Y18.0471
G3 X29.5761 Y17.6685 I-0.2552 J-0.7971
G3 X30.301 Y16.413 I0.7249 J-0.4185
G3 X30.8477 Y16.6162 I0.0 J0.837
G1 X31.0243
G3 X31.571 Y16.413 I0.5467 J0.6338
G3 X32.2959 Y17.6685 I0.0 J0.837
G3 X31.8238 Y18.0479 I-0.7249 J-0.4185
G1 Y19.4148
G3 X32.2228 Y21.0213 I-0.6338 J1.0102
G3 X30.1572 I-1.0328 J-0.5963
G3 X29.9978 Y20.4544 I1.0328 J-0.5963
G0 Z2.0
G0 X30.6784 Y21.8877
G1 F100.0 Z-0.15
G3 F300.0 X31.19 Y21.7724 I0.5116 J1.0773
G3 X31.8924 Y22.0012 I0.0 J1.1926
G1 X32.4612 Y21.4325
G1 Y16.2425
G1 X30.8018 Y14.5832
G3 X30.6162 Y14.135 I0.4482 J-0.4482
G1 Y13.1523
G3 X31.25 Y12.0823 I0.6338 J-0.3473
G3 X31.8838 Y13.1523 I0.0 J0.7227
G1 Y13.8725
G1 X33.5432 Y15.5318
G3 X33.7288 Y15.98 I-0.4482 J0.4482
G1 Y21.695
G3 X33.5432 Y22.1432 I-0.6338 J0.0
G1 X32.3091 Y23.3772
G3 X32.2228 Y23.5613 I-1.1191 J-0.4122
G3 X30.1572 I-1.0328 J-0.5963
G3 X30.6784 Y21.8877 I1.0328 J-0.5963
G0 Z2.0
G0 X32.5779 Y23.2336
G1 F100.0 Z-0.15
G3 F300.0 X32.6468 Y23.1518 I0.5171 J0.3664
G1 X33.7312 Y22.0675
G1 Y15.6075
G1 X32.3018 Y14.1782
G3 X32.1162 Y13.73 I0.4482 J-0.4482
G1 Y13.1523
G3 X32.75 Y12.0823 I0.6338 J-0.3473
G3 X33.3838 Y13.1523 I0.0 J0.7227
G1 Y13.4675
G1 X34.8132 Y14.8968
G3 X34.9988 Y15.345 I-0.4482 J0.4482
G1 Y22.33
G3 X34.8132 Y22.7782 I-0.6338 J0.0
G1 X33.7288 Y23.8625
G1 Y26.775
G3 X33.5432 Y27.2232 I-0.6338 J0.0
G1 X32.3091 Y28.4572
G3 X32.2228 Y28.6413 I-1.1191 J-0.4122
G3 X30.1572 I-1.0328 J-0.5963
G3 X31.19 Y26.8524 I1.0328 J-0.5963
G3 X31.8924 Y27.0812 I0.0 J1.1926
G1 X32.4612 Y26.5125
G1 Y23.6
G3 X32.5779 Y23.2336 I0.6338 J0.0
G0 Z2.0
G0 X37.7227 Y20.915
G1 F100.0 Z-0.15
G3 F300.0 X38.81 Y19.2324 I1.0873 J-0.49
G3 X39.8428 Y21.0213 I0.0 J1.1926
G3 X37.7772 I-1.0328 J-0.5963
G3 X37.7227 Y20.915 I1.0328 J-0.5963
G0 Z2.0
G0 X40.0812
G1 F100.0 Z-0.15
G1 F300.0 Y19.4175
G1 X35.3018 Y14.6382
G3 X35.1162 Y14.19 I0.4482 J-0.4482
G1 Y13.1523
G3 X35.75 Y12.0823 I0.6338 J-0.3473
G3 X36.3838 Y13.1523 I0.0 J0.7227
G1 Y13.9275
G1 X41.1632 Y18.7068
G3 X41.3488 Y19.155 I-0.4482 J0.4482
G1 Y30.585
G3 X41.1632 Y31.0332 I-0.6338 J0.0
G1 X38.1738 Y34.0225
G1 Y46.4515
G1 X38.9966 Y47.2742
G3 X39.699 Y47.0454 I0.7024 J0.9638
G3 X40.7318 Y48.8343 I0.0 J1.1926
G3 X38.6662 I-1.0328 J-0.5963
G3 X38.5799 Y48.6502 I1.0328 J-0.5963
G1 X37.0918 Y47.1622
G3 X36.9062 Y46.714 I0.4482 J-0.4482
G1 Y33.76
G3 X37.0918 Y33.3118 I0.6338 J0.0
G1 X40.0812 Y30.3225
G1 Y20.915
G0 Z2.0
G0 X41.3512
G1 F100.0 Z-0.15
G1 F300.0 Y18.7825
G1 X36.8018 Y14.2332
G3 X36.6162 Y13.785 I0.4482 J-0.4482
G1 Y13.1523
G3 X37.25 Y12.0823 I0.6338 J-0.3473
G3 X37.8838 Y13.1523 I0.0 J0.7227
G1 Y13.5225
G1 X42.4332 Y18.0718
G3 X42.6188 Y18.52 I-0.4482 J0.4482
G1 Y31.22
G3 X42.4332 Y31.6682 I-0.6338 J0.0
G1 X39.4438 Y34.6575
G1 Y44.533
G3 X39.699 Y44.5054 I0.2552 J1.165
G3 X40.7318 Y46.2943 I0.0 J1.1926
G3 X38.6662 I-1.0328 J-0.5963
G3 X38.5799 Y46.1102 I1.0328 J-0.5963
G1 X38.3618 Y45.8922
G3 X38.1762 Y45.444 I0.4482 J-0.4482
G1 Y34.395
G3 X38.3618 Y33.9468 I0.6338 J0.0
G1 X41.3512 Y30.9575
G1 Y20.915
G0 Z2.0
G0 X43.9771 Y20.5772
G1 F100.0 Z-0.15
G3 F300.0 X44.5262 Y19.4148 I1.1829 J-0.1522
G1 Y17.9946
G3 X43.4191 Y17.6685 I-0.3822 J-0.7446
G3 X44.144 Y16.413 I0.7249 J-0.4185
G3 X44.6907 Y16.6162 I0.0 J0.837
G1 X44.8673
G3 X45.414 Y16.413 I0.5467 J0.6338
G3 X46.1389 Y17.6685 I0.0 J0.837
G3 X45.7938 Y17.9959 I-0.7249 J-0.4185
G1 Y19.4148
G3 X46.1928 Y21.0213 I-0.6338 J1.0102
G3 X44.1272 I-1.0328 J-0.5963
G3 X43.9771 Y20.5772 I1.0328 J-0.5963
G0 Z2.0
G0 X44.6306 Y21.8963
G1 F100.0 Z-0.15
G3 F300.0 X45.16 Y21.7724 I0.5294 J1.0687
G3 X45.8624 Y22.0012 I0.0 J1.1926
G1 X46.4312 Y21.4325
G1 Y16.2425
G1 X44.7718 Y14.5832
G3 X44.5862 Y14.135 I0.4482 J-0.4482
G1 Y13.1523
G3 X45.22 Y12.0823 I0.6338 J-0.3473
G3 X45.8538 Y13.1523 I0.0 J0.7227
G1 Y13.8725
G1 X47.5132 Y15.5318
G3 X47.6988 Y15.98 I-0.4482 J0.4482
G1 Y21.695
G3 X47.5132 Y22.1432 I-0.6338 J0.0
G1 X46.2791 Y23.3772
G3 X46.1928 Y23.5613 I-1.1191 J-0.4122
G3 X44.1272 I-1.0328 J-0.5963
G3 X44.6306 Y21.8963 I1.0328 J-0.5963
G0 Z2.0
G0 X46.5457 Y23.2366
G1 F100.0 Z-0.15
G3 F300.0 X46.6168 Y23.1518 I0.5193 J0.3634
G1 X47.7012 Y22.0675
G1 Y15.6075
G1 X46.2718 Y14.1782
G3 X46.0862 Y13.73 I0.4482 J-0.4482
G1 Y13.1523
G3 X46.72 Y12.0823 I0.6338 J-0.3473
G3 X47.3538 Y13.1523 I0.0 J0.7227
G1 Y13.4675
G1 X48.7832 Y14.8968
G3 X48.9688 Y15.345 I-0.4482 J0.4482
G1 Y22.33
G3 X48.7832 Y22.7782 I-0.6338 J0.0
G1 X47.6988 Y23.8625
G1 Y26.775
G3 X47.5132 Y27.2232 I-0.6338 J0.0
G1 X46.2791 Y28.4572
G3 X46.1928 Y28.6413 I-1.1191 J-0.4122
G3 X44.1272 I-1.0328 J-0.5963
G3 X45.16 Y26.8524 I1.0328 J-0.5963
G3 X45.8624 Y27.0812 I0.0 J1.1926
G1 X46.4312 Y26.5125
G1 Y23.6
G3 X46.5457 Y23.2366 I0.6338 J0.0
G0 Z2.0
G0 X49.0959 Y25.1275
G1 F100.0 Z-0.15
G3 F300.0 X49.1568 Y25.0568 I0.5091 J0.3775
G1 X51.6609 Y22.5528
G3 X52.78 Y21.7724 I1.1191 J0.4122
G3 X53.8128 Y23.5613 I0.0 J1.1926
G3 X52.0776 Y23.9288 I-1.0328 J-0.5963
G1 X50.2388 Y25.7675
G1 Y33.76
G3 X50.0532 Y34.2082 I-0.6338 J0.0
G1 X46.8782 Y37.3832
G3 X46.43 Y37.5688 I-0.4482 J-0.4482
G1 X46.1702
G3 X44.1272 Y37.5313 I-1.0102 J-0.6338
G3 X45.16 Y35.7424 I1.0328 J-0.5963
G3 X46.1692 Y36.2995 I0.0 J1.1926
G1 X48.9712 Y33.4975
G1 Y25.505
G3 X49.0959 Y25.1275 I0.6338 J0.0
G0 Z2.0
G0 X50.3242 Y25.8265
G1 F100.0 Z-0.15
G3 F300.0 X50.4268 Y25.6918 I0.5508 J0.3135
G1 X51.0618 Y25.0568
G3 X51.51 Y24.8712 I0.4482 J0.4482
G1 X51.7698
G3 X52.78 Y24.3124 I1.0102 J0.6338
G3 X53.8128 Y26.1013 I0.0 J1.1926
G3 X51.7708 Y26.1405 I-1.0328 J-0.5963
G1 X51.5088 Y26.4025
G1 Y34.395
G3 X51.3232 Y34.8432 I-0.6338 J0.0
G1 X46.2791 Y39.8872
G3 X46.1928 Y40.0713 I-1.1191 J-0.4122
G3 X44.1272 I-1.0328 J-0.5963
G3 X45.16 Y38.2824 I1.0328 J-0.5963
G3 X45.8624 Y38.5112 I0.0 J1.1926
G1 X50.2412 Y34.1325
G1 Y26.14
G3 X50.3242 Y25.8265 I0.6338 J0.0
G0 Z2.0
G0 X54.0512
G1 F100.0 Z-0.15
G1 F300.0 Y19.4175
G1 X49.2718 Y14.6382
G3 X49.0862 Y14.19 I0.4482 J-0.4482
G1 Y13.1523
G3 X49.72 Y12.0823 I0.6338 J-0.3473
G3 X50.3538 Y13.1523 I0.0 J0.7227
G1 Y13.9275
G1 X55.1332 Y18.7068
G3 X55.3188 Y19.155 I-0.4482 J0.4482
G1 Y45.444
G1 Y45.8165
G1 X56.7766 Y47.2742
G3 X57.479 Y47.0454 I0.7024 J0.9638
G3 X58.5118 Y48.8343 I0.0 J1.1926
G3 X56.4462 I-1.0328 J-0.5963
G3 X56.3599 Y48.6502 I1.0328 J-0.5963
G1 X54.2368 Y46.5272
G3 X54.0512 Y46.079 I0.4482 J-0.4482
G1 Y25.8265
G0 Z2.0
G0 X55.3212
G1 F100.0 Z-0.15
G1 F300.0 Y19.155
G1 Y18.7825
G1 X50.7718 Y14.2332
G3 X50.5862 Y13.785 I0.4482 J-0.4482
G1 Y13.1523
G3 X51.22 Y12.0823 I0.6338 J-0.3473
G3 X51.8538 Y13.1523 I0.0 J0.7227
G1 Y13.5225
G1 X56.4032 Y18.0718
G3 X56.5888 Y18.52 I-0.4482 J0.4482
G1 Y44.9044
G3 X57.479 Y44.5054 I0.8902 J0.7936
G3 X58.5118 Y46.2943 I0.0 J1.1926
G3 X56.4688 Y46.3318 I-1.0328 J-0.5963
G1 X56.209
G3 X55.7608 Y46.1462 I0.0 J-0.6338
G1 X55.5068 Y45.8922
G3 X55.3212 Y45.444 I0.4482 J-0.4482
G1 Y25.8265
G0 Z2.0
G0 X53.2877 Y21.5041
G1 F100.0 Z-0.15
G3 F300.0 X51.7472 Y21.0213 I-0.5077 J-1.0791
G3 X52.78 Y19.2324 I1.0328 J-0.5963
G3 X53.8128 Y21.0213 I0.0 J1.1926
G3 X53.2877 Y21.5041 I-1.0328 J-0.5963
G0 Z2.0
G0 X48.5838 Y13.4295
G1 F100.0 Z-0.15
G3 F300.0 X47.5941 Y13.1664 I-0.3638 J-0.6245
G3 X47.5862 Y12.4577 I0.6259 J-0.3613
G1 Y10.8988
G1 X45.16
G3 Y9.6312 I0.0 J-0.6338
G1 X48.22
G1 X54.05
G3 Y10.8988 I0.0 J0.6338
G1 X48.8538
G1 Y12.4577
G3 X48.8459 Y13.1664 I-0.6338 J0.3473
G3 X48.5838 Y13.4295 I-0.6259 J-0.3614
G0 Z2.0
G0 X40.674 Y10.486
G1 F100.0 Z-0.15
G3 F300.0 X40.08 Y10.8988 I-0.594 J-0.221
G1 X34.8838
G1 Y12.4577
G3 X34.8759 Y13.1664 I-0.6338 J0.3473
G3 X33.6241 I-0.6259 J-0.3614
G3 X33.6162 Y12.4577 I0.6259 J-0.3614
G1 Y10.8988
G1 X31.19
G3 Y9.6312 I0.0 J-0.6338
G1 X34.25
G1 X40.08
G3 X40.674 Y10.486 I0.0 J0.6338
G0 Z2.0
G0 X26.7437 Y10.2746
G1 F100.0 Z-0.15
G3 F300.0 X26.11 Y10.8988 I-0.6337 J-0.0096
G1 X20.9138
G1 Y12.4577
G3 X20.9059 Y13.1664 I-0.6338 J0.3473
G3 X19.6541 I-0.6259 J-0.3614
G3 X19.6462 Y12.4577 I0.6259 J-0.3614
G1 Y10.8988
G1 X17.22
G3 Y9.6312 I0.0 J-0.6338
G1 X20.28
G1 X26.11
G3 X26.7437 Y10.2746 I0.0 J0.6338
G0 Z2.0
G0 X43.5228 Y33.8784
G1 F100.0 Z-0.15
G3 F300.0 X43.89 Y33.7612 I0.3672 J0.5166
G1 X47.065
G3 Y35.0288 I0.0 J0.6338
G1 X44.1525
G1 X43.2555 Y35.9258
G3 X43.6528 Y37.5313 I-0.6355 J1.0092
G3 X41.5872 I-1.0328 J-0.5963
G3 X41.9862 Y35.9248 I1.0328 J-0.5963
G1 Y35.665
G3 X42.1718 Y35.2168 I0.6338 J0.0
G1 X43.4418 Y33.9468
G3 X43.5228 Y33.8784 I0.4482 J0.4482
G0 Z2.0
G0 X42.7515 Y40.8297
G1 F100.0 Z-0.15
G3 F300.0 X43.6528 Y42.6113 I-0.1315 J1.1853
G3 X41.5872 I-1.0328 J-0.5963
G3 X42.62 Y40.8224 I1.0328 J-0.5963
G3 X42.7515 Y40.8297 I0.0 J1.1926
G0 Z2.0
G0 X44.09 Y41.4884
G1 F100.0 Z-0.15
G3 F300.0 X45.16 Y40.8224 I1.07 J0.5266
G3 X46.1928 Y42.6113 I0.0 J1.1926
G3 X44.1272 I-1.0328 J-0.5963
G3 X44.09 Y41.4884 I1.0328 J-0.5963
G0 Z2.0
G0 X43.1355 Y43.4796
G1 F100.0 Z-0.15
G3 F300.0 X43.6528 Y45.1513 I-0.5155 J1.0754
G3 X43.2555 Y45.5642 I-1.0328 J-0.5963
G1 X44.8507 Y47.1593
G3 X44.8634 Y47.1724 I-0.4482 J0.4482
G1 X45.9175
G3 X46.3657 Y47.358 I0.0 J0.6338
G1 X47.437 Y48.4293
G3 X47.556 Y48.5947 I-0.4482 J0.4482
G1 X49.8675 Y50.9062
G1 X58.2325
G1 X59.7662 Y49.3725
G1 Y45.5652
G3 X59.3672 Y45.1513 I0.6338 J-1.0102
G3 X60.4 Y43.3624 I1.0328 J-0.5963
G3 X61.4328 Y45.1513 I0.0 J1.1926
G3 X61.0338 Y45.5652 I-1.0328 J-0.5963
G1 Y49.635
G3 X60.8482 Y50.0832 I-0.6338 J0.0
G1 X58.9432 Y51.9882
G3 X58.495 Y52.1738 I-0.4482 J-0.4482
G1 X49.605
G3 X49.1568 Y51.9882 I0.0 J-0.6338
G1 X46.5406 Y49.372
G3 X46.4216 Y49.2066 I0.4482 J-0.4482
G1 X45.655 Y48.44
G1 X44.665
G1 X43.8984 Y49.2066
G3 X43.7794 Y49.372 I-0.5672 J-0.2828
G1 X41.1632 Y51.9882
G3 X40.715 Y52.1738 I-0.4482 J-0.4482
G1 X31.825
G3 X31.3768 Y51.9882 I0.0 J-0.6338
G1 X28.7606 Y49.372
G3 X28.6416 Y49.2066 I0.4482 J-0.4482
G1 X27.875 Y48.44
G1 X26.6225
G3 X26.1743 Y48.2544 I0.0 J-0.6338
G1 X24.3918 Y46.4719
G3 X24.2062 Y46.0237 I0.4482 J-0.4482
G1 Y45.5652
G3 X23.8072 Y45.1513 I0.6338 J-1.0102
G3 X24.84 Y43.3624 I1.0328 J-0.5963
G3 X25.8728 Y45.1513 I0.0 J1.1926
G3 X25.4738 Y45.5652 I-1.0328 J-0.5963
G1 Y45.7612
G1 X26.885 Y47.1724
G1 X28.1375
G3 X28.5857 Y47.358 I0.0 J0.6338
G1 X29.657 Y48.4293
G3 X29.776 Y48.5947 I-0.4482 J0.4482
G1 X32.0875 Y50.9062
G1 X40.4525
G1 X42.764 Y48.5947
G3 X42.883 Y48.4293 I0.5672 J0.2828
G1 X43.6055 Y47.7069
G1 X42.1718 Y46.2732
G3 X41.9862 Y45.825 I0.4482 J-0.4482
G1 Y45.5652
G3 X41.5872 Y45.1513 I0.6338 J-1.0102
G3 X42.62 Y43.3624 I1.0328 J-0.5963
G3 X43.1355 Y43.4796 I0.0 J1.1926
G0 Z2.0
G0 X44.7874 Y48.5021
G1 F100.0 Z-0.15
G3 F300.0 X45.16 Y48.4424 I0.3726 J1.1329
G3 X46.2811 Y49.2283 I0.0 J1.1926
G3 Y50.0417 I-0.4861 J0.4067
G3 X46.1928 Y50.2313 I-1.1211 J-0.4067
G3 X44.4576 Y50.5988 I-1.0328 J-0.5963
G1 X41.7982 Y53.2582
G3 X41.35 Y53.4438 I-0.4482 J-0.4482
G1 X31.19
G3 X30.7418 Y53.2582 I0.0 J-0.6338
G1 X28.0824 Y50.5988
G3 X26.6776 I-0.7024 J-0.9638
G1 X24.0182 Y53.2582
G3 X23.57 Y53.4438 I-0.4482 J-0.4482
G1 X14.045
G3 X13.5968 Y53.2582 I0.0 J-0.6338
G1 X10.6092 Y50.2705
G3 X8.5672 Y50.2313 I-1.0092 J-0.6355
G3 X9.6 Y48.4424 I1.0328 J-0.5963
G3 X10.6102 Y49.0012 I0.0 J1.1926
G1 X10.87
G3 X11.3182 Y49.1868 I0.0 J0.6338
G1 X14.3075 Y52.1762
G1 X23.3075
G1 X26.2609 Y49.2228
G3 X27.38 Y48.4424 I1.1191 J0.4122
G3 X28.4991 Y49.2228 I0.0 J1.1926
G1 X31.4525 Y52.1762
G1 X41.0875
G1 X44.0409 Y49.2228
G3 X44.7874 Y48.5021 I1.1191 J0.4122
G0 Z2.0
G0 X45.0396 Y50.9885
G1 F100.0 Z-0.15
G3 F300.0 X45.16 Y50.9824 I0.1204 J1.1865
G3 X46.1928 Y52.7713 I0.0 J1.1926
G3 X44.1508 Y52.8105 I-1.0328 J-0.5963
G1 X42.4332 Y54.5282
G3 X41.985 Y54.7138 I-0.4482 J-0.4482
G1 X30.555
G3 X30.1068 Y54.5282 I0.0 J-0.6338
G1 X28.3892 Y52.8105
G3 X26.3708 I-1.0092 J-0.6355
G1 X24.6532 Y54.5282
G3 X24.205 Y54.7138 I-0.4482 J-0.4482
G1 X13.41
G3 X12.9618 Y54.5282 I0.0 J-0.6338
G1 X11.2425 Y52.8088
G1 X10.6102
G3 X8.5672 Y52.7713 I-1.0102 J-0.6338
G3 X9.6 Y50.9824 I1.0328 J-0.5963
G3 X10.6102 Y51.5412 I0.0 J1.1926
G1 X11.505
G3 X11.9532 Y51.7268 I0.0 J0.6338
G1 X13.6725 Y53.4462
G1 X23.9425
G1 X25.6618 Y51.7268
G3 X26.11 Y51.5412 I0.4482 J0.4482
G1 X26.3698
G3 X27.38 Y50.9824 I1.0102 J0.6338
G3 X28.3902 Y51.5412 I0.0 J1.1926
G1 X28.65
G3 X29.0982 Y51.7268 I0.0 J0.6338
G1 X30.8175 Y53.4462
G1 X41.7225
G1 X43.4418 Y51.7268
G3 X43.89 Y51.5412 I0.4482 J0.4482
G1 X44.1498
G3 X45.0396 Y50.9885 I1.0102 J0.6338
G0 Z2.0
G0 X45.1371 Y56.0626
G1 F100.0 Z-0.15
G3 F300.0 X45.16 Y56.0624 I0.0229 J1.1924
G3 X46.1928 Y57.8513 I0.0 J1.1926
G3 X44.1272 I-1.0328 J-0.5963
G3 X45.1371 Y56.0626 I1.0328 J-0.5963
G0 Z2.0
G0 X43.6978 Y56.7444
G1 F100.0 Z-0.15
G3 F300.0 X43.6528 Y57.8513 I-1.0778 J0.5106
G3 X41.9176 Y58.2188 I-1.0328 J-0.5963
G1 X33.7288 Y66.4075
G1 Y83.29
G3 X33.5432 Y83.7382 I-0.6338 J0.0
G1 X33.3838 Y83.8975
G1 Y84.8477
G3 X33.3759 Y85.5564 I-0.6338 J0.3473
G3 X32.1241 I-0.6259 J-0.3614
G3 X32.1162 Y84.8477 I0.6259 J-0.3613
G1 Y83.635
G3 X32.3018 Y83.1868 I0.6338 J0.0
G1 X32.4612 Y83.0275
G1 Y66.145
G3 X32.6468 Y65.6968 I0.6338 J0.0
G1 X41.5009 Y56.8428
G3 X42.62 Y56.0624 I1.1191 J0.4122
G3 X43.6978 Y56.7444 I0.0 J1.1926
G0 Z2.0
G0 X43.0173 Y58.6705
G1 F100.0 Z-0.15
G3 F300.0 X43.6528 Y60.3913 I-0.3973 J1.1245
G3 X41.5872 I-1.0328 J-0.5963
G3 X42.62 Y58.6024 I1.0328 J-0.5963
G3 X43.0173 Y58.6705 I0.0 J1.1926
G0 Z2.0
G0 X44.104 Y59.2408
G1 F100.0 Z-0.15
G3 F300.0 X45.16 Y58.6024 I1.056 J0.5542
G3 X46.1928 Y60.3913 I0.0 J1.1926
G3 X44.1272 I-1.0328 J-0.5963
G3 X44.104 Y59.2408 I1.0328 J-0.5963
G0 Z2.0
G0 X44.7748 Y61.2063
G1 F100.0 Z-0.15
G3 F300.0 X45.16 Y61.1424 I0.3852 J1.1287
G3 X46.2791 Y61.9228 I0.0 J1.1926
G1 X47.5132 Y63.1568
G3 X47.6988 Y63.605 I-0.4482 J0.4482
G1 Y66.145
G3 X47.5132 Y66.5932 I-0.6338 J0.0
G1 X45.6082 Y68.4982
G3 X45.16 Y68.6838 I-0.4482 J-0.4482
G1 X44.1525
G1 X43.8888 Y68.9475
G1 Y71.5975
G1 X44.1508 Y71.8595
G3 X45.16 Y71.3024 I1.0092 J0.6355
G3 X46.1928 Y73.0913 I0.0 J1.1926
G3 X44.1498 Y73.1288 I-1.0328 J-0.5963
G1 X43.89
G3 X43.4418 Y72.9432 I0.0 J-0.6338
G1 X42.8068 Y72.3082
G3 X42.6212 Y71.86 I0.4482 J-0.4482
G1 Y68.685
G3 X42.8068 Y68.2368 I0.6338 J0.0
G1 X43.4418 Y67.6018
G3 X43.89 Y67.4162 I0.4482 J0.4482
G1 X44.8975
G1 X46.4312 Y65.8825
G1 Y63.8675
G1 X45.8624 Y63.2988
G3 X44.1272 Y62.9313 I-0.7024 J-0.9638
G3 X44.7748 Y61.2063 I1.0328 J-0.5963
G0 Z2.0
G0 X43.6764 Y61.7816
G1 F100.0 Z-0.15
G3 F300.0 X43.6528 Y62.9313 I-1.0564 J0.5534
G3 X41.6098 Y62.9688 I-1.0328 J-0.5963
G1 X39.0725
G1 X34.9988 Y67.0425
G1 Y83.925
G3 X34.8838 Y84.2891 I-0.6338 J0.0
G1 Y84.8477
G3 X34.8759 Y85.5564 I-0.6338 J0.3473
G3 X33.6241 I-0.6259 J-0.3614
G3 X33.6162 Y84.8477 I0.6259 J-0.3613
G1 Y84.04
G3 X33.7312 Y83.6759 I0.6338 J0.0
G1 Y66.78
G3 X33.9168 Y66.3318 I0.6338 J0.0
G1 X38.3618 Y61.8868
G3 X38.81 Y61.7012 I0.4482 J0.4482
G1 X41.6098
G3 X42.62 Y61.1424 I1.0102 J0.6338
G3 X43.6764 Y61.7816 I0.0 J1.1926
G0 Z2.0
G0 X43.0054 Y63.7464
G1 F100.0 Z-0.15
G3 F300.0 X43.6528 Y65.4713 I-0.3854 J1.1286
G3 X41.5872 I-1.0328 J-0.5963
G3 X42.62 Y63.6824 I1.0328 J-0.5963
G3 X43.0054 Y63.7464 I0.0 J1.1926
G0 Z2.0
G0 X44.1036 Y64.3216
G1 F100.0 Z-0.15
G3 F300.0 X45.16 Y63.6824 I1.0564 J0.5534
G3 X46.1928 Y65.4713 I0.0 J1.1926
G3 X45.7938 Y65.8852 I-1.0328 J-0.5963
G1 Y66.145
G3 X45.6082 Y66.5932 I-0.6338 J0.0
G1 X44.9732 Y67.2282
G3 X44.525 Y67.4138 I-0.4482 J-0.4482
G1 X43.5175
G1 X42.6188 Y68.3125
G1 Y72.2325
G1 X44.4576 Y74.0712
G3 X45.16 Y73.8424 I0.7024 J0.9638
G3 X46.1928 Y75.6313 I0.0 J1.1926
G3 X44.1272 I-1.0328 J-0.5963
G3 X44.0409 Y75.4472 I1.0328 J-0.5963
G1 X41.5368 Y72.9432
G3 X41.3512 Y72.495 I0.4482 J-0.4482
G1 Y68.05
G3 X41.5368 Y67.6018 I0.6338 J0.0
G1 X42.8068 Y66.3318
G3 X43.255 Y66.1462 I0.4482 J0.4482
G1 X44.2625
G1 X44.5245 Y65.8842
G3 X44.1272 Y65.4713 I0.6355 J-1.0092
G3 X44.1036 Y64.3216 I1.0328 J-0.5963
G0 Z2.0
G0 X47.9528 Y68.1709
G1 F100.0 Z-0.15
G1 F300.0 X59.2809 Y56.8428
G3 X60.4 Y56.0624 I1.1191 J0.4122
G3 X61.4328 Y57.8513 I0.0 J1.1926
G3 X59.6976 Y58.2188 I-1.0328 J-0.5963
G1 X47.6988 Y70.2175
G1 Y83.29
G3 X47.5132 Y83.7382 I-0.6338 J0.0
G1 X47.3538 Y83.8975
G1 Y84.8477
G3 X47.3459 Y85.5564 I-0.6338 J0.3473
G3 X46.0941 I-0.6259 J-0.3614
G3 X46.0862 Y84.8477 I0.6259 J-0.3614
G1 Y83.635
G3 X46.2718 Y83.1868 I0.6338 J0.0
G1 X46.4312 Y83.0275
G1 Y69.955
G3 X46.6168 Y69.5068 I0.6338 J0.0
G1 X47.9528 Y68.1709
G0 Z2.0
G0 X48.9053 Y69.1234
G1 F100.0 Z-0.15
G1 F300.0 X56.1418 Y61.8868
G3 X56.59 Y61.7012 I0.4482 J0.4482
G1 X59.3898
G3 X60.4 Y61.1424 I1.0102 J0.6338
G3 X61.4328 Y62.9313 I0.0 J1.1926
G3 X59.3898 Y62.9688 I-1.0328 J-0.5963
G1 X56.8525
G1 X48.9688 Y70.8525
G1 Y83.925
G3 X48.8538 Y84.2891 I-0.6338 J0.0
G1 Y84.8477
G3 X48.8459 Y85.5564 I-0.6338 J0.3473
G3 X47.5941 I-0.6259 J-0.3614
G3 X47.5862 Y84.8477 I0.6259 J-0.3614
G1 Y84.04
G3 X47.7012 Y83.6759 I0.6338 J0.0
G1 Y70.59
G3 X47.8868 Y70.1418 I0.6338 J0.0
G1 X48.9053 Y69.1234
G0 Z2.0
G0 X50.4928 Y70.7109
G1 F100.0 Z-0.15
G1 F300.0 X51.6609 Y69.5428
G3 X52.78 Y68.7624 I1.1191 J0.4122
G3 X53.8128 Y70.5513 I0.0 J1.1926
G3 X52.0776 Y70.9188 I-1.0328 J-0.5963
G1 X50.2388 Y72.7575
G1 Y82.3925
G1 X51.6682 Y83.8218
G3 X51.8538 Y84.27 I-0.4482 J0.4482
G1 Y84.8477
G3 X51.8459 Y85.5564 I-0.6338 J0.3473
G3 X50.5941 I-0.6259 J-0.3614
G3 X50.5862 Y84.8477 I0.6259 J-0.3613
G1 Y84.5325
G1 X49.1568 Y83.1032
G3 X48.9712 Y82.655 I0.4482 J-0.4482
G1 Y72.495
G3 X49.1568 Y72.0468 I0.6338 J0.0
G1 X50.4928 Y70.7109
G0 Z2.0
G0 X52.2224 Y73.9808
G1 F100.0 Z-0.15
G3 F300.0 X52.78 Y73.8424 I0.5576 J1.0542
G3 X53.8128 Y75.6313 I0.0 J1.1926
G3 X52.0776 Y75.9988 I-1.0328 J-0.5963
G1 X51.5088 Y76.5675
G1 Y81.7575
G1 X53.1682 Y83.4168
G3 X53.3538 Y83.865 I-0.4482 J0.4482
G1 Y84.8477
G3 X53.3459 Y85.5564 I-0.6338 J0.3473
G3 X52.0941 I-0.6259 J-0.3614
G3 X52.0862 Y84.8477 I0.6259 J-0.3613
G1 Y84.1275
G1 X50.4268 Y82.4682
G3 X50.2412 Y82.02 I0.4482 J-0.4482
G1 Y76.305
G3 X50.4268 Y75.8568 I0.6338 J0.0
G1 X51.6609 Y74.6228
G3 X52.2224 Y73.9808 I1.1191 J0.4122
G0 Z2.0
G0 X52.5972 Y76.3965
G1 F100.0 Z-0.15
G3 F300.0 X52.78 Y76.3824 I0.1828 J1.1785
G3 X53.8128 Y78.1713 I0.0 J1.1926
G3 X53.4138 Y78.5852 I-1.0328 J-0.5963
G1 Y80.1162
G1 X53.5033
G3 X53.9884 Y79.9153 I0.5467 J0.6338
G1 X55.9562 Y77.9475
G1 Y73.765
G3 X56.1418 Y73.3168 I0.6338 J0.0
G1 X58.3616 Y71.0971
G3 X59.13 Y70.446 I0.7684 J0.1279
G3 X59.8046 Y71.6145 I0.0 J0.779
G3 X59.2579 Y71.9934 I-0.6746 J-0.3895
G1 X57.2238 Y74.0275
G1 Y78.21
G3 X57.0382 Y78.6582 I-0.6338 J0.0
G1 X54.8847 Y80.8116
G3 X54.7749 Y81.1685 I-0.8347 J-0.0616
G3 X53.5033 Y81.3838 I-0.7249 J-0.4185
G1 X53.3267
G3 X52.0551 Y81.1685 I-0.5467 J-0.6338
G3 X52.1462 Y80.2033 I0.7249 J-0.4185
G1 Y78.5852
G3 X51.7472 Y78.1713 I0.6338 J-1.0102
G3 X52.5972 Y76.3965 I1.0328 J-0.5963
G0 Z2.0
G0 X46.3379 Y77.3883
G1 F100.0 Z-0.15
G3 F300.0 X46.1928 Y78.1713 I-1.1779 J0.1867
G3 X44.1272 I-1.0328 J-0.5963
G3 X45.16 Y76.3824 I1.0328 J-0.5963
G3 X46.3379 Y77.3883 I0.0 J1.1926
G0 Z2.0
G0 X40.8173 Y80.3539
G1 F100.0 Z-0.15
G3 F300.0 X40.8049 Y81.1685 I-0.7373 J0.3961
G3 X39.5333 Y81.3838 I-0.7249 J-0.4185
G1 X39.3567
G3 X38.0851 Y81.1685 I-0.5467 J-0.6338
G3 X38.1762 Y80.2033 I0.7249 J-0.4185
G1 Y78.5852
G3 X37.7772 Y78.1713 I0.6338 J-1.0102
G3 X38.81 Y76.3824 I1.0328 J-0.5963
G3 X39.8428 Y78.1713 I0.0 J1.1926
G3 X39.4438 Y78.5852 I-1.0328 J-0.5963
G1 Y80.1162
G1 X39.5333
G3 X40.08 Y79.913 I0.5467 J0.6338
G3 X40.8173 Y80.3539 I0.0 J0.837
G0 Z2.0
G0 X37.5388
G1 F100.0 Z-0.15
G1 F300.0 Y81.7575
G1 X39.1982 Y83.4168
G3 X39.3838 Y83.865 I-0.4482 J0.4482
G1 Y84.8477
G3 X39.3759 Y85.5564 I-0.6338 J0.3473
G3 X38.1241 I-0.6259 J-0.3614
G3 X38.1162 Y84.8477 I0.6259 J-0.3613
G1 Y84.1275
G1 X36.4568 Y82.4682
G3 X36.2712 Y82.02 I0.4482 J-0.4482
G1 Y76.305
G3 X36.4568 Y75.8568 I0.6338 J0.0
G1 X37.6909 Y74.6228
G3 X38.81 Y73.8424 I1.1191 J0.4122
G3 X39.8428 Y75.6313 I0.0 J1.1926
G3 X38.1076 Y75.9988 I-1.0328 J-0.5963
G1 X37.5388 Y76.5675
G1 Y80.3539
G0 Z2.0
G0 X36.2688
G1 F100.0 Z-0.15
G1 F300.0 Y82.3925
G1 X37.6982 Y83.8218
G3 X37.8838 Y84.27 I-0.4482 J0.4482
G1 Y84.8477
G3 X37.8759 Y85.5564 I-0.6338 J0.3473
G3 X36.6241 I-0.6259 J-0.3614
G3 X36.6162 Y84.8477 I0.6259 J-0.3613
G1 Y84.5325
G1 X35.1868 Y83.1032
G3 X35.0012 Y82.655 I0.4482 J-0.4482
G1 Y72.495
G3 X35.1868 Y72.0468 I0.6338 J0.0
G1 X37.6909 Y69.5428
G3 X38.81 Y68.7624 I1.1191 J0.4122
G3 X39.8428 Y70.5513 I0.0 J1.1926
G3 X38.1076 Y70.9188 I-1.0328 J-0.5963
G1 X36.2688 Y72.7575
G1 Y80.3539
G0 Z2.0
G0 X35.827 Y84.4764
G1 F100.0 Z-0.15
G3 F300.0 X36.3838 Y85.5423 I-0.077 J0.7186
G1 Y87.1012
G1 X38.81
G3 Y88.3688 I0.0 J0.6338
G1 X35.75
G1 X29.92
G3 Y87.1012 I0.0 J-0.6338
G1 X35.1162
G1 Y85.5423
G3 X35.75 Y84.4723 I0.6338 J-0.3473
G3 X35.827 Y84.4764 I0.0 J0.7227
G0 Z2.0
G0 X31.8551 Y78.5649
G1 F100.0 Z-0.15
G3 F300.0 X30.1572 Y78.1713 I-0.6651 J-0.9899
G3 X31.19 Y76.3824 I1.0328 J-0.5963
G3 X32.2228 Y78.1713 I0.0 J1.1926
G3 X31.8551 Y78.5649 I-1.0328 J-0.5963
G0 Z2.0
G0 X31.4108 Y76.207
G1 F100.0 Z-0.15
G3 F300.0 X30.1572 Y75.6313 I-0.2208 J-1.172
G3 X30.0709 Y75.4472 I1.0328 J-0.5963
G1 X27.5668 Y72.9432
G3 X27.3812 Y72.495 I0.4482 J-0.4482
G1 Y66.0676
G3 X26.3472 Y65.4713 I-0.0012 J-1.1926
G3 X27.38 Y63.6824 I1.0328 J-0.5963
G3 X28.5395 Y65.1541 I0.0 J1.1926
G3 X28.6488 Y65.51 I-0.5245 J0.3559
G1 Y72.2325
G1 X30.4876 Y74.0712
G3 X31.19 Y73.8424 I0.7024 J0.9638
G3 X32.2228 Y75.6313 I0.0 J1.1926
G3 X31.4108 Y76.207 I-1.0328 J-0.5963
G0 Z2.0
G0 X31.2608 Y73.6855
G1 F100.0 Z-0.15
G3 F300.0 X30.1798 Y73.1288 I-0.0708 J-1.1905
G1 X29.92
G3 X29.4718 Y72.9432 I0.0 J-0.6338
G1 X28.8368 Y72.3082
G3 X28.6512 Y71.86 I0.4482 J-0.4482
G1 Y63.8675
G1 X28.0824 Y63.2988
G3 X26.3472 Y62.9313 I-0.7024 J-0.9638
G3 X27.38 Y61.1424 I1.0328 J-0.5963
G3 X28.4991 Y61.9228 I0.0 J1.1926
G1 X29.7332 Y63.1568
G3 X29.9188 Y63.605 I-0.4482 J0.4482
G1 Y71.5975
G1 X30.1808 Y71.8595
G3 X31.19 Y71.3024 I1.0092 J0.6355
G3 X32.2228 Y73.0913 I0.0 J1.1926
G3 X31.2608 Y73.6855 I-1.0328 J-0.5963
G0 Z2.0
G0 X26.0071 Y74.7897
G1 F100.0 Z-0.15
G3 F300.0 X25.8728 Y75.6313 I-1.1671 J0.2453
G3 X24.1376 Y75.9988 I-1.0328 J-0.5963
G1 X23.5688 Y76.5675
G1 Y81.7575
G1 X25.2282 Y83.4168
G3 X25.4138 Y83.865 I-0.4482 J0.4482
G1 Y84.8477
G3 X25.4059 Y85.5564 I-0.6338 J0.3473
G3 X24.1541 I-0.6259 J-0.3614
G3 X24.1462 Y84.8477 I0.6259 J-0.3614
G1 Y84.1275
G1 X22.4868 Y82.4682
G3 X22.3012 Y82.02 I0.4482 J-0.4482
G1 Y76.305
G3 X22.4868 Y75.8568 I0.6338 J0.0
G1 X23.7209 Y74.6228
G3 X24.84 Y73.8424 I1.1191 J0.4122
G3 X26.0071 Y74.7897 I0.0 J1.1926
G0 Z2.0
G0 X25.3009 Y76.4751
G1 F100.0 Z-0.15
G3 F300.0 X25.8728 Y78.1713 I-0.4609 J1.0999
G3 X25.4738 Y78.5852 I-1.0328 J-0.5963
G1 Y80.2033
G3 X25.5649 Y81.1685 I-0.6338 J0.5467
G3 X24.1151 I-0.7249 J-0.4185
G3 X24.2062 Y80.2033 I0.7249 J-0.4185
G1 Y78.5852
G3 X23.8072 Y78.1713 I0.6338 J-1.0102
G3 X24.84 Y76.3824 I1.0328 J-0.5963
G3 X25.3009 Y76.4751 I0.0 J1.1926
G0 Z2.0
G0 X22.2988
G1 F100.0 Z-0.15
G1 F300.0 Y82.3925
G1 X23.7282 Y83.8218
G3 X23.9138 Y84.27 I-0.4482 J0.4482
G1 Y84.8477
G3 X23.9059 Y85.5564 I-0.6338 J0.3473
G3 X22.6541 I-0.6259 J-0.3614
G3 X22.6462 Y84.8477 I0.6259 J-0.3614
G1 Y84.5325
G1 X21.2168 Y83.1032
G3 X21.0312 Y82.655 I0.4482 J-0.4482
G1 Y72.495
G3 X21.2168 Y72.0468 I0.6338 J0.0
G1 X23.7209 Y69.5428
G3 X24.84 Y68.7624 I1.1191 J0.4122
G3 X25.8728 Y70.5513 I0.0 J1.1926
G3 X24.1376 Y70.9188 I-1.0328 J-0.5963
G1 X22.2988 Y72.7575
G1 Y76.4751
G0 Z2.0
G0 X21.0288
G1 F100.0 Z-0.15
G1 F300.0 Y83.925
G3 X20.9138 Y84.2891 I-0.6338 J0.0
G1 Y84.8477
G3 X20.9059 Y85.5564 I-0.6338 J0.3473
G3 X19.6541 I-0.6259 J-0.3614
G3 X19.6462 Y84.8477 I0.6259 J-0.3613
G1 Y84.04
G3 X19.7612 Y83.6759 I0.6338 J0.0
G1 Y62.97
G3 X19.9468 Y62.5218 I0.6338 J0.0
G1 X20.5818 Y61.8868
G3 X21.03 Y61.7012 I0.4482 J0.4482
G1 X23.8298
G3 X24.84 Y61.1424 I1.0102 J0.6338
G3 X25.8728 Y62.9313 I0.0 J1.1926
G3 X23.8298 Y62.9688 I-1.0328 J-0.5963
G1 X21.2925
G1 X21.0288 Y63.2325
G1 Y76.4751
G0 Z2.0
G0 X19.7588
G1 F100.0 Z-0.15
G1 F300.0 Y83.29
G3 X19.5732 Y83.7382 I-0.6338 J0.0
G1 X19.4138 Y83.8975
G1 Y84.8477
G3 X19.4059 Y85.5564 I-0.6338 J0.3473
G3 X18.1541 I-0.6259 J-0.3614
G3 X18.1462 Y84.8477 I0.6259 J-0.3613
G1 Y83.635
G3 X18.3318 Y83.1868 I0.6338 J0.0
G1 X18.4912 Y83.0275
G1 Y62.335
G3 X18.6768 Y61.8868 I0.6338 J0.0
G1 X23.7209 Y56.8428
G3 X24.84 Y56.0624 I1.1191 J0.4122
G3 X25.8728 Y57.8513 I0.0 J1.1926
G3 X24.1376 Y58.2188 I-1.0328 J-0.5963
G1 X19.7588 Y62.5975
G1 Y76.4751
G0 Z2.0
G0 X18.3143 Y77.1009
G1 F100.0 Z-0.15
G3 F300.0 X18.2528 Y78.1713 I-1.0943 J0.4741
G3 X16.1872 I-1.0328 J-0.5963
G3 X17.22 Y76.3824 I1.0328 J-0.5963
G3 X18.3143 Y77.1009 I0.0 J1.1926
G0 Z2.0
G0 X17.7782 Y76.0889
G1 F100.0 Z-0.15
G3 F300.0 X16.1872 Y75.6313 I-0.5582 J-1.0539
G3 X16.1009 Y75.4472 I1.0328 J-0.5963
G1 X13.5968 Y72.9432
G3 X13.4112 Y72.495 I0.4482 J-0.4482
G1 Y65.7725
G1 X13.1475 Y65.5088
G1 X10.6102
G3 X8.5672 Y65.4713 I-1.0102 J-0.6338
G3 X9.6 Y63.6824 I1.0328 J-0.5963
G3 X10.6102 Y64.2412 I0.0 J1.1926
G1 X13.41
G3 X13.8582 Y64.4268 I0.0 J0.6338
G1 X14.4932 Y65.0618
G3 X14.6788 Y65.51 I-0.4482 J0.4482
G1 Y72.2325
G1 X16.5176 Y74.0712
G3 X17.22 Y73.8424 I0.7024 J0.9638
G3 X18.2528 Y75.6313 I0.0 J1.1926
G3 X17.7782 Y76.0889 I-1.0328 J-0.5963
G0 Z2.0
G0 X17.4031 Y73.6735
G1 F100.0 Z-0.15
G3 F300.0 X16.2098 Y73.1288 I-0.1831 J-1.1785
G1 X15.95
G3 X15.5018 Y72.9432 I0.0 J-0.6338
G1 X14.8668 Y72.3082
G3 X14.6812 Y71.86 I0.4482 J-0.4482
G1 Y65.1375
G1 X13.7825 Y64.2388
G1 X11.505
G3 X11.0568 Y64.0532 I0.0 J-0.6338
G1 X10.3024 Y63.2988
G3 X8.5672 Y62.9313 I-0.7024 J-0.9638
G3 X9.6 Y61.1424 I1.0328 J-0.5963
G3 X10.7191 Y61.9228 I0.0 J1.1926
G1 X11.7675 Y62.9712
G1 X14.045
G3 X14.4932 Y63.1568 I0.0 J0.6338
G1 X15.7632 Y64.4268
G3 X15.9488 Y64.875 I-0.4482 J0.4482
G1 Y71.5975
G1 X16.2108 Y71.8595
G3 X17.22 Y71.3024 I1.0092 J0.6355
G3 X18.2528 Y73.0913 I0.0 J1.1926
G3 X17.4031 Y73.6735 I-1.0328 J-0.5963
G0 Z2.0
G0 X13.4087 Y73.7525
G1 F100.0 Z-0.15
G3 F300.0 X13.2232 Y74.2132 I-0.6337 J0.0125
G1 X11.8382 Y75.5982
G3 X11.39 Y75.7838 I-0.4482 J-0.4482
G1 X10.5823
G3 X9.6091 Y75.5114 I-0.3473 J-0.6338
G3 X10.235 Y74.4273 I0.6259 J-0.3614
G3 X10.5823 Y74.5162 I0.0 J0.7227
G1 X11.1275
G1 X12.3268 Y73.3168
G3 X13.4087 Y73.7525 I0.4482 J0.4482
G0 Z2.0
G0 X12.5938 Y72.9376
G1 F100.0 Z-0.15
G1 F300.0 X11.4332 Y74.0982
G3 X10.985 Y74.2838 I-0.4482 J-0.4482
G1 X10.5823
G3 X9.6091 Y74.0114 I-0.3473 J-0.6338
G3 X10.235 Y72.9273 I0.6259 J-0.3614
G3 X10.5823 Y73.0162 I0.0 J0.7227
G1 X10.7225
G1 X12.3268 Y71.4118
G3 X13.2232 Y72.3082 I0.4482 J0.4482
G1 X12.5938 Y72.9376
G0 Z2.0
G0 X11.6413 Y71.9851
G1 F100.0 Z-0.15
G1 F300.0 X11.0282 Y72.5982
G3 X10.5823 Y72.7838 I-0.4482 J-0.4482
G3 X9.6091 Y72.5114 I-0.3473 J-0.6338
G3 X10.235 Y71.4273 I0.6259 J-0.3614
G3 X10.3896 Y71.444 I0.0 J0.7227
G1 X12.3268 Y69.5068
G3 X13.2232 Y70.4032 I0.4482 J0.4482
G1 X11.6413 Y71.9851
G0 Z2.0
G0 X9.797 Y60.9712
G1 F100.0 Z-0.15
G3 F300.0 X8.5672 Y60.3913 I-0.197 J-1.1762
G3 X9.6 Y58.6024 I1.0328 J-0.5963
G3 X10.6328 Y60.3913 I0.0 J1.1926
G3 X9.797 Y60.9712 I-1.0328 J-0.5963
G0 Z2.0
G0 X9.6631 Y58.4459
G1 F100.0 Z-0.15
G3 F300.0 X8.5672 Y57.8513 I-0.0631 J-1.1909
G3 X9.6 Y56.0624 I1.0328 J-0.5963
G3 X10.6328 Y57.8513 I0.0 J1.1926
G3 X9.6631 Y58.4459 I-1.0328 J-0.5963
G0 Z2.0
G0 X23.6521 Y59.6894
G1 F100.0 Z-0.15
G3 F300.0 X24.84 Y58.6024 I1.1879 J0.1056
G3 X25.8728 Y60.3913 I0.0 J1.1926
G3 X23.8072 I-1.0328 J-0.5963
G3 X23.6521 Y59.6894 I1.0328 J-0.5963
G0 Z2.0
G0 X26.1879 Y59.7612
G1 F100.0 Z-0.15
G3 F300.0 X27.38 Y58.6024 I1.1921 J0.0338
G3 X28.4128 Y60.3913 I0.0 J1.1926
G3 X26.3472 I-1.0328 J-0.5963
G3 X26.1879 Y59.7612 I1.0328 J-0.5963
G0 Z2.0
G0 X26.8677 Y58.332
G1 F100.0 Z-0.15
G3 F300.0 X26.3472 Y57.8513 I0.5123 J-1.077
G3 X27.38 Y56.0624 I1.0328 J-0.5963
G3 X28.4128 Y57.8513 I0.0 J1.1926
G3 X26.8677 Y58.332 I-1.0328 J-0.5963
G0 Z2.0
G0 X25.193 Y63.7358
G1 F100.0 Z-0.15
G3 F300.0 X25.8728 Y65.4713 I-0.353 J1.1392
G3 X23.8072 I-1.0328 J-0.5963
G3 X24.84 Y63.6824 I1.0328 J-0.5963
G3 X25.193 Y63.7358 I0.0 J1.1926
G0 Z2.0
G0 X21.8935 Y84.4813
G1 F100.0 Z-0.15
G3 F300.0 X22.4138 Y85.5423 I-0.1135 J0.7137
G1 Y87.1012
G1 X24.84
G3 Y88.3688 I0.0 J0.6338
G1 X21.78
G1 X15.95
G3 Y87.1012 I0.0 J-0.6338
G1 X21.1462
G1 Y85.5423
G3 X21.78 Y84.4723 I0.6338 J-0.3473
G3 X21.8935 Y84.4813 I0.0 J0.7227
G0 Z2.0
G0 X43.263 Y87.6423
G1 F100.0 Z-0.15
G3 F300.0 X43.89 Y87.1012 I0.627 J0.0927
G1 X49.0862
G1 Y85.5423
G3 X49.72 Y84.4723 I0.6338 J-0.3473
G3 X50.3538 Y85.5423 I0.0 J0.7227
G1 Y87.1012
G1 X52.78
G3 Y88.3688 I0.0 J0.6338
G1 X49.72
G1 X43.89
G3 X43.263 Y87.6423 I0.0 J-0.6338
G0 Z2.0
G0 X59.6828 Y65.8278
G1 F100.0 Z-0.15
G3 F300.0 X59.3672 Y65.4713 I0.7172 J-0.9528
G3 X60.4 Y63.6824 I1.0328 J-0.5963
G3 X61.4328 Y65.4713 I0.0 J1.1926
G3 X59.6828 Y65.8278 I-1.0328 J-0.5963
G0 Z2.0
G0 X60.2592 Y60.9793
G1 F100.0 Z-0.15
G3 F300.0 X59.3672 Y60.3913 I0.1408 J-1.1843
G3 X60.4 Y58.6024 I1.0328 J-0.5963
G3 X61.4328 Y60.3913 I0.0 J1.1926
G3 X60.2592 Y60.9793 I-1.0328 J-0.5963
G0 Z2.0
G0 X60.3911 Y43.2076
G1 F100.0 Z-0.15
G3 F300.0 X59.3672 Y42.6113 I0.0089 J-1.1926
G3 X60.4 Y40.8224 I1.0328 J-0.5963
G3 X61.4328 Y42.6113 I0.0 J1.1926
G3 X60.3911 Y43.2076 I-1.0328 J-0.5963
G0 Z2.0
G0 X60.3983 Y38.1276
G1 F100.0 Z-0.15
G3 F300.0 X59.3672 Y37.5313 I0.0017 J-1.1926
G3 X59.7662 Y35.9248 I1.0328 J-0.5963
G1 Y35.0288
G1 X58.495
G3 Y33.7612 I0.0 J-0.6338
G1 X60.4
G3 X61.0338 Y34.395 I0.0 J0.6338
G1 Y35.9248
G3 X61.4328 Y37.5313 I-0.6338 J1.0102
G3 X60.3983 Y38.1276 I-1.0328 J-0.5963
G0 Z2.0
G0 X10.7891 Y41.924
G1 F100.0 Z-0.15
G3 F300.0 X10.6328 Y42.6113 I-1.1891 J0.091
G3 X8.5672 I-1.0328 J-0.5963
G3 X9.6 Y40.8224 I1.0328 J-0.5963
G3 X10.7891 Y41.924 I0.0 J1.1926
G0 Z2.0
M5
M30
