( Made using CamBam - http://www.cambam.co.uk )
( pcb_servo 4/7/2022 2:42:46 PM )
( T0 : 0.9 )
G21 G90 G40
G0 Z2.0
( T0 : 0.9 )
T0 M6
( 3_drill_09 )
G17
M3 S1000
G0 X31.19 Y69.955
G81 X31.19 Y69.955 Z-2.0 R2.0 F100.0
G81 Y72.495 Z-2.0
G81 Y75.035 Z-2.0
G81 Y77.575 Z-2.0
G81 X24.84 Z-2.0
G81 Y75.035 Z-2.0
G81 Y72.495 Z-2.0
G81 Y69.955 Z-2.0
G81 X17.22 Z-2.0
G81 Y72.495 Z-2.0
G81 Y75.035 Z-2.0
G81 Y77.575 Z-2.0
G81 X24.84 Y80.75 Z-2.0
G81 X38.81 Z-2.0
G81 X40.08 Z-2.0
G81 X38.81 Y77.575 Z-2.0
G81 Y75.035 Z-2.0
G81 Y72.495 Z-2.0
G81 Y69.955 Z-2.0
G81 X45.16 Z-2.0
G81 Y72.495 Z-2.0
G81 Y75.035 Z-2.0
G81 Y77.575 Z-2.0
G81 X52.78 Z-2.0
G81 Y75.035 Z-2.0
G81 Y72.495 Z-2.0
G81 Y69.955 Z-2.0
G81 X59.13 Y71.225 Z-2.0
G81 Y73.765 Z-2.0
G81 X54.05 Y80.75 Z-2.0
G81 X52.78 Z-2.0
G81 Y55.35 Z-2.0
G81 Y50.27 Z-2.0
G81 X35.0 Z-2.0
G81 Y55.35 Z-2.0
G81 X17.22 Z-2.0
G81 Y50.27 Z-2.0
G81 Y28.045 Z-2.0
G81 Y25.505 Z-2.0
G81 Y22.965 Z-2.0
G81 Y20.425 Z-2.0
G81 Y17.25 Z-2.0
G81 X24.84 Y20.425 Z-2.0
G81 Y22.965 Z-2.0
G81 Y25.505 Z-2.0
G81 Y28.045 Z-2.0
G81 X31.19 Z-2.0
G81 Y25.505 Z-2.0
G81 Y22.965 Z-2.0
G81 Y20.425 Z-2.0
G81 X31.571 Y17.25 Z-2.0
G81 X30.301 Z-2.0
G81 X38.81 Y20.425 Z-2.0
G81 Y22.965 Z-2.0
G81 Y25.505 Z-2.0
G81 Y28.045 Z-2.0
G81 X45.16 Z-2.0
G81 Y25.505 Z-2.0
G81 Y22.965 Z-2.0
G81 Y20.425 Z-2.0
G81 X45.414 Y17.25 Z-2.0
G81 X44.144 Z-2.0
G81 X52.78 Y20.425 Z-2.0
G81 Y22.965 Z-2.0
G81 Y25.505 Z-2.0
G81 Y28.045 Z-2.0
G80
M5
M30
