( Made using CamBam - http://www.cambam.co.uk )
( pcb_servo 4/7/2022 2:42:44 PM )
( T0 : 0.7 )
G21 G90 G40
G0 Z2.0
( T0 : 0.7 )
T0 M6
( 2_drill_07 )
G17
M3 S1000
G0 X20.28 Y85.195
G81 X20.28 Y85.195 Z-2.0 R2.0 F100.0
G81 X18.78 Z-2.0
G81 X17.28 Z-2.0
G81 X21.78 Z-2.0
G81 X23.28 Z-2.0
G81 X24.78 Z-2.0
G81 X31.25 Z-2.0
G81 X32.75 Z-2.0
G81 X34.25 Z-2.0
G81 X35.75 Z-2.0
G81 X37.25 Z-2.0
G81 X38.75 Z-2.0
G81 X45.22 Z-2.0
G81 X46.72 Z-2.0
G81 X48.22 Z-2.0
G81 X49.72 Z-2.0
G81 X51.22 Z-2.0
G81 X52.72 Z-2.0
G81 X10.235 Y76.65 Z-2.0
G81 Y75.15 Z-2.0
G81 Y73.65 Z-2.0
G81 Y72.15 Z-2.0
G81 X17.28 Y12.805 Z-2.0
G81 X18.78 Z-2.0
G81 X20.28 Z-2.0
G81 X21.78 Z-2.0
G81 X23.28 Z-2.0
G81 X24.78 Z-2.0
G81 X31.25 Z-2.0
G81 X32.75 Z-2.0
G81 X34.25 Z-2.0
G81 X35.75 Z-2.0
G81 X37.25 Z-2.0
G81 X38.75 Z-2.0
G81 X45.22 Z-2.0
G81 X46.72 Z-2.0
G81 X48.22 Z-2.0
G81 X49.72 Z-2.0
G81 X51.22 Z-2.0
G81 X52.72 Z-2.0
G80
M5
M30
