( Made using CamBam - http://www.cambam.co.uk )
( pcb_servo 4/7/2022 2:42:49 PM )
( T0 : 1.5 )
G21 G90 G40
G0 Z2.0
( T0 : 1.5 )
T0 M6
( 4_drill_15 )
G17
M3 S1000
G0 X9.6 Y62.335
G81 X9.6 Y62.335 Z-2.0 R2.0 F100.0
G81 Y59.795 Z-2.0
G81 Y57.255 Z-2.0
G81 Y52.175 Z-2.0
G81 Y49.635 Z-2.0
G81 Y44.555 Z-2.0
G81 Y42.015 Z-2.0
G81 Y39.475 Z-2.0
G81 Y36.935 Z-2.0
G81 X21.919 Y45.698 Z-2.0
G81 Y48.238 Z-2.0
G81 X24.84 Y44.555 Z-2.0
G81 Y42.015 Z-2.0
G81 Y39.475 Z-2.0
G81 X27.38 Z-2.0
G81 Y36.935 Z-2.0
G81 X24.84 Z-2.0
G81 X27.38 Y42.015 Z-2.0
G81 Y44.555 Z-2.0
G81 Y49.635 Z-2.0
G81 Y52.175 Z-2.0
G81 Y57.255 Z-2.0
G81 X24.84 Z-2.0
G81 Y59.795 Z-2.0
G81 Y62.335 Z-2.0
G81 Y64.875 Z-2.0
G81 X27.38 Z-2.0
G81 Y62.335 Z-2.0
G81 Y59.795 Z-2.0
G81 X42.62 Z-2.0
G81 X45.16 Z-2.0
G81 Y62.335 Z-2.0
G81 Y64.875 Z-2.0
G81 X42.62 Z-2.0
G81 Y62.335 Z-2.0
G81 Y57.255 Z-2.0
G81 X45.16 Z-2.0
G81 Y52.175 Z-2.0
G81 Y49.635 Z-2.0
G81 Y44.555 Z-2.0
G81 Y42.015 Z-2.0
G81 Y39.475 Z-2.0
G81 X42.62 Z-2.0
G81 Y42.015 Z-2.0
G81 Y44.555 Z-2.0
G81 X39.699 Y45.698 Z-2.0
G81 Y48.238 Z-2.0
G81 X42.62 Y36.935 Z-2.0
G81 X45.16 Z-2.0
G81 X57.479 Y45.698 Z-2.0
G81 Y48.238 Z-2.0
G81 X60.4 Y44.555 Z-2.0
G81 Y42.015 Z-2.0
G81 Y39.475 Z-2.0
G81 Y36.935 Z-2.0
G81 Y57.255 Z-2.0
G81 Y59.795 Z-2.0
G81 Y62.335 Z-2.0
G81 Y64.875 Z-2.0
G81 X9.6 Z-2.0
G80
M5
M30
