( Made using CamBam - http://www.cambam.co.uk )
( pcb_power 3/31/2022 8:49:52 AM )
( T0 : 0.7 )
G21 G90 G40
G0 Z2.0
( T0 : 0.7 )
T0 M6
( 4_drill_07 )
G17
M3 S1000
G0 X35.75 Y12.17
G81 X35.75 Y12.17 Z-2.0 R2.0 F100.0
G81 X37.25 Z-2.0
G81 X38.75 Z-2.0
G81 X34.25 Z-2.0
G81 X32.75 Z-2.0
G81 X31.25 Z-2.0
G81 X27.32 Z-2.0
G81 X25.82 Z-2.0
G81 X24.32 Z-2.0
G81 X22.82 Z-2.0
G81 X21.32 Z-2.0
G81 X19.82 Z-2.0
G81 X44.18 Z-2.0
G81 X45.68 Z-2.0
G81 X47.18 Z-2.0
G81 X48.68 Z-2.0
G80
M5
M30
