( Made using CamBam - http://www.cambam.co.uk )
( pcb_power 3/31/2022 8:49:47 AM )
( T0 : 1.5 )
G21 G90 G40
G0 Z2.0
( T0 : 1.5 )
T0 M6
( 2_drill_15 )
G17
M3 S1000
G0 X40.08 Y43.285
G81 X40.08 Y43.285 Z-2.0 R2.0 F100.0
G81 Y35.03 Z-2.0
G81 X42.62 Z-2.0
G81 X45.16 Z-2.0
G81 X47.7 Z-2.0
G81 X38.937 Y32.109 Z-2.0
G81 X36.397 Z-2.0
G81 X27.38 Y35.03 Z-2.0
G81 X24.84 Z-2.0
G81 X22.3 Z-2.0
G81 X19.76 Z-2.0
G81 Y19.79 Z-2.0
G81 X22.3 Z-2.0
G81 X24.84 Z-2.0
G81 X27.38 Z-2.0
G81 X29.92 Z-2.0
G81 X32.46 Z-2.0
G81 X35.0 Z-2.0
G81 X37.54 Z-2.0
G81 X40.08 Z-2.0
G81 X42.62 Z-2.0
G81 X45.16 Z-2.0
G81 X47.7 Z-2.0
G81 X40.08 Y58.525 Z-2.0
G81 X47.7 Y69.32 Z-2.0
G81 Y84.56 Z-2.0
G80
M5
M30
