( Made using CamBam - http://www.cambam.co.uk )
( pcb_power 3/31/2022 8:49:44 AM )
( T0 : 0.15 )
G21 G90 G40
G0 Z2.0
( T0 : 0.15 )
T0 M6
( 1_traces )
G17
M3 S1000
G0 X42.62 Y36.2226
G1 F100.0 Z-0.15
G3 F300.0 X41.5872 Y34.4337 I0.0 J-1.1926
G3 X43.6528 I1.0328 J0.5963
G3 X42.62 Y36.2226 I-1.0328 J0.5963
G0 Z2.0
G0 X41.1595 Y35.5369
G1 F100.0 Z-0.15
G3 F300.0 X40.08 Y36.2226 I-1.0795 J-0.5069
G3 X39.0472 Y34.4337 I0.0 J-1.1926
G3 X41.1128 I1.0328 J0.5963
G3 X41.1595 Y35.5369 I-1.0328 J0.5963
G0 Z2.0
G0 X39.5858 Y33.1097
G1 F100.0 Z-0.15
G3 F300.0 X38.937 Y33.3016 I-0.6488 J-1.0007
G3 X37.9042 Y31.5127 I0.0 J-1.1926
G3 X38.3032 Y31.0988 I1.0328 J0.5963
G1 Y29.0791
G3 X38.4888 Y28.6309 I0.6338 J0.0
G1 X40.1579 Y26.9618
G3 X40.6061 Y26.7762 I0.4482 J0.4482
G1 X44.8975
G1 X50.2412 Y21.4325
G1 Y18.1475
G1 X46.7318 Y14.6382
G3 X46.5462 Y14.19 I0.4482 J-0.4482
G1 Y12.5173
G3 X46.5541 Y11.8087 I0.6338 J-0.3473
G3 X47.8059 I0.6259 J0.3614
G3 X47.8138 Y12.5173 I-0.6259 J0.3613
G1 Y13.9275
G1 X51.3232 Y17.4368
G3 X51.5088 Y17.885 I-0.4482 J0.4482
G1 Y21.695
G3 X51.3232 Y22.1432 I-0.6338 J0.0
G1 X45.6082 Y27.8582
G3 X45.16 Y28.0438 I-0.4482 J-0.4482
G1 X40.8686
G1 X39.5708 Y29.3416
G1 Y31.0988
G3 X39.9698 Y31.5127 I-0.6338 J1.0102
G3 X39.5858 Y33.1097 I-1.0328 J0.5963
G0 Z2.0
G0 X37.5349 Y32.4661
G1 F100.0 Z-0.15
G3 F300.0 X36.397 Y33.3016 I-1.1379 J-0.3571
G3 X35.3642 Y31.5127 I0.0 J-1.1926
G3 X35.7632 Y31.0988 I1.0328 J0.5963
G1 Y29.823
G3 X35.9488 Y29.3748 I0.6338 J0.0
G1 X39.6318 Y25.6918
G3 X40.08 Y25.5062 I0.4482 J0.4482
G1 X44.2625
G1 X48.9712 Y20.7975
G1 Y18.7825
G1 X45.2318 Y15.0432
G3 X45.0462 Y14.595 I0.4482 J-0.4482
G1 Y12.5173
G3 X45.0541 Y11.8087 I0.6338 J-0.3473
G3 X46.3059 I0.6259 J0.3614
G3 X46.3138 Y12.5173 I-0.6259 J0.3613
G1 Y14.3325
G1 X50.0532 Y18.0718
G3 X50.2388 Y18.52 I-0.4482 J0.4482
G1 Y21.06
G3 X50.0532 Y21.5082 I-0.6338 J0.0
G1 X44.9732 Y26.5882
G3 X44.525 Y26.7738 I-0.4482 J-0.4482
G1 X40.3425
G1 X37.0308 Y30.0855
G1 Y31.0988
G3 X37.4298 Y31.5127 I-0.6338 J1.0102
G3 X37.5349 Y32.4661 I-1.0328 J0.5963
G0 Z2.0
G0 X28.5363 Y34.7381
G1 F100.0 Z-0.15
G3 F300.0 X27.38 Y36.2226 I-1.1563 J0.2919
G3 X26.3472 Y34.4337 I0.0 J-1.1926
G3 X28.4128 I1.0328 J0.5963
G3 X28.5363 Y34.7381 I-1.0328 J0.5963
G0 Z2.0
G0 X26.0289 Y34.9361
G1 F100.0 Z-0.15
G3 F300.0 X24.84 Y36.2226 I-1.1889 J0.0939
G3 X23.8072 Y34.4337 I0.0 J-1.1926
G3 X24.2062 Y34.0198 I1.0328 J0.5963
G1 Y30.8475
G1 X17.4068 Y24.0482
G3 X17.2212 Y23.6 I0.4482 J-0.4482
G1 Y11.535
G3 X17.4068 Y11.0868 I0.6338 J0.0
G1 X18.6768 Y9.8168
G3 X19.125 Y9.6312 I0.4482 J0.4482
G1 X24.84
G3 X25.2882 Y9.8168 I0.0 J0.6338
G1 X26.2682 Y10.7968
G3 X26.4538 Y11.245 I-0.4482 J0.4482
G1 Y11.8227
G3 X25.82 Y12.8927 I-0.6338 J0.3473
G3 X25.1862 Y11.8227 I0.0 J-0.7227
G1 Y11.5075
G1 X24.5775 Y10.8988
G1 X19.3875
G1 X18.4888 Y11.7975
G1 Y23.3375
G1 X25.2882 Y30.1368
G3 X25.4738 Y30.585 I-0.4482 J0.4482
G1 Y34.0198
G3 X25.8728 Y34.4337 I-0.6338 J1.0102
G3 X26.0289 Y34.9361 I-1.0328 J0.5963
G0 Z2.0
G0 X23.4922 Y35.0
G1 F100.0 Z-0.15
G3 F300.0 X22.3 Y36.2226 I-1.1922 J0.03
G3 X21.2672 Y34.4337 I0.0 J-1.1926
G3 X23.3328 I1.0328 J0.5963
G3 X23.4922 Y35.0 I-1.0328 J0.5963
G0 Z2.0
G0 X20.9526 Y35.0204
G1 F100.0 Z-0.15
G3 F300.0 X19.76 Y36.2226 I-1.1926 J0.0096
G3 X18.7272 Y34.4337 I0.0 J-1.1926
G3 X20.7928 I1.0328 J0.5963
G3 X20.9526 Y35.0204 I-1.0328 J0.5963
G0 Z2.0
G0 X14.0438
G1 F100.0 Z-0.15
G1 F300.0 Y39.2125
G1 X17.4825 Y42.6512
G1 X25.8935
G3 X27.1651 Y42.8665 I0.5467 J0.6338
G3 X26.4402 Y44.122 I-0.7249 J0.4185
G3 X25.8935 Y43.9188 I0.0 J-0.837
G1 X17.8538
G1 Y46.46
G1 Y57.89
G1 Y66.5175
G1 X19.8216 Y68.4853
G3 X20.4849 Y68.9015 I-0.0616 J0.8347
G3 X19.76 Y70.157 I-0.7249 J0.4185
G3 X18.9253 Y69.3816 I0.0 J-0.837
G1 X16.7718 Y67.2282
G3 X16.5862 Y66.78 I0.4482 J-0.4482
G1 Y58.5238
G1 X15.3374
G3 X14.68 Y58.8032 I-0.6574 J-0.6338
G3 X13.8891 Y57.4334 I0.0 J-0.9132
G3 X15.3374 Y57.2562 I0.7909 J0.4566
G1 X16.5862
G1 Y47.0938
G1 X15.3374
G3 X14.68 Y47.3732 I-0.6574 J-0.6338
G3 X13.8891 Y46.0034 I0.0 J-0.9132
G3 X15.3374 Y45.8262 I0.7909 J0.4566
G1 X16.5862
G1 Y43.5475
G1 X12.9618 Y39.9232
G3 X12.7762 Y39.475 I0.4482 J-0.4482
G1 Y27.6725
G1 X12.5125 Y27.4088
G1 X11.3229
G3 X10.87 Y27.554 I-0.4529 J-0.6338
G3 X10.1954 Y26.3855 I0.0 J-0.779
G3 X11.3229 Y26.1412 I0.6746 J0.3895
G1 X12.775
G3 X13.2232 Y26.3268 I0.0 J0.6338
G1 X13.8582 Y26.9618
G3 X14.0438 Y27.41 I-0.4482 J0.4482
G1 Y35.0204
G0 Z2.0
G0 X19.3409 Y20.9066
G1 F100.0 Z-0.15
G3 F300.0 X18.7272 Y19.1937 I0.4191 J-1.1166
G3 X19.1262 Y18.7798 I1.0328 J0.5963
G1 Y12.3723
G3 X19.1941 Y11.8087 I0.6938 J-0.2023
G3 X20.4459 I0.6259 J0.3614
G3 X20.3938 Y12.6094 I-0.6259 J0.3613
G1 Y18.7798
G3 X20.7928 Y19.1937 I-0.6338 J1.0102
G3 X19.76 Y20.9826 I-1.0328 J0.5963
G3 X19.3409 Y20.9066 I0.0 J-1.1926
G0 Z2.0
G0 X21.1842 Y20.211
G1 F100.0 Z-0.15
G3 F300.0 X21.2672 Y19.1937 I1.1158 J-0.421
G3 X21.6662 Y18.7798 I1.0328 J0.5963
G1 Y18.1475
G1 X20.8718 Y17.3532
G3 X20.6862 Y16.905 I0.4482 J-0.4482
G1 Y12.5173
G3 X20.6941 Y11.8087 I0.6338 J-0.3473
G3 X21.9459 I0.6259 J0.3614
G3 X21.9538 Y12.5173 I-0.6259 J0.3613
G1 Y16.6425
G1 X22.7482 Y17.4368
G3 X22.9338 Y17.885 I-0.4482 J0.4482
G1 Y18.7798
G3 X23.3328 Y19.1937 I-0.6338 J1.0102
G3 X22.3 Y20.9826 I-1.0328 J0.5963
G3 X21.1842 Y20.211 I0.0 J-1.1926
G0 Z2.0
G0 X23.6552 Y19.9264
G1 F100.0 Z-0.15
G3 F300.0 X23.8072 Y19.1937 I1.1848 J-0.1364
G3 X24.2045 Y18.7808 I1.0328 J0.5963
G1 X22.3718 Y16.9482
G3 X22.1862 Y16.5 I0.4482 J-0.4482
G1 Y12.5173
G3 X22.1941 Y11.8087 I0.6338 J-0.3473
G3 X23.4459 I0.6259 J0.3614
G3 X23.4538 Y12.5173 I-0.6259 J0.3613
G1 Y16.2375
G1 X25.2882 Y18.0718
G3 X25.4738 Y18.52 I-0.4482 J0.4482
G1 Y18.7798
G3 X25.8728 Y19.1937 I-0.6338 J1.0102
G3 X24.84 Y20.9826 I-1.0328 J0.5963
G3 X23.6552 Y19.9264 I0.0 J-1.1926
G0 Z2.0
G0 X26.1882 Y19.8337
G1 F100.0 Z-0.15
G3 F300.0 X26.3472 Y19.1937 I1.1918 J-0.0437
G3 X26.4162 Y19.0876 I1.0328 J0.5963
G1 X23.8718 Y16.5432
G3 X23.6862 Y16.095 I0.4482 J-0.4482
G1 Y12.5173
G3 X23.6941 Y11.8087 I0.6338 J-0.3473
G3 X24.9459 I0.6259 J0.3614
G3 X24.9538 Y12.5173 I-0.6259 J0.3613
G1 Y15.8325
G1 X27.7922 Y18.6709
G3 X28.4128 Y19.1937 I-0.4122 J1.1191
G3 X27.38 Y20.9826 I-1.0328 J0.5963
G3 X26.1882 Y19.8337 I0.0 J-1.1926
G0 Z2.0
G0 X28.7275 Y19.804
G1 F100.0 Z-0.15
G3 F300.0 X28.8872 Y19.1937 I1.1925 J-0.014
G3 X29.2862 Y18.7798 I1.0328 J0.5963
G1 Y18.52
G3 X29.4718 Y18.0718 I0.6338 J0.0
G1 X30.5562 Y16.9875
G1 Y12.3723
G3 X30.6241 Y11.8087 I0.6938 J-0.2023
G3 X31.8759 I0.6259 J0.3614
G3 X31.8238 Y12.6094 I-0.6259 J0.3613
G1 Y17.25
G3 X31.6382 Y17.6982 I-0.6338 J0.0
G1 X30.5555 Y18.7808
G3 X30.9528 Y19.1937 I-0.6355 J1.0092
G3 X29.92 Y20.9826 I-1.0328 J0.5963
G3 X28.7275 Y19.804 I0.0 J-1.1926
G0 Z2.0
G0 X31.2674 Y19.7945
G1 F100.0 Z-0.15
G3 F300.0 X31.4272 Y19.1937 I1.1926 J-0.0045
G3 X31.8262 Y18.7798 I1.0328 J0.5963
G1 Y17.885
G3 X32.0118 Y17.4368 I0.6338 J0.0
G1 X32.1162 Y17.3325
G1 Y12.5173
G3 X32.1241 Y11.8087 I0.6338 J-0.3473
G3 X33.3759 I0.6259 J0.3614
G3 X33.3838 Y12.5173 I-0.6259 J0.3613
G1 Y17.595
G3 X33.1982 Y18.0432 I-0.6338 J0.0
G1 X33.0938 Y18.1475
G1 Y18.7798
G3 X33.4928 Y19.1937 I-0.6338 J1.0102
G3 X32.46 Y20.9826 I-1.0328 J0.5963
G3 X31.2674 Y19.7945 I0.0 J-1.1926
G0 Z2.0
G0 X33.8074 Y19.7914
G1 F100.0 Z-0.15
G3 F300.0 X33.9672 Y19.1937 I1.1926 J-0.0014
G3 X34.3662 Y18.7798 I1.0328 J0.5963
G1 Y18.1475
G1 X33.8018 Y17.5832
G3 X33.6162 Y17.135 I0.4482 J-0.4482
G1 Y12.5173
G3 X33.6241 Y11.8087 I0.6338 J-0.3473
G3 X34.8759 I0.6259 J0.3614
G3 X34.8838 Y12.5173 I-0.6259 J0.3613
G1 Y16.8725
G1 X35.4482 Y17.4368
G3 X35.6338 Y17.885 I-0.4482 J0.4482
G1 Y18.7798
G3 X36.0328 Y19.1937 I-0.6338 J1.0102
G3 X35.0 Y20.9826 I-1.0328 J0.5963
G3 X33.8074 Y19.7914 I0.0 J-1.1926
G0 Z2.0
G0 X36.3474 Y19.7905
G1 F100.0 Z-0.15
G3 F300.0 X36.5072 Y19.1937 I1.1926 J-0.0005
G3 X36.9045 Y18.7808 I1.0328 J0.5963
G1 X35.3018 Y17.1782
G3 X35.1162 Y16.73 I0.4482 J-0.4482
G1 Y12.5173
G3 X35.1241 Y11.8087 I0.6338 J-0.3473
G3 X36.3759 I0.6259 J0.3614
G3 X36.3838 Y12.5173 I-0.6259 J0.3613
G1 Y16.4675
G1 X37.9882 Y18.0718
G3 X38.1738 Y18.52 I-0.4482 J0.4482
G1 Y18.7798
G3 X38.5728 Y19.1937 I-0.6338 J1.0102
G3 X37.54 Y20.9826 I-1.0328 J0.5963
G3 X36.3474 Y19.7905 I0.0 J-1.1926
G0 Z2.0
G0 X38.0833 Y18.0546
G1 F100.0 Z-0.15
G1 F300.0 X36.8018 Y16.7732
G3 X36.6162 Y16.325 I0.4482 J-0.4482
G1 Y12.5173
G3 X36.6241 Y11.8087 I0.6338 J-0.3473
G3 X37.8759 I0.6259 J0.3614
G3 X37.8838 Y12.5173 I-0.6259 J0.3613
G1 Y16.0625
G1 X39.0725 Y17.2512
G1 X43.89
G3 X44.3382 Y17.4368 I0.0 J0.6338
G1 X45.5722 Y18.6709
G3 X46.1928 Y19.1937 I-0.4122 J1.1191
G3 X45.16 Y20.9826 I-1.0328 J0.5963
G3 X44.1272 Y19.1937 I0.0 J-1.1926
G3 X44.1962 Y19.0876 I1.0328 J0.5963
G1 X43.6275 Y18.5188
G1 X38.81
G3 X38.3618 Y18.3332 I0.0 J-0.6338
G1 X38.0833 Y18.0546
G0 Z2.0
G0 X39.1799 Y19.0077
G1 F100.0 Z-0.15
G3 F300.0 X41.1128 Y19.1937 I0.9001 J0.7823
G3 X40.08 Y20.9826 I-1.0328 J0.5963
G3 X39.0472 Y19.1937 I0.0 J-1.1926
G3 X39.1799 Y19.0077 I1.0328 J0.5963
G0 Z2.0
G0 X41.4571 Y19.5255
G1 F100.0 Z-0.15
G3 F300.0 X41.5872 Y19.1937 I1.1629 J0.2645
G3 X43.6528 I1.0328 J0.5963
G3 X42.62 Y20.9826 I-1.0328 J0.5963
G3 X41.4571 Y19.5255 I0.0 J-1.1926
G0 Z2.0
G0 X46.5085 Y19.7395
G1 F100.0 Z-0.15
G3 F300.0 X46.6672 Y19.1937 I1.1915 J0.0505
G3 X48.7328 I1.0328 J0.5963
G3 X47.7 Y20.9826 I-1.0328 J0.5963
G3 X46.5085 Y19.7395 I0.0 J-1.1926
G0 Z2.0
G0 X51.5112
G1 F100.0 Z-0.15
G1 F300.0 Y17.5125
G1 X48.2318 Y14.2332
G3 X48.0462 Y13.785 I0.4482 J-0.4482
G1 Y12.5173
G3 X48.0541 Y11.8087 I0.6338 J-0.3473
G3 X49.3059 I0.6259 J0.3614
G3 X49.3138 Y12.5173 I-0.6259 J0.3613
G1 Y13.5225
G1 X52.5932 Y16.8018
G3 X52.7788 Y17.25 I-0.4482 J0.4482
G1 Y22.33
G3 X52.5932 Y22.7782 I-0.6338 J0.0
G1 X48.3338 Y27.0375
G1 Y34.0198
G3 X48.7328 Y34.4337 I-0.6338 J1.0102
G3 X48.8625 Y35.2962 I-1.0328 J0.5963
G1 X49.4182 Y35.8518
G3 X49.6038 Y36.3 I-0.4482 J0.4482
G1 Y43.285
G1 Y51.5176
G3 X49.7609 Y51.7184 I-0.6338 J0.6574
G3 X48.97 Y53.0882 I-0.7909 J0.4566
G3 X48.1791 Y51.7184 I0.0 J-0.9132
G3 X48.3362 Y51.5176 I0.7909 J0.4566
G1 Y43.9188
G1 X47.0874
G3 X46.43 Y44.1982 I-0.6574 J-0.6338
G3 X45.7726 Y43.9188 I0.0 J-0.9132
G1 X41.1645
G3 X40.7138 Y44.3695 I-1.0845 J-0.6338
G1 Y46.5483
G3 X40.8049 Y46.6765 I-0.6338 J0.5467
G3 X40.08 Y47.932 I-0.7249 J0.4185
G3 X39.3551 Y46.6765 I0.0 J-0.837
G3 X39.4462 Y46.5483 I0.7249 J0.4185
G1 Y44.3695
G3 X38.9922 Y42.657 I0.6338 J-1.0845
G3 X41.1645 Y42.6512 I1.0878 J0.6281
G1 X45.7726
G3 X47.0874 I0.6574 J0.6338
G1 X48.3362
G1 Y36.5625
G1 X47.9662 Y36.1925
G3 X47.7 Y36.2226 I-0.2662 J-1.1625
G3 X46.6672 Y34.4337 I0.0 J-1.1926
G3 X47.0662 Y34.0198 I1.0328 J0.5963
G1 Y26.775
G3 X47.2518 Y26.3268 I0.6338 J0.0
G1 X51.5112 Y22.0675
G1 Y19.7395
G0 Z2.0
G0 X56.4852 Y24.7135
G1 F100.0 Z-0.15
G1 F300.0 X57.4118 Y23.7868
G3 X57.86 Y23.6012 I0.4482 J0.4482
G1 X58.6771
G3 X59.8046 Y23.8455 I0.4529 J0.6338
G3 X59.13 Y25.014 I-0.6746 J0.3895
G3 X58.6771 Y24.8688 I0.0 J-0.779
G1 X58.1225
G1 X57.2238 Y25.7675
G1 Y54.0576
G3 X57.3809 Y54.2584 I-0.6338 J0.6574
G3 X56.59 Y55.6282 I-0.7909 J0.4566
G3 X56.5733 Y55.628 I0.0 J-0.9132
G1 X54.0488 Y58.1525
G1 Y65.4876
G3 X54.2059 Y65.6884 I-0.6338 J0.6574
G3 X53.415 Y67.0582 I-0.7909 J0.4566
G3 X52.7576 Y66.7788 I0.0 J-0.9132
G1 X51.1375
G1 X48.915 Y69.0013
G3 X48.3338 Y70.4045 I-1.215 J0.3187
G1 Y72.5833
G3 X48.4249 Y72.7115 I-0.6338 J0.5467
G3 X47.7 Y73.967 I-0.7249 J0.4185
G3 X46.9751 Y72.7115 I0.0 J-0.837
G3 X47.0662 Y72.5833 I0.7249 J0.4185
G1 Y70.4045
G3 X46.6122 Y68.692 I0.6338 J-1.0845
G3 X48.0187 Y68.105 I1.0878 J0.628
G1 X50.4268 Y65.6968
G3 X50.875 Y65.5112 I0.4482 J0.4482
G1 X52.7576
G3 X52.7812 Y65.4876 I0.6574 J0.6338
G1 Y57.89
G3 X52.9668 Y57.4418 I0.6338 J0.0
G1 X55.677 Y54.7317
G3 X55.7991 Y54.2584 I0.913 J-0.0167
G3 X55.9562 Y54.0576 I0.7909 J0.4566
G1 Y25.505
G3 X56.1418 Y25.0568 I0.6338 J0.0
G1 X56.4852 Y24.7135
G0 Z2.0
G0 X45.5224 Y50.0668
G1 F100.0 Z-0.15
G3 F300.0 X45.9509 Y50.4484 I-0.3624 J0.8382
G3 X45.16 Y51.8182 I-0.7909 J0.4566
G3 X44.5026 Y51.5388 I0.0 J-0.9132
G1 X40.6267
G3 X40.08 Y51.742 I-0.5467 J-0.6338
G3 X39.3551 Y50.4865 I0.0 J-0.837
G3 X40.6267 Y50.2712 I0.7249 J0.4185
G1 X44.5026
G3 X45.5224 Y50.0668 I0.6574 J0.6338
G0 Z2.0
G0 X47.6324 Y76.1057
G1 F100.0 Z-0.15
G3 F300.0 X48.2467 Y76.3062 I0.0676 J0.8343
G1 X52.7576
G3 X54.2059 Y76.4834 I0.6574 J0.6338
G3 X53.415 Y77.8532 I-0.7909 J0.4566
G3 X52.7576 Y77.5738 I0.0 J-0.9132
G1 X48.2467
G3 X47.7 Y77.777 I-0.5467 J-0.6338
G3 X46.9751 Y76.5215 I0.0 J-0.837
G3 X47.6324 Y76.1057 I0.7249 J0.4185
G0 Z2.0
M5
M30
