( Made using CamBam - http://www.cambam.co.uk )
( pcb_power 3/31/2022 8:49:49 AM )
( T0 : 0.9 )
G21 G90 G40
G0 Z2.0
( T0 : 0.9 )
T0 M6
( 3_drill_09 )
G17
M3 S1000
G0 X40.08 Y50.905
G81 X40.08 Y50.905 Z-2.0 R2.0 F100.0
G81 Y47.095 Z-2.0
G81 X45.16 Y50.905 Z-2.0
G81 X48.97 Y52.175 Z-2.0
G81 Y57.255 Z-2.0
G81 X45.16 Y58.525 Z-2.0
G81 X53.415 Y66.145 Z-2.0
G81 Y71.225 Z-2.0
G81 Y76.94 Z-2.0
G81 X47.7 Z-2.0
G81 Y73.13 Z-2.0
G81 X53.415 Y84.56 Z-2.0
G81 X56.59 Y59.795 Z-2.0
G81 Y54.715 Z-2.0
G81 X51.51 Y43.285 Z-2.0
G81 X46.43 Z-2.0
G81 X26.44 Z-2.0
G81 X19.76 Y46.46 Z-2.0
G81 X14.68 Z-2.0
G81 Y57.89 Z-2.0
G81 X19.76 Z-2.0
G81 X26.44 Y58.525 Z-2.0
G81 Y50.905 Z-2.0
G81 X19.76 Y69.32 Z-2.0
G81 Y76.94 Z-2.0
G81 Y84.56 Z-2.0
G81 X10.87 Y26.775 Z-2.0
G81 Y24.235 Z-2.0
G81 X59.13 Z-2.0
G81 Y26.775 Z-2.0
G80
M5
M30
