( Made using CamBam - http://www.cambam.co.uk )
( pcb_power 3/31/2022 9:55:41 AM )
( T0 : 0.15 )
G21 G90 G40
G0 Z2.0
( T0 : 0.15 )
T0 M6
( 9_traces2 )
G17
M3 S1000
G0 X40.6267 Y50.2712
G1 F100.0 Z-0.15
G1 F300.0 X44.5026
G3 X45.9509 Y50.4484 I0.6574 J0.6338
G3 X45.16 Y51.8182 I-0.7909 J0.4566
G3 X44.5026 Y51.5388 I0.0 J-0.9132
G1 X40.6267
G3 X40.08 Y51.742 I-0.5467 J-0.6338
G3 X39.3551 Y50.4865 I0.0 J-0.837
G3 X40.6267 Y50.2712 I0.7249 J0.4185
G0 Z2.0
G0 X52.8705 Y57.5656
G1 F100.0 Z-0.15
G3 F300.0 X52.9668 Y57.4418 I0.5445 J0.3244
G1 X55.677 Y54.7317
G3 X55.7991 Y54.2584 I0.913 J-0.0167
G3 X55.9562 Y54.0576 I0.7909 J0.4566
G1 Y25.505
G3 X56.1418 Y25.0568 I0.6338 J0.0
G1 X57.4118 Y23.7868
G3 X57.86 Y23.6012 I0.4482 J0.4482
G1 X58.6771
G3 X59.8046 Y23.8455 I0.4529 J0.6338
G3 X59.13 Y25.014 I-0.6746 J0.3895
G3 X58.6771 Y24.8688 I0.0 J-0.779
G1 X58.1225
G1 X57.2238 Y25.7675
G1 Y54.0576
G3 X57.3809 Y54.2584 I-0.6338 J0.6574
G3 X56.59 Y55.6282 I-0.7909 J0.4566
G3 X56.5733 Y55.628 I0.0 J-0.9132
G1 X54.0488 Y58.1525
G1 Y65.4876
G3 X54.2059 Y65.6884 I-0.6338 J0.6574
G3 X53.415 Y67.0582 I-0.7909 J0.4566
G3 X52.7576 Y66.7788 I0.0 J-0.9132
G1 X51.1375
G1 X48.915 Y69.0013
G3 X48.3338 Y70.4045 I-1.215 J0.3187
G1 Y72.5833
G3 X48.4249 Y72.7115 I-0.6338 J0.5467
G3 X47.7 Y73.967 I-0.7249 J0.4185
G3 X46.9751 Y72.7115 I0.0 J-0.837
G3 X47.0662 Y72.5833 I0.7249 J0.4185
G1 Y70.4045
G3 X46.6122 Y68.692 I0.6338 J-1.0845
G3 X48.0187 Y68.105 I1.0878 J0.628
G1 X50.4268 Y65.6968
G3 X50.875 Y65.5112 I0.4482 J0.4482
G1 X52.7576
G3 X52.7812 Y65.4876 I0.6574 J0.6338
G1 Y57.89
G3 X52.8705 Y57.5656 I0.6338 J0.0
G0 Z2.0
G0 X53.3893 Y76.0272
G1 F100.0 Z-0.15
G3 F300.0 X54.2059 Y76.4834 I0.0257 J0.9128
G3 X53.415 Y77.8532 I-0.7909 J0.4566
G3 X52.7576 Y77.5738 I0.0 J-0.9132
G1 X48.2467
G3 X47.7 Y77.777 I-0.5467 J-0.6338
G3 X46.9751 Y76.5215 I0.0 J-0.837
G3 X48.2467 Y76.3062 I0.7249 J0.4185
G1 X52.7576
G3 X53.3893 Y76.0272 I0.6574 J0.6338
G0 Z2.0
M5
M30
