( Made using CamBam - http://www.cambam.co.uk )
( pcb_power 3/31/2022 8:49:58 AM )
( T0 : 3.175 )
G21 G90 G40
G0 Z2.0
( T0 : 3.175 )
T0 M6
( 6_free )
G17
M3 S1000
G0 X64.7144 Y88.5
G1 F100.0 Z-0.2
G3 F300.0 X64.7128 Y88.5747 I-1.7145 J0.0
G1 X64.7014 Y88.8362
G3 X64.6884 Y88.985 I-1.7129 J-0.0747
G1 X64.6543 Y89.2444
G3 X64.6282 Y89.3923 I-1.6999 J-0.2235
G1 X64.5715 Y89.6478
G3 X64.5329 Y89.7918 I-1.6738 J-0.3714
G1 X64.4542 Y90.0415
G3 X64.403 Y90.1821 I-1.6352 J-0.5154
G1 X64.3029 Y90.4238
G3 X64.2396 Y90.5596 I-1.584 J-0.656
G1 X64.1187 Y90.7918
G3 X64.044 Y90.9212 I-1.5207 J-0.7918
G1 X63.9034 Y91.1419
G3 X63.8178 Y91.2641 I-1.446 J-0.9212
G1 X63.6585 Y91.4718
G3 X63.562 Y91.5868 I-1.3604 J-1.0434
G1 X63.3852 Y91.7797
G3 X63.2794 Y91.8855 I-1.2639 J-1.1584
G1 X63.0864 Y92.0623
G3 X62.972 Y92.1583 I-1.1581 J-1.2642
G1 X62.7644 Y92.3176
G3 X62.6421 Y92.4033 I-1.0437 J-1.3602
G1 X62.4213 Y92.544
G3 X62.2914 Y92.6189 I-0.9214 J-1.4459
G1 X62.0593 Y92.7397
G3 X61.9242 Y92.8028 I-0.7915 J-1.5208
G1 X61.6824 Y92.903
G3 X61.5416 Y92.9542 I-0.6563 J-1.5839
G1 X61.292 Y93.0329
G3 X61.1472 Y93.0717 I-0.5156 J-1.6351
G1 X60.8917 Y93.1283
G3 X60.7449 Y93.1542 I-0.3708 J-1.6739
G1 X60.4854 Y93.1884
G3 X60.3361 Y93.2015 I-0.224 J-1.6998
G1 X60.0746 Y93.2129
G3 X59.9999 Y93.2145 I-0.0747 J-1.7129
G1 X10.0001
G3 X9.9254 Y93.2129 I0.0 J-1.7145
G1 X9.6639 Y93.2015
G3 X9.5146 Y93.1884 I0.0747 J-1.7129
G1 X9.2551 Y93.1542
G3 X9.1083 Y93.1283 I0.224 J-1.6998
G1 X8.8528 Y93.0717
G3 X8.708 Y93.0329 I0.3708 J-1.6739
G1 X8.4584 Y92.9542
G3 X8.3176 Y92.903 I0.5156 J-1.6351
G1 X8.0758 Y92.8028
G3 X7.9407 Y92.7397 I0.6563 J-1.5839
G1 X7.7086 Y92.6189
G3 X7.5787 Y92.544 I0.7915 J-1.5208
G1 X7.3579 Y92.4033
G3 X7.2356 Y92.3176 I0.9214 J-1.4459
G1 X7.028 Y92.1583
G3 X6.9136 Y92.0623 I1.0437 J-1.3602
G1 X6.7206 Y91.8855
G3 X6.6148 Y91.7797 I1.1581 J-1.2642
G1 X6.438 Y91.5868
G3 X6.3415 Y91.4718 I1.2639 J-1.1584
G1 X6.1822 Y91.2641
G3 X6.0966 Y91.1419 I1.3604 J-1.0434
G1 X5.956 Y90.9212
G3 X5.8813 Y90.7918 I1.446 J-0.9212
G1 X5.7604 Y90.5596
G3 X5.6971 Y90.4238 I1.5207 J-0.7918
G1 X5.597 Y90.1821
G3 X5.5458 Y90.0415 I1.584 J-0.656
G1 X5.4671 Y89.7918
G3 X5.4285 Y89.6478 I1.6352 J-0.5154
G1 X5.3718 Y89.3923
G3 X5.3457 Y89.2444 I1.6738 J-0.3714
G1 X5.3116 Y88.985
G3 X5.2986 Y88.8362 I1.6999 J-0.2235
G1 X5.2872 Y88.5747
G3 X5.2856 Y88.5 I1.7129 J-0.0747
G1 Y9.5
G3 X5.2872 Y9.4253 I1.7145 J0.0
G1 X5.2986 Y9.1638
G3 X5.3116 Y9.015 I1.7129 J0.0747
G1 X5.3457 Y8.7556
G3 X5.3718 Y8.6077 I1.6999 J0.2235
G1 X5.4285 Y8.3522
G3 X5.4671 Y8.2082 I1.6738 J0.3714
G1 X5.5458 Y7.9585
G3 X5.597 Y7.8179 I1.6352 J0.5154
G1 X5.6971 Y7.5762
G3 X5.7604 Y7.4404 I1.584 J0.656
G1 X5.8813 Y7.2082
G3 X5.956 Y7.0788 I1.5207 J0.7918
G1 X6.0966 Y6.8581
G3 X6.1822 Y6.7359 I1.446 J0.9212
G1 X6.3415 Y6.5282
G3 X6.438 Y6.4132 I1.3604 J1.0434
G1 X6.6148 Y6.2203
G3 X6.7206 Y6.1145 I1.2639 J1.1584
G1 X6.9136 Y5.9377
G3 X7.028 Y5.8417 I1.1581 J1.2642
G1 X7.2356 Y5.6824
G3 X7.3579 Y5.5967 I1.0437 J1.3602
G1 X7.5787 Y5.456
G3 X7.7086 Y5.3811 I0.9214 J1.4459
G1 X7.9407 Y5.2603
G3 X8.0758 Y5.1972 I0.7915 J1.5208
G1 X8.3176 Y5.097
G3 X8.4584 Y5.0458 I0.6563 J1.5839
G1 X8.708 Y4.9671
G3 X8.8528 Y4.9283 I0.5156 J1.6351
G1 X9.1083 Y4.8717
G3 X9.2551 Y4.8458 I0.3708 J1.6739
G1 X9.5146 Y4.8116
G3 X9.6639 Y4.7985 I0.224 J1.6998
G1 X9.9254 Y4.7871
G3 X10.0001 Y4.7855 I0.0747 J1.7129
G1 X59.9999
G3 X60.0746 Y4.7871 I0.0 J1.7145
G1 X60.3361 Y4.7985
G3 X60.4854 Y4.8116 I-0.0747 J1.7129
G1 X60.7449 Y4.8458
G3 X60.8917 Y4.8717 I-0.224 J1.6998
G1 X61.1472 Y4.9283
G3 X61.292 Y4.9671 I-0.3708 J1.6739
G1 X61.5416 Y5.0458
G3 X61.6824 Y5.097 I-0.5156 J1.6351
G1 X61.9242 Y5.1972
G3 X62.0593 Y5.2603 I-0.6563 J1.5839
G1 X62.2914 Y5.3811
G3 X62.4213 Y5.456 I-0.7915 J1.5208
G1 X62.6421 Y5.5967
G3 X62.7644 Y5.6824 I-0.9214 J1.4459
G1 X62.972 Y5.8417
G3 X63.0864 Y5.9377 I-1.0437 J1.3602
G1 X63.2794 Y6.1145
G3 X63.3852 Y6.2203 I-1.1581 J1.2642
G1 X63.562 Y6.4132
G3 X63.6585 Y6.5282 I-1.2639 J1.1584
G1 X63.8178 Y6.7359
G3 X63.9034 Y6.8581 I-1.3604 J1.0434
G1 X64.044 Y7.0788
G3 X64.1187 Y7.2082 I-1.446 J0.9212
G1 X64.2396 Y7.4404
G3 X64.3029 Y7.5762 I-1.5207 J0.7918
G1 X64.403 Y7.8179
G3 X64.4542 Y7.9585 I-1.584 J0.656
G1 X64.5329 Y8.2082
G3 X64.5715 Y8.3522 I-1.6352 J0.5154
G1 X64.6282 Y8.6077
G3 X64.6543 Y8.7556 I-1.6738 J0.3714
G1 X64.6884 Y9.015
G3 X64.7014 Y9.1638 I-1.6999 J0.2235
G1 X64.7128 Y9.4253
G3 X64.7144 Y9.5 I-1.7129 J0.0747
G1 Y88.5
G1 F100.0 Z-0.4
G3 F300.0 X64.7128 Y88.5747 I-1.7145 J0.0
G1 X64.7014 Y88.8362
G3 X64.6884 Y88.985 I-1.7129 J-0.0747
G1 X64.6543 Y89.2444
G3 X64.6282 Y89.3923 I-1.6999 J-0.2235
G1 X64.5715 Y89.6478
G3 X64.5329 Y89.7918 I-1.6738 J-0.3714
G1 X64.4542 Y90.0415
G3 X64.403 Y90.1821 I-1.6352 J-0.5154
G1 X64.3029 Y90.4238
G3 X64.2396 Y90.5596 I-1.584 J-0.656
G1 X64.1187 Y90.7918
G3 X64.044 Y90.9212 I-1.5207 J-0.7918
G1 X63.9034 Y91.1419
G3 X63.8178 Y91.2641 I-1.446 J-0.9212
G1 X63.6585 Y91.4718
G3 X63.562 Y91.5868 I-1.3604 J-1.0434
G1 X63.3852 Y91.7797
G3 X63.2794 Y91.8855 I-1.2639 J-1.1584
G1 X63.0864 Y92.0623
G3 X62.972 Y92.1583 I-1.1581 J-1.2642
G1 X62.7644 Y92.3176
G3 X62.6421 Y92.4033 I-1.0437 J-1.3602
G1 X62.4213 Y92.544
G3 X62.2914 Y92.6189 I-0.9214 J-1.4459
G1 X62.0593 Y92.7397
G3 X61.9242 Y92.8028 I-0.7915 J-1.5208
G1 X61.6824 Y92.903
G3 X61.5416 Y92.9542 I-0.6563 J-1.5839
G1 X61.292 Y93.0329
G3 X61.1472 Y93.0717 I-0.5156 J-1.6351
G1 X60.8917 Y93.1283
G3 X60.7449 Y93.1542 I-0.3708 J-1.6739
G1 X60.4854 Y93.1884
G3 X60.3361 Y93.2015 I-0.224 J-1.6998
G1 X60.0746 Y93.2129
G3 X59.9999 Y93.2145 I-0.0747 J-1.7129
G1 X10.0001
G3 X9.9254 Y93.2129 I0.0 J-1.7145
G1 X9.6639 Y93.2015
G3 X9.5146 Y93.1884 I0.0747 J-1.7129
G1 X9.2551 Y93.1542
G3 X9.1083 Y93.1283 I0.224 J-1.6998
G1 X8.8528 Y93.0717
G3 X8.708 Y93.0329 I0.3708 J-1.6739
G1 X8.4584 Y92.9542
G3 X8.3176 Y92.903 I0.5156 J-1.6351
G1 X8.0758 Y92.8028
G3 X7.9407 Y92.7397 I0.6563 J-1.5839
G1 X7.7086 Y92.6189
G3 X7.5787 Y92.544 I0.7915 J-1.5208
G1 X7.3579 Y92.4033
G3 X7.2356 Y92.3176 I0.9214 J-1.4459
G1 X7.028 Y92.1583
G3 X6.9136 Y92.0623 I1.0437 J-1.3602
G1 X6.7206 Y91.8855
G3 X6.6148 Y91.7797 I1.1581 J-1.2642
G1 X6.438 Y91.5868
G3 X6.3415 Y91.4718 I1.2639 J-1.1584
G1 X6.1822 Y91.2641
G3 X6.0966 Y91.1419 I1.3604 J-1.0434
G1 X5.956 Y90.9212
G3 X5.8813 Y90.7918 I1.446 J-0.9212
G1 X5.7604 Y90.5596
G3 X5.6971 Y90.4238 I1.5207 J-0.7918
G1 X5.597 Y90.1821
G3 X5.5458 Y90.0415 I1.584 J-0.656
G1 X5.4671 Y89.7918
G3 X5.4285 Y89.6478 I1.6352 J-0.5154
G1 X5.3718 Y89.3923
G3 X5.3457 Y89.2444 I1.6738 J-0.3714
G1 X5.3116 Y88.985
G3 X5.2986 Y88.8362 I1.6999 J-0.2235
G1 X5.2872 Y88.5747
G3 X5.2856 Y88.5 I1.7129 J-0.0747
G1 Y9.5
G3 X5.2872 Y9.4253 I1.7145 J0.0
G1 X5.2986 Y9.1638
G3 X5.3116 Y9.015 I1.7129 J0.0747
G1 X5.3457 Y8.7556
G3 X5.3718 Y8.6077 I1.6999 J0.2235
G1 X5.4285 Y8.3522
G3 X5.4671 Y8.2082 I1.6738 J0.3714
G1 X5.5458 Y7.9585
G3 X5.597 Y7.8179 I1.6352 J0.5154
G1 X5.6971 Y7.5762
G3 X5.7604 Y7.4404 I1.584 J0.656
G1 X5.8813 Y7.2082
G3 X5.956 Y7.0788 I1.5207 J0.7918
G1 X6.0966 Y6.8581
G3 X6.1822 Y6.7359 I1.446 J0.9212
G1 X6.3415 Y6.5282
G3 X6.438 Y6.4132 I1.3604 J1.0434
G1 X6.6148 Y6.2203
G3 X6.7206 Y6.1145 I1.2639 J1.1584
G1 X6.9136 Y5.9377
G3 X7.028 Y5.8417 I1.1581 J1.2642
G1 X7.2356 Y5.6824
G3 X7.3579 Y5.5967 I1.0437 J1.3602
G1 X7.5787 Y5.456
G3 X7.7086 Y5.3811 I0.9214 J1.4459
G1 X7.9407 Y5.2603
G3 X8.0758 Y5.1972 I0.7915 J1.5208
G1 X8.3176 Y5.097
G3 X8.4584 Y5.0458 I0.6563 J1.5839
G1 X8.708 Y4.9671
G3 X8.8528 Y4.9283 I0.5156 J1.6351
G1 X9.1083 Y4.8717
G3 X9.2551 Y4.8458 I0.3708 J1.6739
G1 X9.5146 Y4.8116
G3 X9.6639 Y4.7985 I0.224 J1.6998
G1 X9.9254 Y4.7871
G3 X10.0001 Y4.7855 I0.0747 J1.7129
G1 X59.9999
G3 X60.0746 Y4.7871 I0.0 J1.7145
G1 X60.3361 Y4.7985
G3 X60.4854 Y4.8116 I-0.0747 J1.7129
G1 X60.7449 Y4.8458
G3 X60.8917 Y4.8717 I-0.224 J1.6998
G1 X61.1472 Y4.9283
G3 X61.292 Y4.9671 I-0.3708 J1.6739
G1 X61.5416 Y5.0458
G3 X61.6824 Y5.097 I-0.5156 J1.6351
G1 X61.9242 Y5.1972
G3 X62.0593 Y5.2603 I-0.6563 J1.5839
G1 X62.2914 Y5.3811
G3 X62.4213 Y5.456 I-0.7915 J1.5208
G1 X62.6421 Y5.5967
G3 X62.7644 Y5.6824 I-0.9214 J1.4459
G1 X62.972 Y5.8417
G3 X63.0864 Y5.9377 I-1.0437 J1.3602
G1 X63.2794 Y6.1145
G3 X63.3852 Y6.2203 I-1.1581 J1.2642
G1 X63.562 Y6.4132
G3 X63.6585 Y6.5282 I-1.2639 J1.1584
G1 X63.8178 Y6.7359
G3 X63.9034 Y6.8581 I-1.3604 J1.0434
G1 X64.044 Y7.0788
G3 X64.1187 Y7.2082 I-1.446 J0.9212
G1 X64.2396 Y7.4404
G3 X64.3029 Y7.5762 I-1.5207 J0.7918
G1 X64.403 Y7.8179
G3 X64.4542 Y7.9585 I-1.584 J0.656
G1 X64.5329 Y8.2082
G3 X64.5715 Y8.3522 I-1.6352 J0.5154
G1 X64.6282 Y8.6077
G3 X64.6543 Y8.7556 I-1.6738 J0.3714
G1 X64.6884 Y9.015
G3 X64.7014 Y9.1638 I-1.6999 J0.2235
G1 X64.7128 Y9.4253
G3 X64.7144 Y9.5 I-1.7129 J0.0747
G1 Y88.5
G1 F100.0 Z-0.6
G3 F300.0 X64.7128 Y88.5747 I-1.7145 J0.0
G1 X64.7014 Y88.8362
G3 X64.6884 Y88.985 I-1.7129 J-0.0747
G1 X64.6543 Y89.2444
G3 X64.6282 Y89.3923 I-1.6999 J-0.2235
G1 X64.5715 Y89.6478
G3 X64.5329 Y89.7918 I-1.6738 J-0.3714
G1 X64.4542 Y90.0415
G3 X64.403 Y90.1821 I-1.6352 J-0.5154
G1 X64.3029 Y90.4238
G3 X64.2396 Y90.5596 I-1.584 J-0.656
G1 X64.1187 Y90.7918
G3 X64.044 Y90.9212 I-1.5207 J-0.7918
G1 X63.9034 Y91.1419
G3 X63.8178 Y91.2641 I-1.446 J-0.9212
G1 X63.6585 Y91.4718
G3 X63.562 Y91.5868 I-1.3604 J-1.0434
G1 X63.3852 Y91.7797
G3 X63.2794 Y91.8855 I-1.2639 J-1.1584
G1 X63.0864 Y92.0623
G3 X62.972 Y92.1583 I-1.1581 J-1.2642
G1 X62.7644 Y92.3176
G3 X62.6421 Y92.4033 I-1.0437 J-1.3602
G1 X62.4213 Y92.544
G3 X62.2914 Y92.6189 I-0.9214 J-1.4459
G1 X62.0593 Y92.7397
G3 X61.9242 Y92.8028 I-0.7915 J-1.5208
G1 X61.6824 Y92.903
G3 X61.5416 Y92.9542 I-0.6563 J-1.5839
G1 X61.292 Y93.0329
G3 X61.1472 Y93.0717 I-0.5156 J-1.6351
G1 X60.8917 Y93.1283
G3 X60.7449 Y93.1542 I-0.3708 J-1.6739
G1 X60.4854 Y93.1884
G3 X60.3361 Y93.2015 I-0.224 J-1.6998
G1 X60.0746 Y93.2129
G3 X59.9999 Y93.2145 I-0.0747 J-1.7129
G1 X10.0001
G3 X9.9254 Y93.2129 I0.0 J-1.7145
G1 X9.6639 Y93.2015
G3 X9.5146 Y93.1884 I0.0747 J-1.7129
G1 X9.2551 Y93.1542
G3 X9.1083 Y93.1283 I0.224 J-1.6998
G1 X8.8528 Y93.0717
G3 X8.708 Y93.0329 I0.3708 J-1.6739
G1 X8.4584 Y92.9542
G3 X8.3176 Y92.903 I0.5156 J-1.6351
G1 X8.0758 Y92.8028
G3 X7.9407 Y92.7397 I0.6563 J-1.5839
G1 X7.7086 Y92.6189
G3 X7.5787 Y92.544 I0.7915 J-1.5208
G1 X7.3579 Y92.4033
G3 X7.2356 Y92.3176 I0.9214 J-1.4459
G1 X7.028 Y92.1583
G3 X6.9136 Y92.0623 I1.0437 J-1.3602
G1 X6.7206 Y91.8855
G3 X6.6148 Y91.7797 I1.1581 J-1.2642
G1 X6.438 Y91.5868
G3 X6.3415 Y91.4718 I1.2639 J-1.1584
G1 X6.1822 Y91.2641
G3 X6.0966 Y91.1419 I1.3604 J-1.0434
G1 X5.956 Y90.9212
G3 X5.8813 Y90.7918 I1.446 J-0.9212
G1 X5.7604 Y90.5596
G3 X5.6971 Y90.4238 I1.5207 J-0.7918
G1 X5.597 Y90.1821
G3 X5.5458 Y90.0415 I1.584 J-0.656
G1 X5.4671 Y89.7918
G3 X5.4285 Y89.6478 I1.6352 J-0.5154
G1 X5.3718 Y89.3923
G3 X5.3457 Y89.2444 I1.6738 J-0.3714
G1 X5.3116 Y88.985
G3 X5.2986 Y88.8362 I1.6999 J-0.2235
G1 X5.2872 Y88.5747
G3 X5.2856 Y88.5 I1.7129 J-0.0747
G1 Y9.5
G3 X5.2872 Y9.4253 I1.7145 J0.0
G1 X5.2986 Y9.1638
G3 X5.3116 Y9.015 I1.7129 J0.0747
G1 X5.3457 Y8.7556
G3 X5.3718 Y8.6077 I1.6999 J0.2235
G1 X5.4285 Y8.3522
G3 X5.4671 Y8.2082 I1.6738 J0.3714
G1 X5.5458 Y7.9585
G3 X5.597 Y7.8179 I1.6352 J0.5154
G1 X5.6971 Y7.5762
G3 X5.7604 Y7.4404 I1.584 J0.656
G1 X5.8813 Y7.2082
G3 X5.956 Y7.0788 I1.5207 J0.7918
G1 X6.0966 Y6.8581
G3 X6.1822 Y6.7359 I1.446 J0.9212
G1 X6.3415 Y6.5282
G3 X6.438 Y6.4132 I1.3604 J1.0434
G1 X6.6148 Y6.2203
G3 X6.7206 Y6.1145 I1.2639 J1.1584
G1 X6.9136 Y5.9377
G3 X7.028 Y5.8417 I1.1581 J1.2642
G1 X7.2356 Y5.6824
G3 X7.3579 Y5.5967 I1.0437 J1.3602
G1 X7.5787 Y5.456
G3 X7.7086 Y5.3811 I0.9214 J1.4459
G1 X7.9407 Y5.2603
G3 X8.0758 Y5.1972 I0.7915 J1.5208
G1 X8.3176 Y5.097
G3 X8.4584 Y5.0458 I0.6563 J1.5839
G1 X8.708 Y4.9671
G3 X8.8528 Y4.9283 I0.5156 J1.6351
G1 X9.1083 Y4.8717
G3 X9.2551 Y4.8458 I0.3708 J1.6739
G1 X9.5146 Y4.8116
G3 X9.6639 Y4.7985 I0.224 J1.6998
G1 X9.9254 Y4.7871
G3 X10.0001 Y4.7855 I0.0747 J1.7129
G1 X59.9999
G3 X60.0746 Y4.7871 I0.0 J1.7145
G1 X60.3361 Y4.7985
G3 X60.4854 Y4.8116 I-0.0747 J1.7129
G1 X60.7449 Y4.8458
G3 X60.8917 Y4.8717 I-0.224 J1.6998
G1 X61.1472 Y4.9283
G3 X61.292 Y4.9671 I-0.3708 J1.6739
G1 X61.5416 Y5.0458
G3 X61.6824 Y5.097 I-0.5156 J1.6351
G1 X61.9242 Y5.1972
G3 X62.0593 Y5.2603 I-0.6563 J1.5839
G1 X62.2914 Y5.3811
G3 X62.4213 Y5.456 I-0.7915 J1.5208
G1 X62.6421 Y5.5967
G3 X62.7644 Y5.6824 I-0.9214 J1.4459
G1 X62.972 Y5.8417
G3 X63.0864 Y5.9377 I-1.0437 J1.3602
G1 X63.2794 Y6.1145
G3 X63.3852 Y6.2203 I-1.1581 J1.2642
G1 X63.562 Y6.4132
G3 X63.6585 Y6.5282 I-1.2639 J1.1584
G1 X63.8178 Y6.7359
G3 X63.9034 Y6.8581 I-1.3604 J1.0434
G1 X64.044 Y7.0788
G3 X64.1187 Y7.2082 I-1.446 J0.9212
G1 X64.2396 Y7.4404
G3 X64.3029 Y7.5762 I-1.5207 J0.7918
G1 X64.403 Y7.8179
G3 X64.4542 Y7.9585 I-1.584 J0.656
G1 X64.5329 Y8.2082
G3 X64.5715 Y8.3522 I-1.6352 J0.5154
G1 X64.6282 Y8.6077
G3 X64.6543 Y8.7556 I-1.6738 J0.3714
G1 X64.6884 Y9.015
G3 X64.7014 Y9.1638 I-1.6999 J0.2235
G1 X64.7128 Y9.4253
G3 X64.7144 Y9.5 I-1.7129 J0.0747
G1 Y88.5
G1 F100.0 Z-0.8
G3 F300.0 X64.7128 Y88.5747 I-1.7145 J0.0
G1 X64.7014 Y88.8362
G3 X64.6884 Y88.985 I-1.7129 J-0.0747
G1 X64.6543 Y89.2444
G3 X64.6282 Y89.3923 I-1.6999 J-0.2235
G1 X64.5715 Y89.6478
G3 X64.5329 Y89.7918 I-1.6738 J-0.3714
G1 X64.4542 Y90.0415
G3 X64.403 Y90.1821 I-1.6352 J-0.5154
G1 X64.3029 Y90.4238
G3 X64.2396 Y90.5596 I-1.584 J-0.656
G1 X64.1187 Y90.7918
G3 X64.044 Y90.9212 I-1.5207 J-0.7918
G1 X63.9034 Y91.1419
G3 X63.8178 Y91.2641 I-1.446 J-0.9212
G1 X63.6585 Y91.4718
G3 X63.562 Y91.5868 I-1.3604 J-1.0434
G1 X63.3852 Y91.7797
G3 X63.2794 Y91.8855 I-1.2639 J-1.1584
G1 X63.0864 Y92.0623
G3 X62.972 Y92.1583 I-1.1581 J-1.2642
G1 X62.7644 Y92.3176
G3 X62.6421 Y92.4033 I-1.0437 J-1.3602
G1 X62.4213 Y92.544
G3 X62.2914 Y92.6189 I-0.9214 J-1.4459
G1 X62.0593 Y92.7397
G3 X61.9242 Y92.8028 I-0.7915 J-1.5208
G1 X61.6824 Y92.903
G3 X61.5416 Y92.9542 I-0.6563 J-1.5839
G1 X61.292 Y93.0329
G3 X61.1472 Y93.0717 I-0.5156 J-1.6351
G1 X60.8917 Y93.1283
G3 X60.7449 Y93.1542 I-0.3708 J-1.6739
G1 X60.4854 Y93.1884
G3 X60.3361 Y93.2015 I-0.224 J-1.6998
G1 X60.0746 Y93.2129
G3 X59.9999 Y93.2145 I-0.0747 J-1.7129
G1 X10.0001
G3 X9.9254 Y93.2129 I0.0 J-1.7145
G1 X9.6639 Y93.2015
G3 X9.5146 Y93.1884 I0.0747 J-1.7129
G1 X9.2551 Y93.1542
G3 X9.1083 Y93.1283 I0.224 J-1.6998
G1 X8.8528 Y93.0717
G3 X8.708 Y93.0329 I0.3708 J-1.6739
G1 X8.4584 Y92.9542
G3 X8.3176 Y92.903 I0.5156 J-1.6351
G1 X8.0758 Y92.8028
G3 X7.9407 Y92.7397 I0.6563 J-1.5839
G1 X7.7086 Y92.6189
G3 X7.5787 Y92.544 I0.7915 J-1.5208
G1 X7.3579 Y92.4033
G3 X7.2356 Y92.3176 I0.9214 J-1.4459
G1 X7.028 Y92.1583
G3 X6.9136 Y92.0623 I1.0437 J-1.3602
G1 X6.7206 Y91.8855
G3 X6.6148 Y91.7797 I1.1581 J-1.2642
G1 X6.438 Y91.5868
G3 X6.3415 Y91.4718 I1.2639 J-1.1584
G1 X6.1822 Y91.2641
G3 X6.0966 Y91.1419 I1.3604 J-1.0434
G1 X5.956 Y90.9212
G3 X5.8813 Y90.7918 I1.446 J-0.9212
G1 X5.7604 Y90.5596
G3 X5.6971 Y90.4238 I1.5207 J-0.7918
G1 X5.597 Y90.1821
G3 X5.5458 Y90.0415 I1.584 J-0.656
G1 X5.4671 Y89.7918
G3 X5.4285 Y89.6478 I1.6352 J-0.5154
G1 X5.3718 Y89.3923
G3 X5.3457 Y89.2444 I1.6738 J-0.3714
G1 X5.3116 Y88.985
G3 X5.2986 Y88.8362 I1.6999 J-0.2235
G1 X5.2872 Y88.5747
G3 X5.2856 Y88.5 I1.7129 J-0.0747
G1 Y9.5
G3 X5.2872 Y9.4253 I1.7145 J0.0
G1 X5.2986 Y9.1638
G3 X5.3116 Y9.015 I1.7129 J0.0747
G1 X5.3457 Y8.7556
G3 X5.3718 Y8.6077 I1.6999 J0.2235
G1 X5.4285 Y8.3522
G3 X5.4671 Y8.2082 I1.6738 J0.3714
G1 X5.5458 Y7.9585
G3 X5.597 Y7.8179 I1.6352 J0.5154
G1 X5.6971 Y7.5762
G3 X5.7604 Y7.4404 I1.584 J0.656
G1 X5.8813 Y7.2082
G3 X5.956 Y7.0788 I1.5207 J0.7918
G1 X6.0966 Y6.8581
G3 X6.1822 Y6.7359 I1.446 J0.9212
G1 X6.3415 Y6.5282
G3 X6.438 Y6.4132 I1.3604 J1.0434
G1 X6.6148 Y6.2203
G3 X6.7206 Y6.1145 I1.2639 J1.1584
G1 X6.9136 Y5.9377
G3 X7.028 Y5.8417 I1.1581 J1.2642
G1 X7.2356 Y5.6824
G3 X7.3579 Y5.5967 I1.0437 J1.3602
G1 X7.5787 Y5.456
G3 X7.7086 Y5.3811 I0.9214 J1.4459
G1 X7.9407 Y5.2603
G3 X8.0758 Y5.1972 I0.7915 J1.5208
G1 X8.3176 Y5.097
G3 X8.4584 Y5.0458 I0.6563 J1.5839
G1 X8.708 Y4.9671
G3 X8.8528 Y4.9283 I0.5156 J1.6351
G1 X9.1083 Y4.8717
G3 X9.2551 Y4.8458 I0.3708 J1.6739
G1 X9.5146 Y4.8116
G3 X9.6639 Y4.7985 I0.224 J1.6998
G1 X9.9254 Y4.7871
G3 X10.0001 Y4.7855 I0.0747 J1.7129
G1 X59.9999
G3 X60.0746 Y4.7871 I0.0 J1.7145
G1 X60.3361 Y4.7985
G3 X60.4854 Y4.8116 I-0.0747 J1.7129
G1 X60.7449 Y4.8458
G3 X60.8917 Y4.8717 I-0.224 J1.6998
G1 X61.1472 Y4.9283
G3 X61.292 Y4.9671 I-0.3708 J1.6739
G1 X61.5416 Y5.0458
G3 X61.6824 Y5.097 I-0.5156 J1.6351
G1 X61.9242 Y5.1972
G3 X62.0593 Y5.2603 I-0.6563 J1.5839
G1 X62.2914 Y5.3811
G3 X62.4213 Y5.456 I-0.7915 J1.5208
G1 X62.6421 Y5.5967
G3 X62.7644 Y5.6824 I-0.9214 J1.4459
G1 X62.972 Y5.8417
G3 X63.0864 Y5.9377 I-1.0437 J1.3602
G1 X63.2794 Y6.1145
G3 X63.3852 Y6.2203 I-1.1581 J1.2642
G1 X63.562 Y6.4132
G3 X63.6585 Y6.5282 I-1.2639 J1.1584
G1 X63.8178 Y6.7359
G3 X63.9034 Y6.8581 I-1.3604 J1.0434
G1 X64.044 Y7.0788
G3 X64.1187 Y7.2082 I-1.446 J0.9212
G1 X64.2396 Y7.4404
G3 X64.3029 Y7.5762 I-1.5207 J0.7918
G1 X64.403 Y7.8179
G3 X64.4542 Y7.9585 I-1.584 J0.656
G1 X64.5329 Y8.2082
G3 X64.5715 Y8.3522 I-1.6352 J0.5154
G1 X64.6282 Y8.6077
G3 X64.6543 Y8.7556 I-1.6738 J0.3714
G1 X64.6884 Y9.015
G3 X64.7014 Y9.1638 I-1.6999 J0.2235
G1 X64.7128 Y9.4253
G3 X64.7144 Y9.5 I-1.7129 J0.0747
G1 Y88.5
G1 F100.0 Z-1.0
G3 F300.0 X64.7128 Y88.5747 I-1.7145 J0.0
G1 X64.7014 Y88.8362
G3 X64.6884 Y88.985 I-1.7129 J-0.0747
G1 X64.6543 Y89.2444
G3 X64.6282 Y89.3923 I-1.6999 J-0.2235
G1 X64.5715 Y89.6478
G3 X64.5329 Y89.7918 I-1.6738 J-0.3714
G1 X64.4542 Y90.0415
G3 X64.403 Y90.1821 I-1.6352 J-0.5154
G1 X64.3029 Y90.4238
G3 X64.2396 Y90.5596 I-1.584 J-0.656
G1 X64.1187 Y90.7918
G3 X64.044 Y90.9212 I-1.5207 J-0.7918
G1 X63.9034 Y91.1419
G3 X63.8178 Y91.2641 I-1.446 J-0.9212
G1 X63.6585 Y91.4718
G3 X63.562 Y91.5868 I-1.3604 J-1.0434
G1 X63.3852 Y91.7797
G3 X63.2794 Y91.8855 I-1.2639 J-1.1584
G1 X63.0864 Y92.0623
G3 X62.972 Y92.1583 I-1.1581 J-1.2642
G1 X62.7644 Y92.3176
G3 X62.6421 Y92.4033 I-1.0437 J-1.3602
G1 X62.4213 Y92.544
G3 X62.2914 Y92.6189 I-0.9214 J-1.4459
G1 X62.0593 Y92.7397
G3 X61.9242 Y92.8028 I-0.7915 J-1.5208
G1 X61.6824 Y92.903
G3 X61.5416 Y92.9542 I-0.6563 J-1.5839
G1 X61.292 Y93.0329
G3 X61.1472 Y93.0717 I-0.5156 J-1.6351
G1 X60.8917 Y93.1283
G3 X60.7449 Y93.1542 I-0.3708 J-1.6739
G1 X60.4854 Y93.1884
G3 X60.3361 Y93.2015 I-0.224 J-1.6998
G1 X60.0746 Y93.2129
G3 X59.9999 Y93.2145 I-0.0747 J-1.7129
G1 X10.0001
G3 X9.9254 Y93.2129 I0.0 J-1.7145
G1 X9.6639 Y93.2015
G3 X9.5146 Y93.1884 I0.0747 J-1.7129
G1 X9.2551 Y93.1542
G3 X9.1083 Y93.1283 I0.224 J-1.6998
G1 X8.8528 Y93.0717
G3 X8.708 Y93.0329 I0.3708 J-1.6739
G1 X8.4584 Y92.9542
G3 X8.3176 Y92.903 I0.5156 J-1.6351
G1 X8.0758 Y92.8028
G3 X7.9407 Y92.7397 I0.6563 J-1.5839
G1 X7.7086 Y92.6189
G3 X7.5787 Y92.544 I0.7915 J-1.5208
G1 X7.3579 Y92.4033
G3 X7.2356 Y92.3176 I0.9214 J-1.4459
G1 X7.028 Y92.1583
G3 X6.9136 Y92.0623 I1.0437 J-1.3602
G1 X6.7206 Y91.8855
G3 X6.6148 Y91.7797 I1.1581 J-1.2642
G1 X6.438 Y91.5868
G3 X6.3415 Y91.4718 I1.2639 J-1.1584
G1 X6.1822 Y91.2641
G3 X6.0966 Y91.1419 I1.3604 J-1.0434
G1 X5.956 Y90.9212
G3 X5.8813 Y90.7918 I1.446 J-0.9212
G1 X5.7604 Y90.5596
G3 X5.6971 Y90.4238 I1.5207 J-0.7918
G1 X5.597 Y90.1821
G3 X5.5458 Y90.0415 I1.584 J-0.656
G1 X5.4671 Y89.7918
G3 X5.4285 Y89.6478 I1.6352 J-0.5154
G1 X5.3718 Y89.3923
G3 X5.3457 Y89.2444 I1.6738 J-0.3714
G1 X5.3116 Y88.985
G3 X5.2986 Y88.8362 I1.6999 J-0.2235
G1 X5.2872 Y88.5747
G3 X5.2856 Y88.5 I1.7129 J-0.0747
G1 Y9.5
G3 X5.2872 Y9.4253 I1.7145 J0.0
G1 X5.2986 Y9.1638
G3 X5.3116 Y9.015 I1.7129 J0.0747
G1 X5.3457 Y8.7556
G3 X5.3718 Y8.6077 I1.6999 J0.2235
G1 X5.4285 Y8.3522
G3 X5.4671 Y8.2082 I1.6738 J0.3714
G1 X5.5458 Y7.9585
G3 X5.597 Y7.8179 I1.6352 J0.5154
G1 X5.6971 Y7.5762
G3 X5.7604 Y7.4404 I1.584 J0.656
G1 X5.8813 Y7.2082
G3 X5.956 Y7.0788 I1.5207 J0.7918
G1 X6.0966 Y6.8581
G3 X6.1822 Y6.7359 I1.446 J0.9212
G1 X6.3415 Y6.5282
G3 X6.438 Y6.4132 I1.3604 J1.0434
G1 X6.6148 Y6.2203
G3 X6.7206 Y6.1145 I1.2639 J1.1584
G1 X6.9136 Y5.9377
G3 X7.028 Y5.8417 I1.1581 J1.2642
G1 X7.2356 Y5.6824
G3 X7.3579 Y5.5967 I1.0437 J1.3602
G1 X7.5787 Y5.456
G3 X7.7086 Y5.3811 I0.9214 J1.4459
G1 X7.9407 Y5.2603
G3 X8.0758 Y5.1972 I0.7915 J1.5208
G1 X8.3176 Y5.097
G3 X8.4584 Y5.0458 I0.6563 J1.5839
G1 X8.708 Y4.9671
G3 X8.8528 Y4.9283 I0.5156 J1.6351
G1 X9.1083 Y4.8717
G3 X9.2551 Y4.8458 I0.3708 J1.6739
G1 X9.5146 Y4.8116
G3 X9.6639 Y4.7985 I0.224 J1.6998
G1 X9.9254 Y4.7871
G3 X10.0001 Y4.7855 I0.0747 J1.7129
G1 X59.9999
G3 X60.0746 Y4.7871 I0.0 J1.7145
G1 X60.3361 Y4.7985
G3 X60.4854 Y4.8116 I-0.0747 J1.7129
G1 X60.7449 Y4.8458
G3 X60.8917 Y4.8717 I-0.224 J1.6998
G1 X61.1472 Y4.9283
G3 X61.292 Y4.9671 I-0.3708 J1.6739
G1 X61.5416 Y5.0458
G3 X61.6824 Y5.097 I-0.5156 J1.6351
G1 X61.9242 Y5.1972
G3 X62.0593 Y5.2603 I-0.6563 J1.5839
G1 X62.2914 Y5.3811
G3 X62.4213 Y5.456 I-0.7915 J1.5208
G1 X62.6421 Y5.5967
G3 X62.7644 Y5.6824 I-0.9214 J1.4459
G1 X62.972 Y5.8417
G3 X63.0864 Y5.9377 I-1.0437 J1.3602
G1 X63.2794 Y6.1145
G3 X63.3852 Y6.2203 I-1.1581 J1.2642
G1 X63.562 Y6.4132
G3 X63.6585 Y6.5282 I-1.2639 J1.1584
G1 X63.8178 Y6.7359
G3 X63.9034 Y6.8581 I-1.3604 J1.0434
G1 X64.044 Y7.0788
G3 X64.1187 Y7.2082 I-1.446 J0.9212
G1 X64.2396 Y7.4404
G3 X64.3029 Y7.5762 I-1.5207 J0.7918
G1 X64.403 Y7.8179
G3 X64.4542 Y7.9585 I-1.584 J0.656
G1 X64.5329 Y8.2082
G3 X64.5715 Y8.3522 I-1.6352 J0.5154
G1 X64.6282 Y8.6077
G3 X64.6543 Y8.7556 I-1.6738 J0.3714
G1 X64.6884 Y9.015
G3 X64.7014 Y9.1638 I-1.6999 J0.2235
G1 X64.7128 Y9.4253
G3 X64.7144 Y9.5 I-1.7129 J0.0747
G1 Y88.5
G1 F100.0 Z-1.2
G3 F300.0 X64.7128 Y88.5747 I-1.7145 J0.0
G1 X64.7014 Y88.8362
G3 X64.6884 Y88.985 I-1.7129 J-0.0747
G1 X64.6543 Y89.2444
G3 X64.6282 Y89.3923 I-1.6999 J-0.2235
G1 X64.5715 Y89.6478
G3 X64.5329 Y89.7918 I-1.6738 J-0.3714
G1 X64.4542 Y90.0415
G3 X64.403 Y90.1821 I-1.6352 J-0.5154
G1 X64.3029 Y90.4238
G3 X64.2396 Y90.5596 I-1.584 J-0.656
G1 X64.1187 Y90.7918
G3 X64.044 Y90.9212 I-1.5207 J-0.7918
G1 X63.9034 Y91.1419
G3 X63.8178 Y91.2641 I-1.446 J-0.9212
G1 X63.6585 Y91.4718
G3 X63.562 Y91.5868 I-1.3604 J-1.0434
G1 X63.3852 Y91.7797
G3 X63.2794 Y91.8855 I-1.2639 J-1.1584
G1 X63.0864 Y92.0623
G3 X62.972 Y92.1583 I-1.1581 J-1.2642
G1 X62.7644 Y92.3176
G3 X62.6421 Y92.4033 I-1.0437 J-1.3602
G1 X62.4213 Y92.544
G3 X62.2914 Y92.6189 I-0.9214 J-1.4459
G1 X62.0593 Y92.7397
G3 X61.9242 Y92.8028 I-0.7915 J-1.5208
G1 X61.6824 Y92.903
G3 X61.5416 Y92.9542 I-0.6563 J-1.5839
G1 X61.292 Y93.0329
G3 X61.1472 Y93.0717 I-0.5156 J-1.6351
G1 X60.8917 Y93.1283
G3 X60.7449 Y93.1542 I-0.3708 J-1.6739
G1 X60.4854 Y93.1884
G3 X60.3361 Y93.2015 I-0.224 J-1.6998
G1 X60.0746 Y93.2129
G3 X59.9999 Y93.2145 I-0.0747 J-1.7129
G1 X10.0001
G3 X9.9254 Y93.2129 I0.0 J-1.7145
G1 X9.6639 Y93.2015
G3 X9.5146 Y93.1884 I0.0747 J-1.7129
G1 X9.2551 Y93.1542
G3 X9.1083 Y93.1283 I0.224 J-1.6998
G1 X8.8528 Y93.0717
G3 X8.708 Y93.0329 I0.3708 J-1.6739
G1 X8.4584 Y92.9542
G3 X8.3176 Y92.903 I0.5156 J-1.6351
G1 X8.0758 Y92.8028
G3 X7.9407 Y92.7397 I0.6563 J-1.5839
G1 X7.7086 Y92.6189
G3 X7.5787 Y92.544 I0.7915 J-1.5208
G1 X7.3579 Y92.4033
G3 X7.2356 Y92.3176 I0.9214 J-1.4459
G1 X7.028 Y92.1583
G3 X6.9136 Y92.0623 I1.0437 J-1.3602
G1 X6.7206 Y91.8855
G3 X6.6148 Y91.7797 I1.1581 J-1.2642
G1 X6.438 Y91.5868
G3 X6.3415 Y91.4718 I1.2639 J-1.1584
G1 X6.1822 Y91.2641
G3 X6.0966 Y91.1419 I1.3604 J-1.0434
G1 X5.956 Y90.9212
G3 X5.8813 Y90.7918 I1.446 J-0.9212
G1 X5.7604 Y90.5596
G3 X5.6971 Y90.4238 I1.5207 J-0.7918
G1 X5.597 Y90.1821
G3 X5.5458 Y90.0415 I1.584 J-0.656
G1 X5.4671 Y89.7918
G3 X5.4285 Y89.6478 I1.6352 J-0.5154
G1 X5.3718 Y89.3923
G3 X5.3457 Y89.2444 I1.6738 J-0.3714
G1 X5.3116 Y88.985
G3 X5.2986 Y88.8362 I1.6999 J-0.2235
G1 X5.2872 Y88.5747
G3 X5.2856 Y88.5 I1.7129 J-0.0747
G1 Y9.5
G3 X5.2872 Y9.4253 I1.7145 J0.0
G1 X5.2986 Y9.1638
G3 X5.3116 Y9.015 I1.7129 J0.0747
G1 X5.3457 Y8.7556
G3 X5.3718 Y8.6077 I1.6999 J0.2235
G1 X5.4285 Y8.3522
G3 X5.4671 Y8.2082 I1.6738 J0.3714
G1 X5.5458 Y7.9585
G3 X5.597 Y7.8179 I1.6352 J0.5154
G1 X5.6971 Y7.5762
G3 X5.7604 Y7.4404 I1.584 J0.656
G1 X5.8813 Y7.2082
G3 X5.956 Y7.0788 I1.5207 J0.7918
G1 X6.0966 Y6.8581
G3 X6.1822 Y6.7359 I1.446 J0.9212
G1 X6.3415 Y6.5282
G3 X6.438 Y6.4132 I1.3604 J1.0434
G1 X6.6148 Y6.2203
G3 X6.7206 Y6.1145 I1.2639 J1.1584
G1 X6.9136 Y5.9377
G3 X7.028 Y5.8417 I1.1581 J1.2642
G1 X7.2356 Y5.6824
G3 X7.3579 Y5.5967 I1.0437 J1.3602
G1 X7.5787 Y5.456
G3 X7.7086 Y5.3811 I0.9214 J1.4459
G1 X7.9407 Y5.2603
G3 X8.0758 Y5.1972 I0.7915 J1.5208
G1 X8.3176 Y5.097
G3 X8.4584 Y5.0458 I0.6563 J1.5839
G1 X8.708 Y4.9671
G3 X8.8528 Y4.9283 I0.5156 J1.6351
G1 X9.1083 Y4.8717
G3 X9.2551 Y4.8458 I0.3708 J1.6739
G1 X9.5146 Y4.8116
G3 X9.6639 Y4.7985 I0.224 J1.6998
G1 X9.9254 Y4.7871
G3 X10.0001 Y4.7855 I0.0747 J1.7129
G1 X59.9999
G3 X60.0746 Y4.7871 I0.0 J1.7145
G1 X60.3361 Y4.7985
G3 X60.4854 Y4.8116 I-0.0747 J1.7129
G1 X60.7449 Y4.8458
G3 X60.8917 Y4.8717 I-0.224 J1.6998
G1 X61.1472 Y4.9283
G3 X61.292 Y4.9671 I-0.3708 J1.6739
G1 X61.5416 Y5.0458
G3 X61.6824 Y5.097 I-0.5156 J1.6351
G1 X61.9242 Y5.1972
G3 X62.0593 Y5.2603 I-0.6563 J1.5839
G1 X62.2914 Y5.3811
G3 X62.4213 Y5.456 I-0.7915 J1.5208
G1 X62.6421 Y5.5967
G3 X62.7644 Y5.6824 I-0.9214 J1.4459
G1 X62.972 Y5.8417
G3 X63.0864 Y5.9377 I-1.0437 J1.3602
G1 X63.2794 Y6.1145
G3 X63.3852 Y6.2203 I-1.1581 J1.2642
G1 X63.562 Y6.4132
G3 X63.6585 Y6.5282 I-1.2639 J1.1584
G1 X63.8178 Y6.7359
G3 X63.9034 Y6.8581 I-1.3604 J1.0434
G1 X64.044 Y7.0788
G3 X64.1187 Y7.2082 I-1.446 J0.9212
G1 X64.2396 Y7.4404
G3 X64.3029 Y7.5762 I-1.5207 J0.7918
G1 X64.403 Y7.8179
G3 X64.4542 Y7.9585 I-1.584 J0.656
G1 X64.5329 Y8.2082
G3 X64.5715 Y8.3522 I-1.6352 J0.5154
G1 X64.6282 Y8.6077
G3 X64.6543 Y8.7556 I-1.6738 J0.3714
G1 X64.6884 Y9.015
G3 X64.7014 Y9.1638 I-1.6999 J0.2235
G1 X64.7128 Y9.4253
G3 X64.7144 Y9.5 I-1.7129 J0.0747
G1 Y88.5
G1 F100.0 Z-1.4
G3 F300.0 X64.7128 Y88.5747 I-1.7145 J0.0
G1 X64.7014 Y88.8362
G3 X64.6884 Y88.985 I-1.7129 J-0.0747
G1 X64.6543 Y89.2444
G3 X64.6282 Y89.3923 I-1.6999 J-0.2235
G1 X64.5715 Y89.6478
G3 X64.5329 Y89.7918 I-1.6738 J-0.3714
G1 X64.4542 Y90.0415
G3 X64.403 Y90.1821 I-1.6352 J-0.5154
G1 X64.3029 Y90.4238
G3 X64.2396 Y90.5596 I-1.584 J-0.656
G1 X64.1187 Y90.7918
G3 X64.044 Y90.9212 I-1.5207 J-0.7918
G1 X63.9034 Y91.1419
G3 X63.8178 Y91.2641 I-1.446 J-0.9212
G1 X63.6585 Y91.4718
G3 X63.562 Y91.5868 I-1.3604 J-1.0434
G1 X63.3852 Y91.7797
G3 X63.2794 Y91.8855 I-1.2639 J-1.1584
G1 X63.0864 Y92.0623
G3 X62.972 Y92.1583 I-1.1581 J-1.2642
G1 X62.7644 Y92.3176
G3 X62.6421 Y92.4033 I-1.0437 J-1.3602
G1 X62.4213 Y92.544
G3 X62.2914 Y92.6189 I-0.9214 J-1.4459
G1 X62.0593 Y92.7397
G3 X61.9242 Y92.8028 I-0.7915 J-1.5208
G1 X61.6824 Y92.903
G3 X61.5416 Y92.9542 I-0.6563 J-1.5839
G1 X61.292 Y93.0329
G3 X61.1472 Y93.0717 I-0.5156 J-1.6351
G1 X60.8917 Y93.1283
G3 X60.7449 Y93.1542 I-0.3708 J-1.6739
G1 X60.4854 Y93.1884
G3 X60.3361 Y93.2015 I-0.224 J-1.6998
G1 X60.0746 Y93.2129
G3 X59.9999 Y93.2145 I-0.0747 J-1.7129
G1 X10.0001
G3 X9.9254 Y93.2129 I0.0 J-1.7145
G1 X9.6639 Y93.2015
G3 X9.5146 Y93.1884 I0.0747 J-1.7129
G1 X9.2551 Y93.1542
G3 X9.1083 Y93.1283 I0.224 J-1.6998
G1 X8.8528 Y93.0717
G3 X8.708 Y93.0329 I0.3708 J-1.6739
G1 X8.4584 Y92.9542
G3 X8.3176 Y92.903 I0.5156 J-1.6351
G1 X8.0758 Y92.8028
G3 X7.9407 Y92.7397 I0.6563 J-1.5839
G1 X7.7086 Y92.6189
G3 X7.5787 Y92.544 I0.7915 J-1.5208
G1 X7.3579 Y92.4033
G3 X7.2356 Y92.3176 I0.9214 J-1.4459
G1 X7.028 Y92.1583
G3 X6.9136 Y92.0623 I1.0437 J-1.3602
G1 X6.7206 Y91.8855
G3 X6.6148 Y91.7797 I1.1581 J-1.2642
G1 X6.438 Y91.5868
G3 X6.3415 Y91.4718 I1.2639 J-1.1584
G1 X6.1822 Y91.2641
G3 X6.0966 Y91.1419 I1.3604 J-1.0434
G1 X5.956 Y90.9212
G3 X5.8813 Y90.7918 I1.446 J-0.9212
G1 X5.7604 Y90.5596
G3 X5.6971 Y90.4238 I1.5207 J-0.7918
G1 X5.597 Y90.1821
G3 X5.5458 Y90.0415 I1.584 J-0.656
G1 X5.4671 Y89.7918
G3 X5.4285 Y89.6478 I1.6352 J-0.5154
G1 X5.3718 Y89.3923
G3 X5.3457 Y89.2444 I1.6738 J-0.3714
G1 X5.3116 Y88.985
G3 X5.2986 Y88.8362 I1.6999 J-0.2235
G1 X5.2872 Y88.5747
G3 X5.2856 Y88.5 I1.7129 J-0.0747
G1 Y9.5
G3 X5.2872 Y9.4253 I1.7145 J0.0
G1 X5.2986 Y9.1638
G3 X5.3116 Y9.015 I1.7129 J0.0747
G1 X5.3457 Y8.7556
G3 X5.3718 Y8.6077 I1.6999 J0.2235
G1 X5.4285 Y8.3522
G3 X5.4671 Y8.2082 I1.6738 J0.3714
G1 X5.5458 Y7.9585
G3 X5.597 Y7.8179 I1.6352 J0.5154
G1 X5.6971 Y7.5762
G3 X5.7604 Y7.4404 I1.584 J0.656
G1 X5.8813 Y7.2082
G3 X5.956 Y7.0788 I1.5207 J0.7918
G1 X6.0966 Y6.8581
G3 X6.1822 Y6.7359 I1.446 J0.9212
G1 X6.3415 Y6.5282
G3 X6.438 Y6.4132 I1.3604 J1.0434
G1 X6.6148 Y6.2203
G3 X6.7206 Y6.1145 I1.2639 J1.1584
G1 X6.9136 Y5.9377
G3 X7.028 Y5.8417 I1.1581 J1.2642
G1 X7.2356 Y5.6824
G3 X7.3579 Y5.5967 I1.0437 J1.3602
G1 X7.5787 Y5.456
G3 X7.7086 Y5.3811 I0.9214 J1.4459
G1 X7.9407 Y5.2603
G3 X8.0758 Y5.1972 I0.7915 J1.5208
G1 X8.3176 Y5.097
G3 X8.4584 Y5.0458 I0.6563 J1.5839
G1 X8.708 Y4.9671
G3 X8.8528 Y4.9283 I0.5156 J1.6351
G1 X9.1083 Y4.8717
G3 X9.2551 Y4.8458 I0.3708 J1.6739
G1 X9.5146 Y4.8116
G3 X9.6639 Y4.7985 I0.224 J1.6998
G1 X9.9254 Y4.7871
G3 X10.0001 Y4.7855 I0.0747 J1.7129
G1 X59.9999
G3 X60.0746 Y4.7871 I0.0 J1.7145
G1 X60.3361 Y4.7985
G3 X60.4854 Y4.8116 I-0.0747 J1.7129
G1 X60.7449 Y4.8458
G3 X60.8917 Y4.8717 I-0.224 J1.6998
G1 X61.1472 Y4.9283
G3 X61.292 Y4.9671 I-0.3708 J1.6739
G1 X61.5416 Y5.0458
G3 X61.6824 Y5.097 I-0.5156 J1.6351
G1 X61.9242 Y5.1972
G3 X62.0593 Y5.2603 I-0.6563 J1.5839
G1 X62.2914 Y5.3811
G3 X62.4213 Y5.456 I-0.7915 J1.5208
G1 X62.6421 Y5.5967
G3 X62.7644 Y5.6824 I-0.9214 J1.4459
G1 X62.972 Y5.8417
G3 X63.0864 Y5.9377 I-1.0437 J1.3602
G1 X63.2794 Y6.1145
G3 X63.3852 Y6.2203 I-1.1581 J1.2642
G1 X63.562 Y6.4132
G3 X63.6585 Y6.5282 I-1.2639 J1.1584
G1 X63.8178 Y6.7359
G3 X63.9034 Y6.8581 I-1.3604 J1.0434
G1 X64.044 Y7.0788
G3 X64.1187 Y7.2082 I-1.446 J0.9212
G1 X64.2396 Y7.4404
G3 X64.3029 Y7.5762 I-1.5207 J0.7918
G1 X64.403 Y7.8179
G3 X64.4542 Y7.9585 I-1.584 J0.656
G1 X64.5329 Y8.2082
G3 X64.5715 Y8.3522 I-1.6352 J0.5154
G1 X64.6282 Y8.6077
G3 X64.6543 Y8.7556 I-1.6738 J0.3714
G1 X64.6884 Y9.015
G3 X64.7014 Y9.1638 I-1.6999 J0.2235
G1 X64.7128 Y9.4253
G3 X64.7144 Y9.5 I-1.7129 J0.0747
G1 Y88.5
G1 F100.0 Z-1.6
G3 F300.0 X64.7128 Y88.5747 I-1.7145 J0.0
G1 X64.7014 Y88.8362
G3 X64.6884 Y88.985 I-1.7129 J-0.0747
G1 X64.6543 Y89.2444
G3 X64.6282 Y89.3923 I-1.6999 J-0.2235
G1 X64.5715 Y89.6478
G3 X64.5329 Y89.7918 I-1.6738 J-0.3714
G1 X64.4542 Y90.0415
G3 X64.403 Y90.1821 I-1.6352 J-0.5154
G1 X64.3029 Y90.4238
G3 X64.2396 Y90.5596 I-1.584 J-0.656
G1 X64.1187 Y90.7918
G3 X64.044 Y90.9212 I-1.5207 J-0.7918
G1 X63.9034 Y91.1419
G3 X63.8178 Y91.2641 I-1.446 J-0.9212
G1 X63.6585 Y91.4718
G3 X63.562 Y91.5868 I-1.3604 J-1.0434
G1 X63.3852 Y91.7797
G3 X63.2794 Y91.8855 I-1.2639 J-1.1584
G1 X63.0864 Y92.0623
G3 X62.972 Y92.1583 I-1.1581 J-1.2642
G1 X62.7644 Y92.3176
G3 X62.6421 Y92.4033 I-1.0437 J-1.3602
G1 X62.4213 Y92.544
G3 X62.2914 Y92.6189 I-0.9214 J-1.4459
G1 X62.0593 Y92.7397
G3 X61.9242 Y92.8028 I-0.7915 J-1.5208
G1 X61.6824 Y92.903
G3 X61.5416 Y92.9542 I-0.6563 J-1.5839
G1 X61.292 Y93.0329
G3 X61.1472 Y93.0717 I-0.5156 J-1.6351
G1 X60.8917 Y93.1283
G3 X60.7449 Y93.1542 I-0.3708 J-1.6739
G1 X60.4854 Y93.1884
G3 X60.3361 Y93.2015 I-0.224 J-1.6998
G1 X60.0746 Y93.2129
G3 X59.9999 Y93.2145 I-0.0747 J-1.7129
G1 X10.0001
G3 X9.9254 Y93.2129 I0.0 J-1.7145
G1 X9.6639 Y93.2015
G3 X9.5146 Y93.1884 I0.0747 J-1.7129
G1 X9.2551 Y93.1542
G3 X9.1083 Y93.1283 I0.224 J-1.6998
G1 X8.8528 Y93.0717
G3 X8.708 Y93.0329 I0.3708 J-1.6739
G1 X8.4584 Y92.9542
G3 X8.3176 Y92.903 I0.5156 J-1.6351
G1 X8.0758 Y92.8028
G3 X7.9407 Y92.7397 I0.6563 J-1.5839
G1 X7.7086 Y92.6189
G3 X7.5787 Y92.544 I0.7915 J-1.5208
G1 X7.3579 Y92.4033
G3 X7.2356 Y92.3176 I0.9214 J-1.4459
G1 X7.028 Y92.1583
G3 X6.9136 Y92.0623 I1.0437 J-1.3602
G1 X6.7206 Y91.8855
G3 X6.6148 Y91.7797 I1.1581 J-1.2642
G1 X6.438 Y91.5868
G3 X6.3415 Y91.4718 I1.2639 J-1.1584
G1 X6.1822 Y91.2641
G3 X6.0966 Y91.1419 I1.3604 J-1.0434
G1 X5.956 Y90.9212
G3 X5.8813 Y90.7918 I1.446 J-0.9212
G1 X5.7604 Y90.5596
G3 X5.6971 Y90.4238 I1.5207 J-0.7918
G1 X5.597 Y90.1821
G3 X5.5458 Y90.0415 I1.584 J-0.656
G1 X5.4671 Y89.7918
G3 X5.4285 Y89.6478 I1.6352 J-0.5154
G1 X5.3718 Y89.3923
G3 X5.3457 Y89.2444 I1.6738 J-0.3714
G1 X5.3116 Y88.985
G3 X5.2986 Y88.8362 I1.6999 J-0.2235
G1 X5.2872 Y88.5747
G3 X5.2856 Y88.5 I1.7129 J-0.0747
G1 Y9.5
G3 X5.2872 Y9.4253 I1.7145 J0.0
G1 X5.2986 Y9.1638
G3 X5.3116 Y9.015 I1.7129 J0.0747
G1 X5.3457 Y8.7556
G3 X5.3718 Y8.6077 I1.6999 J0.2235
G1 X5.4285 Y8.3522
G3 X5.4671 Y8.2082 I1.6738 J0.3714
G1 X5.5458 Y7.9585
G3 X5.597 Y7.8179 I1.6352 J0.5154
G1 X5.6971 Y7.5762
G3 X5.7604 Y7.4404 I1.584 J0.656
G1 X5.8813 Y7.2082
G3 X5.956 Y7.0788 I1.5207 J0.7918
G1 X6.0966 Y6.8581
G3 X6.1822 Y6.7359 I1.446 J0.9212
G1 X6.3415 Y6.5282
G3 X6.438 Y6.4132 I1.3604 J1.0434
G1 X6.6148 Y6.2203
G3 X6.7206 Y6.1145 I1.2639 J1.1584
G1 X6.9136 Y5.9377
G3 X7.028 Y5.8417 I1.1581 J1.2642
G1 X7.2356 Y5.6824
G3 X7.3579 Y5.5967 I1.0437 J1.3602
G1 X7.5787 Y5.456
G3 X7.7086 Y5.3811 I0.9214 J1.4459
G1 X7.9407 Y5.2603
G3 X8.0758 Y5.1972 I0.7915 J1.5208
G1 X8.3176 Y5.097
G3 X8.4584 Y5.0458 I0.6563 J1.5839
G1 X8.708 Y4.9671
G3 X8.8528 Y4.9283 I0.5156 J1.6351
G1 X9.1083 Y4.8717
G3 X9.2551 Y4.8458 I0.3708 J1.6739
G1 X9.5146 Y4.8116
G3 X9.6639 Y4.7985 I0.224 J1.6998
G1 X9.9254 Y4.7871
G3 X10.0001 Y4.7855 I0.0747 J1.7129
G1 X59.9999
G3 X60.0746 Y4.7871 I0.0 J1.7145
G1 X60.3361 Y4.7985
G3 X60.4854 Y4.8116 I-0.0747 J1.7129
G1 X60.7449 Y4.8458
G3 X60.8917 Y4.8717 I-0.224 J1.6998
G1 X61.1472 Y4.9283
G3 X61.292 Y4.9671 I-0.3708 J1.6739
G1 X61.5416 Y5.0458
G3 X61.6824 Y5.097 I-0.5156 J1.6351
G1 X61.9242 Y5.1972
G3 X62.0593 Y5.2603 I-0.6563 J1.5839
G1 X62.2914 Y5.3811
G3 X62.4213 Y5.456 I-0.7915 J1.5208
G1 X62.6421 Y5.5967
G3 X62.7644 Y5.6824 I-0.9214 J1.4459
G1 X62.972 Y5.8417
G3 X63.0864 Y5.9377 I-1.0437 J1.3602
G1 X63.2794 Y6.1145
G3 X63.3852 Y6.2203 I-1.1581 J1.2642
G1 X63.562 Y6.4132
G3 X63.6585 Y6.5282 I-1.2639 J1.1584
G1 X63.8178 Y6.7359
G3 X63.9034 Y6.8581 I-1.3604 J1.0434
G1 X64.044 Y7.0788
G3 X64.1187 Y7.2082 I-1.446 J0.9212
G1 X64.2396 Y7.4404
G3 X64.3029 Y7.5762 I-1.5207 J0.7918
G1 X64.403 Y7.8179
G3 X64.4542 Y7.9585 I-1.584 J0.656
G1 X64.5329 Y8.2082
G3 X64.5715 Y8.3522 I-1.6352 J0.5154
G1 X64.6282 Y8.6077
G3 X64.6543 Y8.7556 I-1.6738 J0.3714
G1 X64.6884 Y9.015
G3 X64.7014 Y9.1638 I-1.6999 J0.2235
G1 X64.7128 Y9.4253
G3 X64.7144 Y9.5 I-1.7129 J0.0747
G1 Y88.5
G1 F100.0 Z-1.8
G3 F300.0 X64.7128 Y88.5747 I-1.7145 J0.0
G1 X64.7014 Y88.8362
G3 X64.6884 Y88.985 I-1.7129 J-0.0747
G1 X64.6543 Y89.2444
G3 X64.6282 Y89.3923 I-1.6999 J-0.2235
G1 X64.5715 Y89.6478
G3 X64.5329 Y89.7918 I-1.6738 J-0.3714
G1 X64.4542 Y90.0415
G3 X64.403 Y90.1821 I-1.6352 J-0.5154
G1 X64.3029 Y90.4238
G3 X64.2396 Y90.5596 I-1.584 J-0.656
G1 X64.1187 Y90.7918
G3 X64.044 Y90.9212 I-1.5207 J-0.7918
G1 X63.9034 Y91.1419
G3 X63.8178 Y91.2641 I-1.446 J-0.9212
G1 X63.6585 Y91.4718
G3 X63.562 Y91.5868 I-1.3604 J-1.0434
G1 X63.3852 Y91.7797
G3 X63.2794 Y91.8855 I-1.2639 J-1.1584
G1 X63.0864 Y92.0623
G3 X62.972 Y92.1583 I-1.1581 J-1.2642
G1 X62.7644 Y92.3176
G3 X62.6421 Y92.4033 I-1.0437 J-1.3602
G1 X62.4213 Y92.544
G3 X62.2914 Y92.6189 I-0.9214 J-1.4459
G1 X62.0593 Y92.7397
G3 X61.9242 Y92.8028 I-0.7915 J-1.5208
G1 X61.6824 Y92.903
G3 X61.5416 Y92.9542 I-0.6563 J-1.5839
G1 X61.292 Y93.0329
G3 X61.1472 Y93.0717 I-0.5156 J-1.6351
G1 X60.8917 Y93.1283
G3 X60.7449 Y93.1542 I-0.3708 J-1.6739
G1 X60.4854 Y93.1884
G3 X60.3361 Y93.2015 I-0.224 J-1.6998
G1 X60.0746 Y93.2129
G3 X59.9999 Y93.2145 I-0.0747 J-1.7129
G1 X10.0001
G3 X9.9254 Y93.2129 I0.0 J-1.7145
G1 X9.6639 Y93.2015
G3 X9.5146 Y93.1884 I0.0747 J-1.7129
G1 X9.2551 Y93.1542
G3 X9.1083 Y93.1283 I0.224 J-1.6998
G1 X8.8528 Y93.0717
G3 X8.708 Y93.0329 I0.3708 J-1.6739
G1 X8.4584 Y92.9542
G3 X8.3176 Y92.903 I0.5156 J-1.6351
G1 X8.0758 Y92.8028
G3 X7.9407 Y92.7397 I0.6563 J-1.5839
G1 X7.7086 Y92.6189
G3 X7.5787 Y92.544 I0.7915 J-1.5208
G1 X7.3579 Y92.4033
G3 X7.2356 Y92.3176 I0.9214 J-1.4459
G1 X7.028 Y92.1583
G3 X6.9136 Y92.0623 I1.0437 J-1.3602
G1 X6.7206 Y91.8855
G3 X6.6148 Y91.7797 I1.1581 J-1.2642
G1 X6.438 Y91.5868
G3 X6.3415 Y91.4718 I1.2639 J-1.1584
G1 X6.1822 Y91.2641
G3 X6.0966 Y91.1419 I1.3604 J-1.0434
G1 X5.956 Y90.9212
G3 X5.8813 Y90.7918 I1.446 J-0.9212
G1 X5.7604 Y90.5596
G3 X5.6971 Y90.4238 I1.5207 J-0.7918
G1 X5.597 Y90.1821
G3 X5.5458 Y90.0415 I1.584 J-0.656
G1 X5.4671 Y89.7918
G3 X5.4285 Y89.6478 I1.6352 J-0.5154
G1 X5.3718 Y89.3923
G3 X5.3457 Y89.2444 I1.6738 J-0.3714
G1 X5.3116 Y88.985
G3 X5.2986 Y88.8362 I1.6999 J-0.2235
G1 X5.2872 Y88.5747
G3 X5.2856 Y88.5 I1.7129 J-0.0747
G1 Y9.5
G3 X5.2872 Y9.4253 I1.7145 J0.0
G1 X5.2986 Y9.1638
G3 X5.3116 Y9.015 I1.7129 J0.0747
G1 X5.3457 Y8.7556
G3 X5.3718 Y8.6077 I1.6999 J0.2235
G1 X5.4285 Y8.3522
G3 X5.4671 Y8.2082 I1.6738 J0.3714
G1 X5.5458 Y7.9585
G3 X5.597 Y7.8179 I1.6352 J0.5154
G1 X5.6971 Y7.5762
G3 X5.7604 Y7.4404 I1.584 J0.656
G1 X5.8813 Y7.2082
G3 X5.956 Y7.0788 I1.5207 J0.7918
G1 X6.0966 Y6.8581
G3 X6.1822 Y6.7359 I1.446 J0.9212
G1 X6.3415 Y6.5282
G3 X6.438 Y6.4132 I1.3604 J1.0434
G1 X6.6148 Y6.2203
G3 X6.7206 Y6.1145 I1.2639 J1.1584
G1 X6.9136 Y5.9377
G3 X7.028 Y5.8417 I1.1581 J1.2642
G1 X7.2356 Y5.6824
G3 X7.3579 Y5.5967 I1.0437 J1.3602
G1 X7.5787 Y5.456
G3 X7.7086 Y5.3811 I0.9214 J1.4459
G1 X7.9407 Y5.2603
G3 X8.0758 Y5.1972 I0.7915 J1.5208
G1 X8.3176 Y5.097
G3 X8.4584 Y5.0458 I0.6563 J1.5839
G1 X8.708 Y4.9671
G3 X8.8528 Y4.9283 I0.5156 J1.6351
G1 X9.1083 Y4.8717
G3 X9.2551 Y4.8458 I0.3708 J1.6739
G1 X9.5146 Y4.8116
G3 X9.6639 Y4.7985 I0.224 J1.6998
G1 X9.9254 Y4.7871
G3 X10.0001 Y4.7855 I0.0747 J1.7129
G1 X59.9999
G3 X60.0746 Y4.7871 I0.0 J1.7145
G1 X60.3361 Y4.7985
G3 X60.4854 Y4.8116 I-0.0747 J1.7129
G1 X60.7449 Y4.8458
G3 X60.8917 Y4.8717 I-0.224 J1.6998
G1 X61.1472 Y4.9283
G3 X61.292 Y4.9671 I-0.3708 J1.6739
G1 X61.5416 Y5.0458
G3 X61.6824 Y5.097 I-0.5156 J1.6351
G1 X61.9242 Y5.1972
G3 X62.0593 Y5.2603 I-0.6563 J1.5839
G1 X62.2914 Y5.3811
G3 X62.4213 Y5.456 I-0.7915 J1.5208
G1 X62.6421 Y5.5967
G3 X62.7644 Y5.6824 I-0.9214 J1.4459
G1 X62.972 Y5.8417
G3 X63.0864 Y5.9377 I-1.0437 J1.3602
G1 X63.2794 Y6.1145
G3 X63.3852 Y6.2203 I-1.1581 J1.2642
G1 X63.562 Y6.4132
G3 X63.6585 Y6.5282 I-1.2639 J1.1584
G1 X63.8178 Y6.7359
G3 X63.9034 Y6.8581 I-1.3604 J1.0434
G1 X64.044 Y7.0788
G3 X64.1187 Y7.2082 I-1.446 J0.9212
G1 X64.2396 Y7.4404
G3 X64.3029 Y7.5762 I-1.5207 J0.7918
G1 X64.403 Y7.8179
G3 X64.4542 Y7.9585 I-1.584 J0.656
G1 X64.5329 Y8.2082
G3 X64.5715 Y8.3522 I-1.6352 J0.5154
G1 X64.6282 Y8.6077
G3 X64.6543 Y8.7556 I-1.6738 J0.3714
G1 X64.6884 Y9.015
G3 X64.7014 Y9.1638 I-1.6999 J0.2235
G1 X64.7128 Y9.4253
G3 X64.7144 Y9.5 I-1.7129 J0.0747
G1 Y88.5
G1 F100.0 Z-2.0
G3 F300.0 X64.7128 Y88.5747 I-1.7145 J0.0
G1 X64.7014 Y88.8362
G3 X64.6884 Y88.985 I-1.7129 J-0.0747
G1 X64.6543 Y89.2444
G3 X64.6282 Y89.3923 I-1.6999 J-0.2235
G1 X64.5715 Y89.6478
G3 X64.5329 Y89.7918 I-1.6738 J-0.3714
G1 X64.4542 Y90.0415
G3 X64.403 Y90.1821 I-1.6352 J-0.5154
G1 X64.3029 Y90.4238
G3 X64.2396 Y90.5596 I-1.584 J-0.656
G1 X64.1187 Y90.7918
G3 X64.044 Y90.9212 I-1.5207 J-0.7918
G1 X63.9034 Y91.1419
G3 X63.8178 Y91.2641 I-1.446 J-0.9212
G1 X63.6585 Y91.4718
G3 X63.562 Y91.5868 I-1.3604 J-1.0434
G1 X63.3852 Y91.7797
G3 X63.2794 Y91.8855 I-1.2639 J-1.1584
G1 X63.0864 Y92.0623
G3 X62.972 Y92.1583 I-1.1581 J-1.2642
G1 X62.7644 Y92.3176
G3 X62.6421 Y92.4033 I-1.0437 J-1.3602
G1 X62.4213 Y92.544
G3 X62.2914 Y92.6189 I-0.9214 J-1.4459
G1 X62.0593 Y92.7397
G3 X61.9242 Y92.8028 I-0.7915 J-1.5208
G1 X61.6824 Y92.903
G3 X61.5416 Y92.9542 I-0.6563 J-1.5839
G1 X61.292 Y93.0329
G3 X61.1472 Y93.0717 I-0.5156 J-1.6351
G1 X60.8917 Y93.1283
G3 X60.7449 Y93.1542 I-0.3708 J-1.6739
G1 X60.4854 Y93.1884
G3 X60.3361 Y93.2015 I-0.224 J-1.6998
G1 X60.0746 Y93.2129
G3 X59.9999 Y93.2145 I-0.0747 J-1.7129
G1 X10.0001
G3 X9.9254 Y93.2129 I0.0 J-1.7145
G1 X9.6639 Y93.2015
G3 X9.5146 Y93.1884 I0.0747 J-1.7129
G1 X9.2551 Y93.1542
G3 X9.1083 Y93.1283 I0.224 J-1.6998
G1 X8.8528 Y93.0717
G3 X8.708 Y93.0329 I0.3708 J-1.6739
G1 X8.4584 Y92.9542
G3 X8.3176 Y92.903 I0.5156 J-1.6351
G1 X8.0758 Y92.8028
G3 X7.9407 Y92.7397 I0.6563 J-1.5839
G1 X7.7086 Y92.6189
G3 X7.5787 Y92.544 I0.7915 J-1.5208
G1 X7.3579 Y92.4033
G3 X7.2356 Y92.3176 I0.9214 J-1.4459
G1 X7.028 Y92.1583
G3 X6.9136 Y92.0623 I1.0437 J-1.3602
G1 X6.7206 Y91.8855
G3 X6.6148 Y91.7797 I1.1581 J-1.2642
G1 X6.438 Y91.5868
G3 X6.3415 Y91.4718 I1.2639 J-1.1584
G1 X6.1822 Y91.2641
G3 X6.0966 Y91.1419 I1.3604 J-1.0434
G1 X5.956 Y90.9212
G3 X5.8813 Y90.7918 I1.446 J-0.9212
G1 X5.7604 Y90.5596
G3 X5.6971 Y90.4238 I1.5207 J-0.7918
G1 X5.597 Y90.1821
G3 X5.5458 Y90.0415 I1.584 J-0.656
G1 X5.4671 Y89.7918
G3 X5.4285 Y89.6478 I1.6352 J-0.5154
G1 X5.3718 Y89.3923
G3 X5.3457 Y89.2444 I1.6738 J-0.3714
G1 X5.3116 Y88.985
G3 X5.2986 Y88.8362 I1.6999 J-0.2235
G1 X5.2872 Y88.5747
G3 X5.2856 Y88.5 I1.7129 J-0.0747
G1 Y9.5
G3 X5.2872 Y9.4253 I1.7145 J0.0
G1 X5.2986 Y9.1638
G3 X5.3116 Y9.015 I1.7129 J0.0747
G1 X5.3457 Y8.7556
G3 X5.3718 Y8.6077 I1.6999 J0.2235
G1 X5.4285 Y8.3522
G3 X5.4671 Y8.2082 I1.6738 J0.3714
G1 X5.5458 Y7.9585
G3 X5.597 Y7.8179 I1.6352 J0.5154
G1 X5.6971 Y7.5762
G3 X5.7604 Y7.4404 I1.584 J0.656
G1 X5.8813 Y7.2082
G3 X5.956 Y7.0788 I1.5207 J0.7918
G1 X6.0966 Y6.8581
G3 X6.1822 Y6.7359 I1.446 J0.9212
G1 X6.3415 Y6.5282
G3 X6.438 Y6.4132 I1.3604 J1.0434
G1 X6.6148 Y6.2203
G3 X6.7206 Y6.1145 I1.2639 J1.1584
G1 X6.9136 Y5.9377
G3 X7.028 Y5.8417 I1.1581 J1.2642
G1 X7.2356 Y5.6824
G3 X7.3579 Y5.5967 I1.0437 J1.3602
G1 X7.5787 Y5.456
G3 X7.7086 Y5.3811 I0.9214 J1.4459
G1 X7.9407 Y5.2603
G3 X8.0758 Y5.1972 I0.7915 J1.5208
G1 X8.3176 Y5.097
G3 X8.4584 Y5.0458 I0.6563 J1.5839
G1 X8.708 Y4.9671
G3 X8.8528 Y4.9283 I0.5156 J1.6351
G1 X9.1083 Y4.8717
G3 X9.2551 Y4.8458 I0.3708 J1.6739
G1 X9.5146 Y4.8116
G3 X9.6639 Y4.7985 I0.224 J1.6998
G1 X9.9254 Y4.7871
G3 X10.0001 Y4.7855 I0.0747 J1.7129
G1 X59.9999
G3 X60.0746 Y4.7871 I0.0 J1.7145
G1 X60.3361 Y4.7985
G3 X60.4854 Y4.8116 I-0.0747 J1.7129
G1 X60.7449 Y4.8458
G3 X60.8917 Y4.8717 I-0.224 J1.6998
G1 X61.1472 Y4.9283
G3 X61.292 Y4.9671 I-0.3708 J1.6739
G1 X61.5416 Y5.0458
G3 X61.6824 Y5.097 I-0.5156 J1.6351
G1 X61.9242 Y5.1972
G3 X62.0593 Y5.2603 I-0.6563 J1.5839
G1 X62.2914 Y5.3811
G3 X62.4213 Y5.456 I-0.7915 J1.5208
G1 X62.6421 Y5.5967
G3 X62.7644 Y5.6824 I-0.9214 J1.4459
G1 X62.972 Y5.8417
G3 X63.0864 Y5.9377 I-1.0437 J1.3602
G1 X63.2794 Y6.1145
G3 X63.3852 Y6.2203 I-1.1581 J1.2642
G1 X63.562 Y6.4132
G3 X63.6585 Y6.5282 I-1.2639 J1.1584
G1 X63.8178 Y6.7359
G3 X63.9034 Y6.8581 I-1.3604 J1.0434
G1 X64.044 Y7.0788
G3 X64.1187 Y7.2082 I-1.446 J0.9212
G1 X64.2396 Y7.4404
G3 X64.3029 Y7.5762 I-1.5207 J0.7918
G1 X64.403 Y7.8179
G3 X64.4542 Y7.9585 I-1.584 J0.656
G1 X64.5329 Y8.2082
G3 X64.5715 Y8.3522 I-1.6352 J0.5154
G1 X64.6282 Y8.6077
G3 X64.6543 Y8.7556 I-1.6738 J0.3714
G1 X64.6884 Y9.015
G3 X64.7014 Y9.1638 I-1.6999 J0.2235
G1 X64.7128 Y9.4253
G3 X64.7144 Y9.5 I-1.7129 J0.0747
G1 Y88.5
G0 Z2.0
M5
M30
