;FLAVOR:Marlin
;TIME:4556
;Filament used: 3.50032m
;Layer height: 0.6
;Extruders used: T0 0.8
;Materials used: T0 PET-G
;BCN3D_FIXES
;Generated with Cura_SteamEngine 3.4.3-
M141 S50
T0
M190 S80
M104 S250
M109 S250
M82 ;absolute extrusion mode
;Sigma ProGen 2.2.0 (Build 24HJ1318)
;BCN3D Fixes applied
; - Z Hop At Layer Change

G21          ;metric values
G90          ;absolute positioning
M204 S1750 ;set default acceleration
M205 X12.5 Y12.5 ;set default jerk
M107         ;start with the fan off
G28 X0 Y0    ;move X/Y to min endstops
G28 Z0       ;move Z to min endstops
G1 Z5 F200   ;safety Z axis movement
T1           ;switch to the right extruder
G92 E0       ;zero the extruded length

G92 E0       
G4 P2000     ;stabilize hotend's pressure
T0           ;switch to the left extruder
G92 E0       ;zero the extruded length
G1 F189.0 E15 ;extrude 15mm of feed stock
G92 E0
G4 P2000     ;stabilize hotend's pressure


G4 P1
G4 P2
G4 P3

;LAYER_COUNT:33
;LAYER:0
M107
G0 F3618 X162.279 Y181.573 Z0.4
;TYPE:SKIRT
G1 F804 X161.716 Y181.767 E0.03226
G1 X161.219 Y181.872 E0.05978
G1 X160.602 Y181.966 E0.09359
G1 X159.893 Y182.017 E0.1321
G1 X143.375 Y181.87 E1.02699
G1 X142.782 Y181.825 E1.05921
G1 X142.242 Y181.712 E1.08909
G1 X135.262 Y179.8 E1.48116
G1 X129.92 Y178.648 E1.77721
G1 X127.352 Y178.209 E1.91835
G1 X121.954 Y177.518 E2.21317
G1 X116.566 Y177.136 E2.5058
G1 X111.147 Y177.059 E2.7994
G1 X105.749 Y177.287 E3.09209
G1 X100.377 Y177.82 E3.38454
G1 X95.026 Y178.659 E3.67797
G1 X92.39 Y179.186 E3.8236
G1 X89.766 Y179.79 E3.96947
G1 X84.559 Y181.187 E4.26154
G1 X83.974 Y181.303 E4.29384
G1 X83.377 Y181.339 E4.32625
G1 X66.645 Y181.223 E5.23271
G1 X66.051 Y181.179 E5.26498
G1 X65.464 Y181.054 E5.29749
G1 X64.382 Y180.747 E5.35843
G1 X63.821 Y180.547 E5.39069
G1 X63.292 Y180.273 E5.42296
G1 X62.958 Y180.049 E5.44475
G1 X62.401 Y179.638 E5.48225
G1 X61.946 Y179.253 E5.51454
G1 X61.67 Y178.96 E5.53635
G1 X61.296 Y178.525 E5.56743
G1 X61.007 Y178.15 E5.59308
G1 X55.906 Y170.75 E6.07998
G1 X55.512 Y170.051 E6.12345
G1 X55.258 Y169.486 E6.15701
G1 X55.051 Y168.927 E6.1893
G1 X54.965 Y168.59 E6.20815
G1 X54.638 Y167.054 E6.29322
G1 X54.554 Y166.464 E6.32551
G1 X54.541 Y166.096 E6.34546
G1 X54.816 Y129.638 E8.3206
G1 X54.83 Y129.318 E8.33796
G1 X54.978 Y127.462 E8.43882
G1 X55.065 Y126.873 E8.47108
G1 X55.185 Y126.432 E8.49584
G1 X55.572 Y125.251 E8.56316
G1 X55.795 Y124.699 E8.59542
G1 X56.065 Y124.219 E8.62525
G1 X56.94 Y122.869 E8.71241
G1 X57.066 Y122.685 E8.72449
G1 X61.405 Y116.674 E9.12611
G1 X61.651 Y116.363 E9.14759
G1 X62.182 Y115.751 E9.19148
G1 X62.602 Y115.329 E9.22374
G1 X62.911 Y115.08 E9.24524
G1 X63.424 Y114.704 E9.27969
G1 X63.927 Y114.385 E9.31196
G1 X64.321 Y114.195 E9.33566
G1 X64.818 Y113.985 E9.36489
G1 X65.381 Y113.791 E9.39715
G1 X66.216 Y113.647 E9.44305
G1 X67.57 Y113.546 E9.51661
G1 X67.954 Y113.534 E9.53742
G1 X84.068 Y113.731 E10.41045
G1 X84.662 Y113.779 E10.44274
G1 X85.204 Y113.893 E10.47274
G1 X92.146 Y115.824 E10.8631
G1 X97.46 Y116.954 E11.15742
G1 X100.045 Y117.387 E11.29941
G1 X105.444 Y118.063 E11.59418
G1 X110.861 Y118.431 E11.88832
G1 X114.599 Y118.505 E12.09086
G1 X120.016 Y118.352 E12.38444
G1 X125.396 Y117.894 E12.67696
G1 X130.766 Y117.129 E12.97081
G1 X136.024 Y116.075 E13.26132
G1 X142.56 Y114.363 E13.62735
G1 X143.145 Y114.251 E13.65962
G1 X143.716 Y114.218 E13.69061
G1 X160.442 Y114.333 E14.59675
G1 X161.031 Y114.377 E14.62875
G1 X161.605 Y114.458 E14.66015
G1 X162.188 Y114.58 E14.69242
G1 X162.745 Y114.778 E14.72444
G1 X163.294 Y115.015 E14.75684
G1 X163.824 Y115.287 E14.78911
G1 X164.312 Y115.628 E14.82136
G1 X164.556 Y115.838 E14.8388
G1 X165.471 Y116.688 E14.90646
G1 X165.879 Y117.122 E14.93873
G1 X166.104 Y117.421 E14.959
G1 X171.194 Y124.804 E15.44481
G1 X171.583 Y125.491 E15.48758
G1 X171.83 Y126.036 E15.52
G1 X172.09 Y126.779 E15.56265
G1 X172.394 Y127.98 E15.62976
G1 X172.52 Y128.779 E15.67358
G1 X172.573 Y129.585 E15.71734
G1 X172.583 Y129.914 E15.73517
G1 X172.27 Y166.622 E17.72388
G1 X172.253 Y166.974 E17.74297
G1 X172.174 Y167.869 E17.79164
G1 X172.014 Y168.719 E17.8385
G1 X171.649 Y169.974 E17.90931
G1 X171.368 Y170.698 E17.95138
G1 X171.146 Y171.148 E17.97856
G1 X170.778 Y171.763 E18.01739
G1 X165.72 Y178.85 E18.48908
G1 X165.474 Y179.164 E18.51069
G1 X164.957 Y179.766 E18.55368
G1 X164.54 Y180.191 E18.58593
G1 X164.254 Y180.424 E18.60592
G1 X163.733 Y180.815 E18.64121
G1 X163.234 Y181.14 E18.67347
G1 X162.797 Y181.354 E18.69983
G1 X162.71 Y181.391 E18.70495
G0 F723.6 X162.279 Y181.573
G0 F3618 X161.905 Y180.688
G1 F1800 E18.7303
G1 F804 X161.405 Y180.856 E18.75888
G1 X161.074 Y180.923 E18.77717
G1 X160.457 Y181.017 E18.81098
G1 X159.902 Y181.057 E18.84113
G1 X143.384 Y180.91 E19.73602
G1 X142.859 Y180.865 E19.76456
G1 X142.496 Y180.786 E19.78469
G1 X135.503 Y178.871 E20.17748
G1 X130.096 Y177.705 E20.47713
G1 X127.494 Y177.26 E20.62014
G1 X122.038 Y176.561 E20.91813
G1 X116.612 Y176.177 E21.21282
G1 X111.137 Y176.098 E21.50945
G1 X105.685 Y176.329 E21.80508
G1 X100.256 Y176.867 E22.10063
G1 X94.83 Y177.718 E22.39818
G1 X92.202 Y178.244 E22.54337
G1 X89.547 Y178.855 E22.69096
G1 X84.31 Y180.26 E22.98471
G1 X83.792 Y180.358 E23.01327
G1 X83.384 Y180.379 E23.0354
G1 X66.652 Y180.263 E23.94187
G1 X66.126 Y180.219 E23.97046
G1 X65.726 Y180.131 E23.99265
G1 X64.644 Y179.824 E24.05358
G1 X64.149 Y179.642 E24.08215
G1 X63.528 Y179.276 E24.1212
G1 X62.971 Y178.865 E24.1587
G1 X62.398 Y178.334 E24.20102
G1 X62.024 Y177.899 E24.2321
G1 X61.798 Y177.605 E24.25219
G1 X56.697 Y170.205 E24.7391
G1 X56.388 Y169.657 E24.77318
G1 X56.134 Y169.092 E24.80674
G1 X55.904 Y168.39 E24.84676
G1 X55.577 Y166.854 E24.93184
G1 X55.501 Y166.103 E24.97273
G1 X55.776 Y129.645 E26.94788
G1 X55.787 Y129.394 E26.96149
G1 X55.935 Y127.538 E27.06235
G1 X56.017 Y127.017 E27.09093
G1 X56.097 Y126.731 E27.10702
G1 X56.484 Y125.55 E27.17434
G1 X56.686 Y125.063 E27.20291
G1 X56.871 Y124.741 E27.22302
G1 X57.746 Y123.391 E27.31018
G1 X57.844 Y123.247 E27.31961
G1 X62.183 Y117.236 E27.72123
G1 X62.376 Y116.992 E27.73809
G1 X62.907 Y116.38 E27.78198
G1 X63.479 Y115.854 E27.82408
G1 X63.992 Y115.478 E27.85854
G1 X64.439 Y115.2 E27.88705
G1 X64.695 Y115.079 E27.90239
G1 X65.192 Y114.869 E27.93162
G1 X65.691 Y114.702 E27.96013
G1 X66.287 Y114.605 E27.99284
G1 X67.641 Y114.504 E28.0664
G1 X67.943 Y114.494 E28.08277
G1 X84.057 Y114.691 E28.9558
G1 X84.582 Y114.738 E28.98435
G1 X84.947 Y114.818 E29.0046
G1 X91.915 Y116.756 E29.39641
G1 X97.29 Y117.899 E29.69411
G1 X99.909 Y118.338 E29.83797
G1 X105.349 Y119.019 E30.13498
G1 X110.818 Y119.391 E30.43195
G1 X114.587 Y119.465 E30.63617
G1 X120.088 Y119.309 E30.9343
G1 X125.507 Y118.849 E31.22893
G1 X130.915 Y118.078 E31.52487
G1 X136.248 Y117.009 E31.81953
G1 X142.803 Y115.292 E32.18662
G1 X143.322 Y115.197 E32.2152
G1 X143.709 Y115.178 E32.23619
G1 X160.435 Y115.293 E33.14234
G1 X160.897 Y115.327 E33.16743
G1 X161.471 Y115.408 E33.19884
G1 X161.986 Y115.521 E33.2274
G1 X162.364 Y115.659 E33.2492
G1 X162.913 Y115.896 E33.2816
G1 X163.38 Y116.141 E33.31017
G1 X163.903 Y116.541 E33.34584
G1 X164.818 Y117.391 E33.41349
G1 X165.314 Y117.966 E33.45463
G1 X170.404 Y125.349 E33.94044
G1 X170.709 Y125.887 E33.97395
G1 X170.956 Y126.432 E34.00636
G1 X171.16 Y127.015 E34.03982
G1 X171.464 Y128.216 E34.10694
G1 X171.563 Y128.842 E34.14127
G1 X171.616 Y129.648 E34.18503
G1 X171.623 Y129.906 E34.19901
G1 X171.31 Y166.614 E36.18772
G1 X171.297 Y166.89 E36.20269
G1 X171.218 Y167.785 E36.25136
G1 X171.093 Y168.451 E36.28807
G1 X170.728 Y169.706 E36.35888
G1 X170.507 Y170.274 E36.3919
G1 X170.285 Y170.724 E36.41908
G1 X169.997 Y171.206 E36.4495
G1 X164.939 Y178.293 E36.92119
G1 X164.746 Y178.538 E36.93808
G1 X164.229 Y179.14 E36.98107
G1 X163.678 Y179.656 E37.02197
G1 X163.157 Y180.047 E37.05726
G1 X162.712 Y180.331 E37.08586
G1 X162.423 Y180.469 E37.10321
G1 X162.336 Y180.506 E37.10833
G0 F723.6 X161.905 Y180.688
G1 F2100 E32.10833
G0 F3618 X111.193 Y169.335
G0 X63.473 Y151.408
G0 X62.54 Y150.887
G0 X61.901 Y150.284
G0 X61.092 Y149.221
G0 X61.182 Y149.179
;TYPE:WALL-INNER
G1 F1800 E37.13368
G1 F804 X61.779 Y150.116 E37.19011
G1 X62.001 Y150.325 E37.2056
G1 X62.563 Y150.855 E37.24483
G1 X63.488 Y151.371 E37.29862
G1 X64.531 Y151.649 E37.35345
G1 X65.634 Y151.651 E37.40947
G1 X66.663 Y151.395 E37.46332
G1 X67.615 Y150.882 E37.51824
G1 X68.411 Y150.146 E37.5733
G1 X69.005 Y149.224 E37.62901
G1 X69.346 Y148.203 E37.68368
G1 X69.416 Y147.094 E37.74012
G1 X69.213 Y146.034 E37.79493
G1 X68.769 Y145.075 E37.8486
G1 X68.088 Y144.236 E37.90348
G1 X67.198 Y143.586 E37.95946
G1 X66.214 Y143.188 E38.01337
G1 X65.14 Y143.045 E38.06839
G1 X64.059 Y143.172 E38.12367
G1 X63.051 Y143.563 E38.17859
G1 X62.16 Y144.207 E38.23442
G1 X62.136 Y144.236 E38.23633
G1 X61.475 Y145.02 E38.28842
G1 X61.413 Y145.149 E38.29568
G1 X61.008 Y145.997 E38.34341
G1 X60.796 Y147.059 E38.39841
G1 X60.857 Y148.152 E38.45401
G1 X61.032 Y148.703 E38.48337
G0 F723.6 X61.182 Y149.179
G0 F3618 X62.032 Y148.782
;TYPE:WALL-OUTER
G1 F1800 E38.50877
G1 F804 X62.501 Y149.519 E38.55609
G1 X63.117 Y150.099 E38.60193
G1 X63.84 Y150.502 E38.64677
G1 X64.654 Y150.719 E38.69241
G1 X65.521 Y150.721 E38.73938
G1 X66.325 Y150.521 E38.78426
G1 X67.07 Y150.119 E38.83012
G1 X67.693 Y149.543 E38.87609
G1 X68.16 Y148.819 E38.92276
G1 X68.425 Y148.024 E38.96816
G1 X68.48 Y147.153 E39.01544
G1 X68.321 Y146.321 E39.06133
G1 X67.974 Y145.571 E39.1061
G1 X67.442 Y144.916 E39.15181
G1 X66.742 Y144.405 E39.19876
G1 X65.974 Y144.094 E39.24365
G1 X65.133 Y143.982 E39.28962
G1 X64.285 Y144.082 E39.33587
G1 X63.499 Y144.387 E39.38155
G1 X62.797 Y144.894 E39.42846
G1 X62.263 Y145.528 E39.47337
G1 X61.897 Y146.293 E39.51931
G1 X61.731 Y147.125 E39.56527
G1 X61.779 Y147.983 E39.61182
G1 X61.891 Y148.336 E39.63189
G0 F723.6 X62.032 Y148.782
G0 F3618 X62.246 Y149.119
G0 X61.355 Y149.685
G0 X61.749 Y150.141
G0 X62.54 Y150.887
G0 X63.473 Y151.408
G0 X64.526 Y151.688
G0 X65.526 Y151.689
G0 X73.536 Y150.063
;TYPE:WALL-INNER
G1 F1800 E39.65724
G1 F804 X74.318 Y151.296 E39.7314
G1 X74.379 Y151.392 E39.73717
G1 X74.461 Y151.469 E39.74289
G1 X75.409 Y152.36 E39.80896
G1 X75.49 Y152.436 E39.8146
G1 X75.586 Y152.489 E39.82017
G1 X76.709 Y153.118 E39.88554
G1 X76.808 Y153.174 E39.89132
G1 X76.917 Y153.202 E39.89704
G1 X78.296 Y153.568 E39.9695
G1 X79.74 Y153.57 E40.04284
G1 X79.851 Y153.571 E40.04848
G1 X81.32 Y153.207 E40.12534
G1 X82.671 Y152.475 E40.20338
G1 X83.798 Y151.434 E40.2813
G1 X83.859 Y151.339 E40.28703
G1 X84.579 Y150.224 E40.35444
G1 X84.641 Y150.128 E40.36025
G1 X84.676 Y150.021 E40.36597
G1 X85.089 Y148.78 E40.43239
G1 X85.126 Y148.67 E40.43829
G1 X85.22 Y147.214 E40.51239
G1 X85.228 Y147.099 E40.51824
G1 X84.938 Y145.597 E40.59594
G1 X84.307 Y144.232 E40.67231
G1 X83.409 Y143.13 E40.74451
G1 X83.336 Y143.04 E40.7504
G1 X82.169 Y142.187 E40.82381
G1 X82.08 Y142.122 E40.82941
G1 X81.978 Y142.081 E40.83499
G1 X80.784 Y141.597 E40.90043
G1 X80.678 Y141.554 E40.90624
G1 X79.157 Y141.35 E40.98418
G1 X77.621 Y141.529 E41.06272
G1 X76.29 Y142.047 E41.13525
G1 X76.184 Y142.088 E41.14103
G1 X76.091 Y142.155 E41.14685
G1 X75.015 Y142.932 E41.21426
G1 X74.924 Y142.998 E41.21997
G1 X74.854 Y143.082 E41.22552
G1 X74.024 Y144.068 E41.29098
G1 X73.949 Y144.157 E41.29689
G1 X73.901 Y144.258 E41.30257
G1 X73.286 Y145.543 E41.37492
G1 X73.009 Y146.937 E41.4471
G1 X72.986 Y147.048 E41.45286
G1 X73.072 Y148.598 E41.5317
G1 X73.106 Y148.705 E41.53741
G1 X73.386 Y149.587 E41.5844
G0 F723.6 X73.536 Y150.063
G0 F3618 X74.359 Y149.68
G1 F1800 E41.6098
G1 F804 X75.017 Y150.718 E41.67222
G1 X75.078 Y150.814 E41.67799
G1 X75.16 Y150.891 E41.68371
G1 X75.945 Y151.629 E41.73843
G1 X76.026 Y151.705 E41.74407
G1 X76.122 Y151.758 E41.74964
G1 X77.047 Y152.276 E41.80348
G1 X77.148 Y152.333 E41.80937
G1 X77.257 Y152.361 E41.81509
G1 X78.3 Y152.637 E41.86988
G1 X78.414 Y152.668 E41.87588
G1 X79.63 Y152.67 E41.93764
G1 X79.742 Y152.671 E41.94333
G1 X80.992 Y152.361 E42.00874
G1 X82.143 Y151.737 E42.07524
G1 X83.02 Y150.927 E42.13587
G1 X83.104 Y150.85 E42.14166
G1 X83.165 Y150.755 E42.14739
G1 X83.761 Y149.832 E42.20319
G1 X83.823 Y149.736 E42.209
G1 X83.858 Y149.628 E42.21476
G1 X84.235 Y148.496 E42.27536
G1 X84.314 Y147.271 E42.3377
G1 X84.322 Y147.156 E42.34356
G1 X84.075 Y145.875 E42.40982
G1 X83.586 Y144.817 E42.46901
G1 X83.538 Y144.713 E42.47483
G1 X82.784 Y143.788 E42.53544
G1 X82.711 Y143.698 E42.54133
G1 X81.73 Y142.981 E42.60304
G1 X81.639 Y142.914 E42.60878
G1 X81.537 Y142.873 E42.61436
G1 X80.553 Y142.475 E42.66827
G1 X80.446 Y142.431 E42.67415
G1 X79.149 Y142.257 E42.74061
G1 X77.84 Y142.41 E42.80754
G1 X76.726 Y142.843 E42.86825
G1 X76.617 Y142.885 E42.87418
G1 X76.524 Y142.952 E42.88
G1 X75.632 Y143.596 E42.93588
G1 X75.541 Y143.662 E42.94159
G1 X75.47 Y143.746 E42.94717
G1 X74.712 Y144.648 E43.00701
G1 X74.664 Y144.749 E43.01269
G1 X74.147 Y145.83 E43.07355
G1 X74.126 Y145.939 E43.07919
G1 X73.914 Y147 E43.13414
G1 X73.891 Y147.112 E43.13995
G1 X73.964 Y148.435 E43.20724
G1 X73.998 Y148.542 E43.21294
G1 X74.208 Y149.204 E43.24822
G0 F723.6 X74.359 Y149.68
G0 F3618 X75.182 Y149.297
G1 F1800 E43.27361
G1 F804 X75.777 Y150.236 E43.33007
G1 X76.562 Y150.974 E43.38479
G1 X77.488 Y151.492 E43.43868
G1 X78.532 Y151.768 E43.49352
G1 X79.633 Y151.771 E43.54944
G1 X80.664 Y151.515 E43.6034
G1 X81.615 Y150.999 E43.65835
G1 X82.41 Y150.266 E43.71327
G1 X83.005 Y149.344 E43.769
G1 X83.344 Y148.322 E43.82369
G1 X83.416 Y147.213 E43.88013
G1 X83.212 Y146.153 E43.93495
G1 X82.769 Y145.194 E43.9886
G1 X82.086 Y144.356 E44.04351
G1 X81.198 Y143.706 E44.0994
G1 X80.214 Y143.308 E44.15331
G1 X79.141 Y143.164 E44.2083
G1 X78.059 Y143.291 E44.26363
G1 X77.05 Y143.682 E44.31858
G1 X76.158 Y144.326 E44.37446
G1 X75.475 Y145.139 E44.42839
G1 X75.008 Y146.117 E44.48343
G1 X74.796 Y147.177 E44.53833
G1 X74.856 Y148.271 E44.59398
G1 X75.031 Y148.821 E44.62329
G0 F723.6 X75.182 Y149.297
G0 F3618 X76.032 Y148.901
;TYPE:WALL-OUTER
G1 F1800 E44.64869
G1 F804 X76.5 Y149.639 E44.69603
G1 X77.116 Y150.218 E44.74183
G1 X77.839 Y150.623 E44.78672
G1 X78.654 Y150.838 E44.83239
G1 X79.521 Y150.841 E44.87936
G1 X80.325 Y150.641 E44.92424
G1 X81.07 Y150.237 E44.97015
G1 X81.693 Y149.662 E45.01608
G1 X82.16 Y148.939 E45.06271
G1 X82.424 Y148.143 E45.10814
G1 X82.48 Y147.272 E45.15543
G1 X82.32 Y146.44 E45.20132
G1 X81.974 Y145.69 E45.24607
G1 X81.441 Y145.036 E45.29178
G1 X80.742 Y144.525 E45.33868
G1 X79.974 Y144.214 E45.38357
G1 X79.133 Y144.101 E45.42954
G1 X78.285 Y144.201 E45.4758
G1 X77.498 Y144.506 E45.52153
G1 X76.796 Y145.013 E45.56844
G1 X76.263 Y145.647 E45.61331
G1 X75.897 Y146.413 E45.6593
G1 X75.731 Y147.244 E45.70521
G1 X75.778 Y148.102 E45.75176
G1 X75.891 Y148.455 E45.77184
G0 F723.6 X76.032 Y148.901
G0 F3618 X76.246 Y149.239
G0 X75.354 Y149.805
G0 X75.747 Y150.261
G0 X76.387 Y150.864
G0 X90.727 Y160.311
;TYPE:WALL-INNER
G1 F1800 E45.79719
G1 F804 X91.508 Y161.538 E45.87106
G1 X91.589 Y161.614 E45.8767
G1 X92.536 Y162.505 E45.94274
G1 X92.617 Y162.582 E45.94842
G1 X92.712 Y162.635 E45.95394
G1 X93.833 Y163.263 E46.0192
G1 X93.932 Y163.319 E46.02498
G1 X95.421 Y163.715 E46.10323
G1 X96.868 Y163.716 E46.17672
G1 X96.979 Y163.717 E46.18236
G1 X98.445 Y163.353 E46.25908
G1 X98.545 Y163.299 E46.26485
G1 X99.797 Y162.623 E46.33711
G1 X100.928 Y161.578 E46.41532
G1 X100.989 Y161.483 E46.42106
G1 X101.706 Y160.37 E46.4883
G1 X101.768 Y160.274 E46.4941
G1 X101.803 Y160.167 E46.49982
G1 X102.253 Y158.817 E46.57209
G1 X102.347 Y157.361 E46.64619
G1 X102.355 Y157.246 E46.65205
G1 X102.065 Y155.747 E46.72959
G1 X102.02 Y155.649 E46.73507
G1 X101.486 Y154.486 E46.80007
G1 X101.438 Y154.381 E46.80593
G1 X101.366 Y154.293 E46.8117
G1 X100.536 Y153.276 E46.87837
G1 X100.463 Y153.186 E46.88426
G1 X100.371 Y153.119 E46.89004
G1 X99.296 Y152.333 E46.95768
G1 X99.207 Y152.268 E46.96327
G1 X99.105 Y152.227 E46.96886
G1 X97.911 Y151.743 E47.03429
G1 X97.805 Y151.7 E47.0401
G1 X97.692 Y151.685 E47.04589
G1 X96.393 Y151.512 E47.11245
G1 X96.281 Y151.497 E47.11819
G1 X94.752 Y151.676 E47.19637
