( Made using CamBam - http://www.cambam.co.uk )
( pcb_esc 3/29/2022 4:39:46 PM )
( T0 : 1.6 )
G21 G90 G40
G0 Z2.0
( T0 : 1.6 )
T0 M6
( 4_holes_mill )
G17
M3 S1000
G0 X55.0 Y86.5
G1 F100.0 Z-0.2
G2 F300.0 X54.25 Y86.067 I-0.5 J0.0
G2 Y86.933 I0.25 J0.433
G2 X55.0 Y86.5 I0.25 J-0.433
G1 F100.0 Z-0.4
G2 F300.0 X54.25 Y86.067 I-0.5 J0.0
G2 Y86.933 I0.25 J0.433
G2 X55.0 Y86.5 I0.25 J-0.433
G1 F100.0 Z-0.6
G2 F300.0 X54.25 Y86.067 I-0.5 J0.0
G2 Y86.933 I0.25 J0.433
G2 X55.0 Y86.5 I0.25 J-0.433
G1 F100.0 Z-0.8
G2 F300.0 X54.25 Y86.067 I-0.5 J0.0
G2 Y86.933 I0.25 J0.433
G2 X55.0 Y86.5 I0.25 J-0.433
G1 F100.0 Z-1.0
G2 F300.0 X54.25 Y86.067 I-0.5 J0.0
G2 Y86.933 I0.25 J0.433
G2 X55.0 Y86.5 I0.25 J-0.433
G1 F100.0 Z-1.2
G2 F300.0 X54.25 Y86.067 I-0.5 J0.0
G2 Y86.933 I0.25 J0.433
G2 X55.0 Y86.5 I0.25 J-0.433
G1 F100.0 Z-1.4
G2 F300.0 X54.25 Y86.067 I-0.5 J0.0
G2 Y86.933 I0.25 J0.433
G2 X55.0 Y86.5 I0.25 J-0.433
G1 F100.0 Z-1.6
G2 F300.0 X54.25 Y86.067 I-0.5 J0.0
G2 Y86.933 I0.25 J0.433
G2 X55.0 Y86.5 I0.25 J-0.433
G1 F100.0 Z-1.8
G2 F300.0 X54.25 Y86.067 I-0.5 J0.0
G2 Y86.933 I0.25 J0.433
G2 X55.0 Y86.5 I0.25 J-0.433
G1 F100.0 Z-2.0
G2 F300.0 X54.25 Y86.067 I-0.5 J0.0
G2 Y86.933 I0.25 J0.433
G2 X55.0 Y86.5 I0.25 J-0.433
G0 Z2.0
G0 X54.562 Y82.9961
G1 F100.0 Z-0.2
G2 F300.0 X55.0 Y82.5 I-0.062 J-0.4961
G2 X54.25 Y82.067 I-0.5 J0.0
G2 Y82.933 I0.25 J0.433
G2 X54.562 Y82.9961 I0.25 J-0.433
G1 F100.0 Z-0.4
G2 F300.0 X55.0 Y82.5 I-0.062 J-0.4961
G2 X54.25 Y82.067 I-0.5 J0.0
G2 Y82.933 I0.25 J0.433
G2 X54.562 Y82.9961 I0.25 J-0.433
G1 F100.0 Z-0.6
G2 F300.0 X55.0 Y82.5 I-0.062 J-0.4961
G2 X54.25 Y82.067 I-0.5 J0.0
G2 Y82.933 I0.25 J0.433
G2 X54.562 Y82.9961 I0.25 J-0.433
G1 F100.0 Z-0.8
G2 F300.0 X55.0 Y82.5 I-0.062 J-0.4961
G2 X54.25 Y82.067 I-0.5 J0.0
G2 Y82.933 I0.25 J0.433
G2 X54.562 Y82.9961 I0.25 J-0.433
G1 F100.0 Z-1.0
G2 F300.0 X55.0 Y82.5 I-0.062 J-0.4961
G2 X54.25 Y82.067 I-0.5 J0.0
G2 Y82.933 I0.25 J0.433
G2 X54.562 Y82.9961 I0.25 J-0.433
G1 F100.0 Z-1.2
G2 F300.0 X55.0 Y82.5 I-0.062 J-0.4961
G2 X54.25 Y82.067 I-0.5 J0.0
G2 Y82.933 I0.25 J0.433
G2 X54.562 Y82.9961 I0.25 J-0.433
G1 F100.0 Z-1.4
G2 F300.0 X55.0 Y82.5 I-0.062 J-0.4961
G2 X54.25 Y82.067 I-0.5 J0.0
G2 Y82.933 I0.25 J0.433
G2 X54.562 Y82.9961 I0.25 J-0.433
G1 F100.0 Z-1.6
G2 F300.0 X55.0 Y82.5 I-0.062 J-0.4961
G2 X54.25 Y82.067 I-0.5 J0.0
G2 Y82.933 I0.25 J0.433
G2 X54.562 Y82.9961 I0.25 J-0.433
G1 F100.0 Z-1.8
G2 F300.0 X55.0 Y82.5 I-0.062 J-0.4961
G2 X54.25 Y82.067 I-0.5 J0.0
G2 Y82.933 I0.25 J0.433
G2 X54.562 Y82.9961 I0.25 J-0.433
G1 F100.0 Z-2.0
G2 F300.0 X55.0 Y82.5 I-0.062 J-0.4961
G2 X54.25 Y82.067 I-0.5 J0.0
G2 Y82.933 I0.25 J0.433
G2 X54.562 Y82.9961 I0.25 J-0.433
G0 Z2.0
G0 X54.5069 Y79.0
G1 F100.0 Z-0.2
G2 F300.0 X55.0 Y78.5 I-0.0069 J-0.5
G2 X54.25 Y78.067 I-0.5 J0.0
G2 Y78.933 I0.25 J0.433
G2 X54.5069 Y79.0 I0.25 J-0.433
G1 F100.0 Z-0.4
G2 F300.0 X55.0 Y78.5 I-0.0069 J-0.5
G2 X54.25 Y78.067 I-0.5 J0.0
G2 Y78.933 I0.25 J0.433
G2 X54.5069 Y79.0 I0.25 J-0.433
G1 F100.0 Z-0.6
G2 F300.0 X55.0 Y78.5 I-0.0069 J-0.5
G2 X54.25 Y78.067 I-0.5 J0.0
G2 Y78.933 I0.25 J0.433
G2 X54.5069 Y79.0 I0.25 J-0.433
G1 F100.0 Z-0.8
G2 F300.0 X55.0 Y78.5 I-0.0069 J-0.5
G2 X54.25 Y78.067 I-0.5 J0.0
G2 Y78.933 I0.25 J0.433
G2 X54.5069 Y79.0 I0.25 J-0.433
G1 F100.0 Z-1.0
G2 F300.0 X55.0 Y78.5 I-0.0069 J-0.5
G2 X54.25 Y78.067 I-0.5 J0.0
G2 Y78.933 I0.25 J0.433
G2 X54.5069 Y79.0 I0.25 J-0.433
G1 F100.0 Z-1.2
G2 F300.0 X55.0 Y78.5 I-0.0069 J-0.5
G2 X54.25 Y78.067 I-0.5 J0.0
G2 Y78.933 I0.25 J0.433
G2 X54.5069 Y79.0 I0.25 J-0.433
G1 F100.0 Z-1.4
G2 F300.0 X55.0 Y78.5 I-0.0069 J-0.5
G2 X54.25 Y78.067 I-0.5 J0.0
G2 Y78.933 I0.25 J0.433
G2 X54.5069 Y79.0 I0.25 J-0.433
G1 F100.0 Z-1.6
G2 F300.0 X55.0 Y78.5 I-0.0069 J-0.5
G2 X54.25 Y78.067 I-0.5 J0.0
G2 Y78.933 I0.25 J0.433
G2 X54.5069 Y79.0 I0.25 J-0.433
G1 F100.0 Z-1.8
G2 F300.0 X55.0 Y78.5 I-0.0069 J-0.5
G2 X54.25 Y78.067 I-0.5 J0.0
G2 Y78.933 I0.25 J0.433
G2 X54.5069 Y79.0 I0.25 J-0.433
G1 F100.0 Z-2.0
G2 F300.0 X55.0 Y78.5 I-0.0069 J-0.5
G2 X54.25 Y78.067 I-0.5 J0.0
G2 Y78.933 I0.25 J0.433
G2 X54.5069 Y79.0 I0.25 J-0.433
G0 Z2.0
G0 X54.5006 Y74.0
G1 F100.0 Z-0.2
G2 F300.0 X55.0 Y73.5 I-0.0006 J-0.5
G2 X54.25 Y73.067 I-0.5 J0.0
G2 Y73.933 I0.25 J0.433
G2 X54.5006 Y74.0 I0.25 J-0.433
G1 F100.0 Z-0.4
G2 F300.0 X55.0 Y73.5 I-0.0006 J-0.5
G2 X54.25 Y73.067 I-0.5 J0.0
G2 Y73.933 I0.25 J0.433
G2 X54.5006 Y74.0 I0.25 J-0.433
G1 F100.0 Z-0.6
G2 F300.0 X55.0 Y73.5 I-0.0006 J-0.5
G2 X54.25 Y73.067 I-0.5 J0.0
G2 Y73.933 I0.25 J0.433
G2 X54.5006 Y74.0 I0.25 J-0.433
G1 F100.0 Z-0.8
G2 F300.0 X55.0 Y73.5 I-0.0006 J-0.5
G2 X54.25 Y73.067 I-0.5 J0.0
G2 Y73.933 I0.25 J0.433
G2 X54.5006 Y74.0 I0.25 J-0.433
G1 F100.0 Z-1.0
G2 F300.0 X55.0 Y73.5 I-0.0006 J-0.5
G2 X54.25 Y73.067 I-0.5 J0.0
G2 Y73.933 I0.25 J0.433
G2 X54.5006 Y74.0 I0.25 J-0.433
G1 F100.0 Z-1.2
G2 F300.0 X55.0 Y73.5 I-0.0006 J-0.5
G2 X54.25 Y73.067 I-0.5 J0.0
G2 Y73.933 I0.25 J0.433
G2 X54.5006 Y74.0 I0.25 J-0.433
G1 F100.0 Z-1.4
G2 F300.0 X55.0 Y73.5 I-0.0006 J-0.5
G2 X54.25 Y73.067 I-0.5 J0.0
G2 Y73.933 I0.25 J0.433
G2 X54.5006 Y74.0 I0.25 J-0.433
G1 F100.0 Z-1.6
G2 F300.0 X55.0 Y73.5 I-0.0006 J-0.5
G2 X54.25 Y73.067 I-0.5 J0.0
G2 Y73.933 I0.25 J0.433
G2 X54.5006 Y74.0 I0.25 J-0.433
G1 F100.0 Z-1.8
G2 F300.0 X55.0 Y73.5 I-0.0006 J-0.5
G2 X54.25 Y73.067 I-0.5 J0.0
G2 Y73.933 I0.25 J0.433
G2 X54.5006 Y74.0 I0.25 J-0.433
G1 F100.0 Z-2.0
G2 F300.0 X55.0 Y73.5 I-0.0006 J-0.5
G2 X54.25 Y73.067 I-0.5 J0.0
G2 Y73.933 I0.25 J0.433
G2 X54.5006 Y74.0 I0.25 J-0.433
G0 Z2.0
G0 X54.5001 Y70.0
G1 F100.0 Z-0.2
G2 F300.0 X55.0 Y69.5 I-0.0001 J-0.5
G2 X54.25 Y69.067 I-0.5 J0.0
G2 Y69.933 I0.25 J0.433
G2 X54.5001 Y70.0 I0.25 J-0.433
G1 F100.0 Z-0.4
G2 F300.0 X55.0 Y69.5 I-0.0001 J-0.5
G2 X54.25 Y69.067 I-0.5 J0.0
G2 Y69.933 I0.25 J0.433
G2 X54.5001 Y70.0 I0.25 J-0.433
G1 F100.0 Z-0.6
G2 F300.0 X55.0 Y69.5 I-0.0001 J-0.5
G2 X54.25 Y69.067 I-0.5 J0.0
G2 Y69.933 I0.25 J0.433
G2 X54.5001 Y70.0 I0.25 J-0.433
G1 F100.0 Z-0.8
G2 F300.0 X55.0 Y69.5 I-0.0001 J-0.5
G2 X54.25 Y69.067 I-0.5 J0.0
G2 Y69.933 I0.25 J0.433
G2 X54.5001 Y70.0 I0.25 J-0.433
G1 F100.0 Z-1.0
G2 F300.0 X55.0 Y69.5 I-0.0001 J-0.5
G2 X54.25 Y69.067 I-0.5 J0.0
G2 Y69.933 I0.25 J0.433
G2 X54.5001 Y70.0 I0.25 J-0.433
G1 F100.0 Z-1.2
G2 F300.0 X55.0 Y69.5 I-0.0001 J-0.5
G2 X54.25 Y69.067 I-0.5 J0.0
G2 Y69.933 I0.25 J0.433
G2 X54.5001 Y70.0 I0.25 J-0.433
G1 F100.0 Z-1.4
G2 F300.0 X55.0 Y69.5 I-0.0001 J-0.5
G2 X54.25 Y69.067 I-0.5 J0.0
G2 Y69.933 I0.25 J0.433
G2 X54.5001 Y70.0 I0.25 J-0.433
G1 F100.0 Z-1.6
G2 F300.0 X55.0 Y69.5 I-0.0001 J-0.5
G2 X54.25 Y69.067 I-0.5 J0.0
G2 Y69.933 I0.25 J0.433
G2 X54.5001 Y70.0 I0.25 J-0.433
G1 F100.0 Z-1.8
G2 F300.0 X55.0 Y69.5 I-0.0001 J-0.5
G2 X54.25 Y69.067 I-0.5 J0.0
G2 Y69.933 I0.25 J0.433
G2 X54.5001 Y70.0 I0.25 J-0.433
G1 F100.0 Z-2.0
G2 F300.0 X55.0 Y69.5 I-0.0001 J-0.5
G2 X54.25 Y69.067 I-0.5 J0.0
G2 Y69.933 I0.25 J0.433
G2 X54.5001 Y70.0 I0.25 J-0.433
G0 Z2.0
G0 X54.5 Y66.0
G1 F100.0 Z-0.2
G2 F300.0 X55.0 Y65.5 I0.0 J-0.5
G2 X54.25 Y65.067 I-0.5 J0.0
G2 Y65.933 I0.25 J0.433
G2 X54.5 Y66.0 I0.25 J-0.433
G1 F100.0 Z-0.4
G2 F300.0 X55.0 Y65.5 I0.0 J-0.5
G2 X54.25 Y65.067 I-0.5 J0.0
G2 Y65.933 I0.25 J0.433
G2 X54.5 Y66.0 I0.25 J-0.433
G1 F100.0 Z-0.6
G2 F300.0 X55.0 Y65.5 I0.0 J-0.5
G2 X54.25 Y65.067 I-0.5 J0.0
G2 Y65.933 I0.25 J0.433
G2 X54.5 Y66.0 I0.25 J-0.433
G1 F100.0 Z-0.8
G2 F300.0 X55.0 Y65.5 I0.0 J-0.5
G2 X54.25 Y65.067 I-0.5 J0.0
G2 Y65.933 I0.25 J0.433
G2 X54.5 Y66.0 I0.25 J-0.433
G1 F100.0 Z-1.0
G2 F300.0 X55.0 Y65.5 I0.0 J-0.5
G2 X54.25 Y65.067 I-0.5 J0.0
G2 Y65.933 I0.25 J0.433
G2 X54.5 Y66.0 I0.25 J-0.433
G1 F100.0 Z-1.2
G2 F300.0 X55.0 Y65.5 I0.0 J-0.5
G2 X54.25 Y65.067 I-0.5 J0.0
G2 Y65.933 I0.25 J0.433
G2 X54.5 Y66.0 I0.25 J-0.433
G1 F100.0 Z-1.4
G2 F300.0 X55.0 Y65.5 I0.0 J-0.5
G2 X54.25 Y65.067 I-0.5 J0.0
G2 Y65.933 I0.25 J0.433
G2 X54.5 Y66.0 I0.25 J-0.433
G1 F100.0 Z-1.6
G2 F300.0 X55.0 Y65.5 I0.0 J-0.5
G2 X54.25 Y65.067 I-0.5 J0.0
G2 Y65.933 I0.25 J0.433
G2 X54.5 Y66.0 I0.25 J-0.433
G1 F100.0 Z-1.8
G2 F300.0 X55.0 Y65.5 I0.0 J-0.5
G2 X54.25 Y65.067 I-0.5 J0.0
G2 Y65.933 I0.25 J0.433
G2 X54.5 Y66.0 I0.25 J-0.433
G1 F100.0 Z-2.0
G2 F300.0 X55.0 Y65.5 I0.0 J-0.5
G2 X54.25 Y65.067 I-0.5 J0.0
G2 Y65.933 I0.25 J0.433
G2 X54.5 Y66.0 I0.25 J-0.433
G0 Z2.0
G0 X59.8755 Y55.6969
G1 F100.0 Z-0.2
G2 F300.0 X61.85 Y54.5 I0.6245 J-1.1969
G2 X59.825 Y53.3309 I-1.35 J0.0
G2 Y55.6691 I0.675 J1.1691
G2 X59.8755 Y55.6969 I0.675 J-1.1691
G1 F100.0 Z-0.4
G2 F300.0 X61.85 Y54.5 I0.6245 J-1.1969
G2 X59.825 Y53.3309 I-1.35 J0.0
G2 Y55.6691 I0.675 J1.1691
G2 X59.8755 Y55.6969 I0.675 J-1.1691
G1 F100.0 Z-0.6
G2 F300.0 X61.85 Y54.5 I0.6245 J-1.1969
G2 X59.825 Y53.3309 I-1.35 J0.0
G2 Y55.6691 I0.675 J1.1691
G2 X59.8755 Y55.6969 I0.675 J-1.1691
G1 F100.0 Z-0.8
G2 F300.0 X61.85 Y54.5 I0.6245 J-1.1969
G2 X59.825 Y53.3309 I-1.35 J0.0
G2 Y55.6691 I0.675 J1.1691
G2 X59.8755 Y55.6969 I0.675 J-1.1691
G1 F100.0 Z-1.0
G2 F300.0 X61.85 Y54.5 I0.6245 J-1.1969
G2 X59.825 Y53.3309 I-1.35 J0.0
G2 Y55.6691 I0.675 J1.1691
G2 X59.8755 Y55.6969 I0.675 J-1.1691
G1 F100.0 Z-1.2
G2 F300.0 X61.85 Y54.5 I0.6245 J-1.1969
G2 X59.825 Y53.3309 I-1.35 J0.0
G2 Y55.6691 I0.675 J1.1691
G2 X59.8755 Y55.6969 I0.675 J-1.1691
G1 F100.0 Z-1.4
G2 F300.0 X61.85 Y54.5 I0.6245 J-1.1969
G2 X59.825 Y53.3309 I-1.35 J0.0
G2 Y55.6691 I0.675 J1.1691
G2 X59.8755 Y55.6969 I0.675 J-1.1691
G1 F100.0 Z-1.6
G2 F300.0 X61.85 Y54.5 I0.6245 J-1.1969
G2 X59.825 Y53.3309 I-1.35 J0.0
G2 Y55.6691 I0.675 J1.1691
G2 X59.8755 Y55.6969 I0.675 J-1.1691
G1 F100.0 Z-1.8
G2 F300.0 X61.85 Y54.5 I0.6245 J-1.1969
G2 X59.825 Y53.3309 I-1.35 J0.0
G2 Y55.6691 I0.675 J1.1691
G2 X59.8755 Y55.6969 I0.675 J-1.1691
G1 F100.0 Z-2.0
G2 F300.0 X61.85 Y54.5 I0.6245 J-1.1969
G2 X59.825 Y53.3309 I-1.35 J0.0
G2 Y55.6691 I0.675 J1.1691
G2 X59.8755 Y55.6969 I0.675 J-1.1691
G0 Z2.0
G0 X60.3975 Y48.8461
G1 F100.0 Z-0.2
G2 F300.0 X61.85 Y47.5 I0.1025 J-1.3461
G2 X59.825 Y46.3309 I-1.35 J0.0
G2 Y48.6691 I0.675 J1.1691
G2 X60.3975 Y48.8461 I0.675 J-1.1691
G1 F100.0 Z-0.4
G2 F300.0 X61.85 Y47.5 I0.1025 J-1.3461
G2 X59.825 Y46.3309 I-1.35 J0.0
G2 Y48.6691 I0.675 J1.1691
G2 X60.3975 Y48.8461 I0.675 J-1.1691
G1 F100.0 Z-0.6
G2 F300.0 X61.85 Y47.5 I0.1025 J-1.3461
G2 X59.825 Y46.3309 I-1.35 J0.0
G2 Y48.6691 I0.675 J1.1691
G2 X60.3975 Y48.8461 I0.675 J-1.1691
G1 F100.0 Z-0.8
G2 F300.0 X61.85 Y47.5 I0.1025 J-1.3461
G2 X59.825 Y46.3309 I-1.35 J0.0
G2 Y48.6691 I0.675 J1.1691
G2 X60.3975 Y48.8461 I0.675 J-1.1691
G1 F100.0 Z-1.0
G2 F300.0 X61.85 Y47.5 I0.1025 J-1.3461
G2 X59.825 Y46.3309 I-1.35 J0.0
G2 Y48.6691 I0.675 J1.1691
G2 X60.3975 Y48.8461 I0.675 J-1.1691
G1 F100.0 Z-1.2
G2 F300.0 X61.85 Y47.5 I0.1025 J-1.3461
G2 X59.825 Y46.3309 I-1.35 J0.0
G2 Y48.6691 I0.675 J1.1691
G2 X60.3975 Y48.8461 I0.675 J-1.1691
G1 F100.0 Z-1.4
G2 F300.0 X61.85 Y47.5 I0.1025 J-1.3461
G2 X59.825 Y46.3309 I-1.35 J0.0
G2 Y48.6691 I0.675 J1.1691
G2 X60.3975 Y48.8461 I0.675 J-1.1691
G1 F100.0 Z-1.6
G2 F300.0 X61.85 Y47.5 I0.1025 J-1.3461
G2 X59.825 Y46.3309 I-1.35 J0.0
G2 Y48.6691 I0.675 J1.1691
G2 X60.3975 Y48.8461 I0.675 J-1.1691
G1 F100.0 Z-1.8
G2 F300.0 X61.85 Y47.5 I0.1025 J-1.3461
G2 X59.825 Y46.3309 I-1.35 J0.0
G2 Y48.6691 I0.675 J1.1691
G2 X60.3975 Y48.8461 I0.675 J-1.1691
G1 F100.0 Z-2.0
G2 F300.0 X61.85 Y47.5 I0.1025 J-1.3461
G2 X59.825 Y46.3309 I-1.35 J0.0
G2 Y48.6691 I0.675 J1.1691
G2 X60.3975 Y48.8461 I0.675 J-1.1691
G0 Z2.0
G0 X54.7155 Y36.9512
G1 F100.0 Z-0.2
G2 F300.0 X55.0 Y36.5 I-0.2155 J-0.4512
G2 X54.25 Y36.067 I-0.5 J0.0
G2 Y36.933 I0.25 J0.433
G2 X54.7155 Y36.9512 I0.25 J-0.433
G1 F100.0 Z-0.4
G2 F300.0 X55.0 Y36.5 I-0.2155 J-0.4512
G2 X54.25 Y36.067 I-0.5 J0.0
G2 Y36.933 I0.25 J0.433
G2 X54.7155 Y36.9512 I0.25 J-0.433
G1 F100.0 Z-0.6
G2 F300.0 X55.0 Y36.5 I-0.2155 J-0.4512
G2 X54.25 Y36.067 I-0.5 J0.0
G2 Y36.933 I0.25 J0.433
G2 X54.7155 Y36.9512 I0.25 J-0.433
G1 F100.0 Z-0.8
G2 F300.0 X55.0 Y36.5 I-0.2155 J-0.4512
G2 X54.25 Y36.067 I-0.5 J0.0
G2 Y36.933 I0.25 J0.433
G2 X54.7155 Y36.9512 I0.25 J-0.433
G1 F100.0 Z-1.0
G2 F300.0 X55.0 Y36.5 I-0.2155 J-0.4512
G2 X54.25 Y36.067 I-0.5 J0.0
G2 Y36.933 I0.25 J0.433
G2 X54.7155 Y36.9512 I0.25 J-0.433
G1 F100.0 Z-1.2
G2 F300.0 X55.0 Y36.5 I-0.2155 J-0.4512
G2 X54.25 Y36.067 I-0.5 J0.0
G2 Y36.933 I0.25 J0.433
G2 X54.7155 Y36.9512 I0.25 J-0.433
G1 F100.0 Z-1.4
G2 F300.0 X55.0 Y36.5 I-0.2155 J-0.4512
G2 X54.25 Y36.067 I-0.5 J0.0
G2 Y36.933 I0.25 J0.433
G2 X54.7155 Y36.9512 I0.25 J-0.433
G1 F100.0 Z-1.6
G2 F300.0 X55.0 Y36.5 I-0.2155 J-0.4512
G2 X54.25 Y36.067 I-0.5 J0.0
G2 Y36.933 I0.25 J0.433
G2 X54.7155 Y36.9512 I0.25 J-0.433
G1 F100.0 Z-1.8
G2 F300.0 X55.0 Y36.5 I-0.2155 J-0.4512
G2 X54.25 Y36.067 I-0.5 J0.0
G2 Y36.933 I0.25 J0.433
G2 X54.7155 Y36.9512 I0.25 J-0.433
G1 F100.0 Z-2.0
G2 F300.0 X55.0 Y36.5 I-0.2155 J-0.4512
G2 X54.25 Y36.067 I-0.5 J0.0
G2 Y36.933 I0.25 J0.433
G2 X54.7155 Y36.9512 I0.25 J-0.433
G0 Z2.0
G0 X54.5242 Y32.9994
G1 F100.0 Z-0.2
G2 F300.0 X55.0 Y32.5 I-0.0242 J-0.4994
G2 X54.25 Y32.067 I-0.5 J0.0
G2 Y32.933 I0.25 J0.433
G2 X54.5242 Y32.9994 I0.25 J-0.433
G1 F100.0 Z-0.4
G2 F300.0 X55.0 Y32.5 I-0.0242 J-0.4994
G2 X54.25 Y32.067 I-0.5 J0.0
G2 Y32.933 I0.25 J0.433
G2 X54.5242 Y32.9994 I0.25 J-0.433
G1 F100.0 Z-0.6
G2 F300.0 X55.0 Y32.5 I-0.0242 J-0.4994
G2 X54.25 Y32.067 I-0.5 J0.0
G2 Y32.933 I0.25 J0.433
G2 X54.5242 Y32.9994 I0.25 J-0.433
G1 F100.0 Z-0.8
G2 F300.0 X55.0 Y32.5 I-0.0242 J-0.4994
G2 X54.25 Y32.067 I-0.5 J0.0
G2 Y32.933 I0.25 J0.433
G2 X54.5242 Y32.9994 I0.25 J-0.433
G1 F100.0 Z-1.0
G2 F300.0 X55.0 Y32.5 I-0.0242 J-0.4994
G2 X54.25 Y32.067 I-0.5 J0.0
G2 Y32.933 I0.25 J0.433
G2 X54.5242 Y32.9994 I0.25 J-0.433
G1 F100.0 Z-1.2
G2 F300.0 X55.0 Y32.5 I-0.0242 J-0.4994
G2 X54.25 Y32.067 I-0.5 J0.0
G2 Y32.933 I0.25 J0.433
G2 X54.5242 Y32.9994 I0.25 J-0.433
G1 F100.0 Z-1.4
G2 F300.0 X55.0 Y32.5 I-0.0242 J-0.4994
G2 X54.25 Y32.067 I-0.5 J0.0
G2 Y32.933 I0.25 J0.433
G2 X54.5242 Y32.9994 I0.25 J-0.433
G1 F100.0 Z-1.6
G2 F300.0 X55.0 Y32.5 I-0.0242 J-0.4994
G2 X54.25 Y32.067 I-0.5 J0.0
G2 Y32.933 I0.25 J0.433
G2 X54.5242 Y32.9994 I0.25 J-0.433
G1 F100.0 Z-1.8
G2 F300.0 X55.0 Y32.5 I-0.0242 J-0.4994
G2 X54.25 Y32.067 I-0.5 J0.0
G2 Y32.933 I0.25 J0.433
G2 X54.5242 Y32.9994 I0.25 J-0.433
G1 F100.0 Z-2.0
G2 F300.0 X55.0 Y32.5 I-0.0242 J-0.4994
G2 X54.25 Y32.067 I-0.5 J0.0
G2 Y32.933 I0.25 J0.433
G2 X54.5242 Y32.9994 I0.25 J-0.433
G0 Z2.0
G0 X54.5027 Y29.0
G1 F100.0 Z-0.2
G2 F300.0 X55.0 Y28.5 I-0.0027 J-0.5
G2 X54.25 Y28.067 I-0.5 J0.0
G2 Y28.933 I0.25 J0.433
G2 X54.5027 Y29.0 I0.25 J-0.433
G1 F100.0 Z-0.4
G2 F300.0 X55.0 Y28.5 I-0.0027 J-0.5
G2 X54.25 Y28.067 I-0.5 J0.0
G2 Y28.933 I0.25 J0.433
G2 X54.5027 Y29.0 I0.25 J-0.433
G1 F100.0 Z-0.6
G2 F300.0 X55.0 Y28.5 I-0.0027 J-0.5
G2 X54.25 Y28.067 I-0.5 J0.0
G2 Y28.933 I0.25 J0.433
G2 X54.5027 Y29.0 I0.25 J-0.433
G1 F100.0 Z-0.8
G2 F300.0 X55.0 Y28.5 I-0.0027 J-0.5
G2 X54.25 Y28.067 I-0.5 J0.0
G2 Y28.933 I0.25 J0.433
G2 X54.5027 Y29.0 I0.25 J-0.433
G1 F100.0 Z-1.0
G2 F300.0 X55.0 Y28.5 I-0.0027 J-0.5
G2 X54.25 Y28.067 I-0.5 J0.0
G2 Y28.933 I0.25 J0.433
G2 X54.5027 Y29.0 I0.25 J-0.433
G1 F100.0 Z-1.2
G2 F300.0 X55.0 Y28.5 I-0.0027 J-0.5
G2 X54.25 Y28.067 I-0.5 J0.0
G2 Y28.933 I0.25 J0.433
G2 X54.5027 Y29.0 I0.25 J-0.433
G1 F100.0 Z-1.4
G2 F300.0 X55.0 Y28.5 I-0.0027 J-0.5
G2 X54.25 Y28.067 I-0.5 J0.0
G2 Y28.933 I0.25 J0.433
G2 X54.5027 Y29.0 I0.25 J-0.433
G1 F100.0 Z-1.6
G2 F300.0 X55.0 Y28.5 I-0.0027 J-0.5
G2 X54.25 Y28.067 I-0.5 J0.0
G2 Y28.933 I0.25 J0.433
G2 X54.5027 Y29.0 I0.25 J-0.433
G1 F100.0 Z-1.8
G2 F300.0 X55.0 Y28.5 I-0.0027 J-0.5
G2 X54.25 Y28.067 I-0.5 J0.0
G2 Y28.933 I0.25 J0.433
G2 X54.5027 Y29.0 I0.25 J-0.433
G1 F100.0 Z-2.0
G2 F300.0 X55.0 Y28.5 I-0.0027 J-0.5
G2 X54.25 Y28.067 I-0.5 J0.0
G2 Y28.933 I0.25 J0.433
G2 X54.5027 Y29.0 I0.25 J-0.433
G0 Z2.0
G0 X54.5002 Y24.0
G1 F100.0 Z-0.2
G2 F300.0 X55.0 Y23.5 I-0.0002 J-0.5
G2 X54.25 Y23.067 I-0.5 J0.0
G2 Y23.933 I0.25 J0.433
G2 X54.5002 Y24.0 I0.25 J-0.433
G1 F100.0 Z-0.4
G2 F300.0 X55.0 Y23.5 I-0.0002 J-0.5
G2 X54.25 Y23.067 I-0.5 J0.0
G2 Y23.933 I0.25 J0.433
G2 X54.5002 Y24.0 I0.25 J-0.433
G1 F100.0 Z-0.6
G2 F300.0 X55.0 Y23.5 I-0.0002 J-0.5
G2 X54.25 Y23.067 I-0.5 J0.0
G2 Y23.933 I0.25 J0.433
G2 X54.5002 Y24.0 I0.25 J-0.433
G1 F100.0 Z-0.8
G2 F300.0 X55.0 Y23.5 I-0.0002 J-0.5
G2 X54.25 Y23.067 I-0.5 J0.0
G2 Y23.933 I0.25 J0.433
G2 X54.5002 Y24.0 I0.25 J-0.433
G1 F100.0 Z-1.0
G2 F300.0 X55.0 Y23.5 I-0.0002 J-0.5
G2 X54.25 Y23.067 I-0.5 J0.0
G2 Y23.933 I0.25 J0.433
G2 X54.5002 Y24.0 I0.25 J-0.433
G1 F100.0 Z-1.2
G2 F300.0 X55.0 Y23.5 I-0.0002 J-0.5
G2 X54.25 Y23.067 I-0.5 J0.0
G2 Y23.933 I0.25 J0.433
G2 X54.5002 Y24.0 I0.25 J-0.433
G1 F100.0 Z-1.4
G2 F300.0 X55.0 Y23.5 I-0.0002 J-0.5
G2 X54.25 Y23.067 I-0.5 J0.0
G2 Y23.933 I0.25 J0.433
G2 X54.5002 Y24.0 I0.25 J-0.433
G1 F100.0 Z-1.6
G2 F300.0 X55.0 Y23.5 I-0.0002 J-0.5
G2 X54.25 Y23.067 I-0.5 J0.0
G2 Y23.933 I0.25 J0.433
G2 X54.5002 Y24.0 I0.25 J-0.433
G1 F100.0 Z-1.8
G2 F300.0 X55.0 Y23.5 I-0.0002 J-0.5
G2 X54.25 Y23.067 I-0.5 J0.0
G2 Y23.933 I0.25 J0.433
G2 X54.5002 Y24.0 I0.25 J-0.433
G1 F100.0 Z-2.0
G2 F300.0 X55.0 Y23.5 I-0.0002 J-0.5
G2 X54.25 Y23.067 I-0.5 J0.0
G2 Y23.933 I0.25 J0.433
G2 X54.5002 Y24.0 I0.25 J-0.433
G0 Z2.0
G0 X54.5 Y20.0
G1 F100.0 Z-0.2
G2 F300.0 X55.0 Y19.5 I0.0 J-0.5
G2 X54.25 Y19.067 I-0.5 J0.0
G2 Y19.933 I0.25 J0.433
G2 X54.5 Y20.0 I0.25 J-0.433
G1 F100.0 Z-0.4
G2 F300.0 X55.0 Y19.5 I0.0 J-0.5
G2 X54.25 Y19.067 I-0.5 J0.0
G2 Y19.933 I0.25 J0.433
G2 X54.5 Y20.0 I0.25 J-0.433
G1 F100.0 Z-0.6
G2 F300.0 X55.0 Y19.5 I0.0 J-0.5
G2 X54.25 Y19.067 I-0.5 J0.0
G2 Y19.933 I0.25 J0.433
G2 X54.5 Y20.0 I0.25 J-0.433
G1 F100.0 Z-0.8
G2 F300.0 X55.0 Y19.5 I0.0 J-0.5
G2 X54.25 Y19.067 I-0.5 J0.0
G2 Y19.933 I0.25 J0.433
G2 X54.5 Y20.0 I0.25 J-0.433
G1 F100.0 Z-1.0
G2 F300.0 X55.0 Y19.5 I0.0 J-0.5
G2 X54.25 Y19.067 I-0.5 J0.0
G2 Y19.933 I0.25 J0.433
G2 X54.5 Y20.0 I0.25 J-0.433
G1 F100.0 Z-1.2
G2 F300.0 X55.0 Y19.5 I0.0 J-0.5
G2 X54.25 Y19.067 I-0.5 J0.0
G2 Y19.933 I0.25 J0.433
G2 X54.5 Y20.0 I0.25 J-0.433
G1 F100.0 Z-1.4
G2 F300.0 X55.0 Y19.5 I0.0 J-0.5
G2 X54.25 Y19.067 I-0.5 J0.0
G2 Y19.933 I0.25 J0.433
G2 X54.5 Y20.0 I0.25 J-0.433
G1 F100.0 Z-1.6
G2 F300.0 X55.0 Y19.5 I0.0 J-0.5
G2 X54.25 Y19.067 I-0.5 J0.0
G2 Y19.933 I0.25 J0.433
G2 X54.5 Y20.0 I0.25 J-0.433
G1 F100.0 Z-1.8
G2 F300.0 X55.0 Y19.5 I0.0 J-0.5
G2 X54.25 Y19.067 I-0.5 J0.0
G2 Y19.933 I0.25 J0.433
G2 X54.5 Y20.0 I0.25 J-0.433
G1 F100.0 Z-2.0
G2 F300.0 X55.0 Y19.5 I0.0 J-0.5
G2 X54.25 Y19.067 I-0.5 J0.0
G2 Y19.933 I0.25 J0.433
G2 X54.5 Y20.0 I0.25 J-0.433
G0 Z2.0
G0 Y16.0
G1 F100.0 Z-0.2
G2 F300.0 X55.0 Y15.5 I0.0 J-0.5
G2 X54.25 Y15.067 I-0.5 J0.0
G2 Y15.933 I0.25 J0.433
G2 X54.5 Y16.0 I0.25 J-0.433
G1 F100.0 Z-0.4
G2 F300.0 X55.0 Y15.5 I0.0 J-0.5
G2 X54.25 Y15.067 I-0.5 J0.0
G2 Y15.933 I0.25 J0.433
G2 X54.5 Y16.0 I0.25 J-0.433
G1 F100.0 Z-0.6
G2 F300.0 X55.0 Y15.5 I0.0 J-0.5
G2 X54.25 Y15.067 I-0.5 J0.0
G2 Y15.933 I0.25 J0.433
G2 X54.5 Y16.0 I0.25 J-0.433
G1 F100.0 Z-0.8
G2 F300.0 X55.0 Y15.5 I0.0 J-0.5
G2 X54.25 Y15.067 I-0.5 J0.0
G2 Y15.933 I0.25 J0.433
G2 X54.5 Y16.0 I0.25 J-0.433
G1 F100.0 Z-1.0
G2 F300.0 X55.0 Y15.5 I0.0 J-0.5
G2 X54.25 Y15.067 I-0.5 J0.0
G2 Y15.933 I0.25 J0.433
G2 X54.5 Y16.0 I0.25 J-0.433
G1 F100.0 Z-1.2
G2 F300.0 X55.0 Y15.5 I0.0 J-0.5
G2 X54.25 Y15.067 I-0.5 J0.0
G2 Y15.933 I0.25 J0.433
G2 X54.5 Y16.0 I0.25 J-0.433
G1 F100.0 Z-1.4
G2 F300.0 X55.0 Y15.5 I0.0 J-0.5
G2 X54.25 Y15.067 I-0.5 J0.0
G2 Y15.933 I0.25 J0.433
G2 X54.5 Y16.0 I0.25 J-0.433
G1 F100.0 Z-1.6
G2 F300.0 X55.0 Y15.5 I0.0 J-0.5
G2 X54.25 Y15.067 I-0.5 J0.0
G2 Y15.933 I0.25 J0.433
G2 X54.5 Y16.0 I0.25 J-0.433
G1 F100.0 Z-1.8
G2 F300.0 X55.0 Y15.5 I0.0 J-0.5
G2 X54.25 Y15.067 I-0.5 J0.0
G2 Y15.933 I0.25 J0.433
G2 X54.5 Y16.0 I0.25 J-0.433
G1 F100.0 Z-2.0
G2 F300.0 X55.0 Y15.5 I0.0 J-0.5
G2 X54.25 Y15.067 I-0.5 J0.0
G2 Y15.933 I0.25 J0.433
G2 X54.5 Y16.0 I0.25 J-0.433
G0 Z2.0
G0 X42.1819 Y47.5343
G1 F100.0 Z-0.2
G2 F300.0 X41.75 Y47.567 I-0.1819 J0.4657
G2 Y48.433 I0.25 J0.433
G2 X42.5 Y48.0 I0.25 J-0.433
G2 X42.1819 Y47.5343 I-0.5 J0.0
G1 F100.0 Z-0.4
G2 F300.0 X41.75 Y47.567 I-0.1819 J0.4657
G2 Y48.433 I0.25 J0.433
G2 X42.5 Y48.0 I0.25 J-0.433
G2 X42.1819 Y47.5343 I-0.5 J0.0
G1 F100.0 Z-0.6
G2 F300.0 X41.75 Y47.567 I-0.1819 J0.4657
G2 Y48.433 I0.25 J0.433
G2 X42.5 Y48.0 I0.25 J-0.433
G2 X42.1819 Y47.5343 I-0.5 J0.0
G1 F100.0 Z-0.8
G2 F300.0 X41.75 Y47.567 I-0.1819 J0.4657
G2 Y48.433 I0.25 J0.433
G2 X42.5 Y48.0 I0.25 J-0.433
G2 X42.1819 Y47.5343 I-0.5 J0.0
G1 F100.0 Z-1.0
G2 F300.0 X41.75 Y47.567 I-0.1819 J0.4657
G2 Y48.433 I0.25 J0.433
G2 X42.5 Y48.0 I0.25 J-0.433
G2 X42.1819 Y47.5343 I-0.5 J0.0
G1 F100.0 Z-1.2
G2 F300.0 X41.75 Y47.567 I-0.1819 J0.4657
G2 Y48.433 I0.25 J0.433
G2 X42.5 Y48.0 I0.25 J-0.433
G2 X42.1819 Y47.5343 I-0.5 J0.0
G1 F100.0 Z-1.4
G2 F300.0 X41.75 Y47.567 I-0.1819 J0.4657
G2 Y48.433 I0.25 J0.433
G2 X42.5 Y48.0 I0.25 J-0.433
G2 X42.1819 Y47.5343 I-0.5 J0.0
G1 F100.0 Z-1.6
G2 F300.0 X41.75 Y47.567 I-0.1819 J0.4657
G2 Y48.433 I0.25 J0.433
G2 X42.5 Y48.0 I0.25 J-0.433
G2 X42.1819 Y47.5343 I-0.5 J0.0
G1 F100.0 Z-1.8
G2 F300.0 X41.75 Y47.567 I-0.1819 J0.4657
G2 Y48.433 I0.25 J0.433
G2 X42.5 Y48.0 I0.25 J-0.433
G2 X42.1819 Y47.5343 I-0.5 J0.0
G1 F100.0 Z-2.0
G2 F300.0 X41.75 Y47.567 I-0.1819 J0.4657
G2 Y48.433 I0.25 J0.433
G2 X42.5 Y48.0 I0.25 J-0.433
G2 X42.1819 Y47.5343 I-0.5 J0.0
G0 Z2.0
G0 X42.0141 Y53.5002
G1 F100.0 Z-0.2
G2 F300.0 X41.75 Y53.567 I-0.0141 J0.4998
G2 Y54.433 I0.25 J0.433
G2 X42.5 Y54.0 I0.25 J-0.433
G2 X42.0141 Y53.5002 I-0.5 J0.0
G1 F100.0 Z-0.4
G2 F300.0 X41.75 Y53.567 I-0.0141 J0.4998
G2 Y54.433 I0.25 J0.433
G2 X42.5 Y54.0 I0.25 J-0.433
G2 X42.0141 Y53.5002 I-0.5 J0.0
G1 F100.0 Z-0.6
G2 F300.0 X41.75 Y53.567 I-0.0141 J0.4998
G2 Y54.433 I0.25 J0.433
G2 X42.5 Y54.0 I0.25 J-0.433
G2 X42.0141 Y53.5002 I-0.5 J0.0
G1 F100.0 Z-0.8
G2 F300.0 X41.75 Y53.567 I-0.0141 J0.4998
G2 Y54.433 I0.25 J0.433
G2 X42.5 Y54.0 I0.25 J-0.433
G2 X42.0141 Y53.5002 I-0.5 J0.0
G1 F100.0 Z-1.0
G2 F300.0 X41.75 Y53.567 I-0.0141 J0.4998
G2 Y54.433 I0.25 J0.433
G2 X42.5 Y54.0 I0.25 J-0.433
G2 X42.0141 Y53.5002 I-0.5 J0.0
G1 F100.0 Z-1.2
G2 F300.0 X41.75 Y53.567 I-0.0141 J0.4998
G2 Y54.433 I0.25 J0.433
G2 X42.5 Y54.0 I0.25 J-0.433
G2 X42.0141 Y53.5002 I-0.5 J0.0
G1 F100.0 Z-1.4
G2 F300.0 X41.75 Y53.567 I-0.0141 J0.4998
G2 Y54.433 I0.25 J0.433
G2 X42.5 Y54.0 I0.25 J-0.433
G2 X42.0141 Y53.5002 I-0.5 J0.0
G1 F100.0 Z-1.6
G2 F300.0 X41.75 Y53.567 I-0.0141 J0.4998
G2 Y54.433 I0.25 J0.433
G2 X42.5 Y54.0 I0.25 J-0.433
G2 X42.0141 Y53.5002 I-0.5 J0.0
G1 F100.0 Z-1.8
G2 F300.0 X41.75 Y53.567 I-0.0141 J0.4998
G2 Y54.433 I0.25 J0.433
G2 X42.5 Y54.0 I0.25 J-0.433
G2 X42.0141 Y53.5002 I-0.5 J0.0
G1 F100.0 Z-2.0
G2 F300.0 X41.75 Y53.567 I-0.0141 J0.4998
G2 Y54.433 I0.25 J0.433
G2 X42.5 Y54.0 I0.25 J-0.433
G2 X42.0141 Y53.5002 I-0.5 J0.0
G0 Z2.0
G0 X32.4994 Y53.9751
G1 F100.0 Z-0.2
G2 F300.0 X31.75 Y53.567 I-0.4994 J0.0249
G2 Y54.433 I0.25 J0.433
G2 X32.5 Y54.0 I0.25 J-0.433
G2 X32.4994 Y53.9751 I-0.5 J0.0
G1 F100.0 Z-0.4
G2 F300.0 X31.75 Y53.567 I-0.4994 J0.0249
G2 Y54.433 I0.25 J0.433
G2 X32.5 Y54.0 I0.25 J-0.433
G2 X32.4994 Y53.9751 I-0.5 J0.0
G1 F100.0 Z-0.6
G2 F300.0 X31.75 Y53.567 I-0.4994 J0.0249
G2 Y54.433 I0.25 J0.433
G2 X32.5 Y54.0 I0.25 J-0.433
G2 X32.4994 Y53.9751 I-0.5 J0.0
G1 F100.0 Z-0.8
G2 F300.0 X31.75 Y53.567 I-0.4994 J0.0249
G2 Y54.433 I0.25 J0.433
G2 X32.5 Y54.0 I0.25 J-0.433
G2 X32.4994 Y53.9751 I-0.5 J0.0
G1 F100.0 Z-1.0
G2 F300.0 X31.75 Y53.567 I-0.4994 J0.0249
G2 Y54.433 I0.25 J0.433
G2 X32.5 Y54.0 I0.25 J-0.433
G2 X32.4994 Y53.9751 I-0.5 J0.0
G1 F100.0 Z-1.2
G2 F300.0 X31.75 Y53.567 I-0.4994 J0.0249
G2 Y54.433 I0.25 J0.433
G2 X32.5 Y54.0 I0.25 J-0.433
G2 X32.4994 Y53.9751 I-0.5 J0.0
G1 F100.0 Z-1.4
G2 F300.0 X31.75 Y53.567 I-0.4994 J0.0249
G2 Y54.433 I0.25 J0.433
G2 X32.5 Y54.0 I0.25 J-0.433
G2 X32.4994 Y53.9751 I-0.5 J0.0
G1 F100.0 Z-1.6
G2 F300.0 X31.75 Y53.567 I-0.4994 J0.0249
G2 Y54.433 I0.25 J0.433
G2 X32.5 Y54.0 I0.25 J-0.433
G2 X32.4994 Y53.9751 I-0.5 J0.0
G1 F100.0 Z-1.8
G2 F300.0 X31.75 Y53.567 I-0.4994 J0.0249
G2 Y54.433 I0.25 J0.433
G2 X32.5 Y54.0 I0.25 J-0.433
G2 X32.4994 Y53.9751 I-0.5 J0.0
G1 F100.0 Z-2.0
G2 F300.0 X31.75 Y53.567 I-0.4994 J0.0249
G2 Y54.433 I0.25 J0.433
G2 X32.5 Y54.0 I0.25 J-0.433
G2 X32.4994 Y53.9751 I-0.5 J0.0
G0 Z2.0
G0 X32.0416 Y48.4983
G1 F100.0 Z-0.2
G2 F300.0 X32.5 Y48.0 I-0.0416 J-0.4983
G2 X31.75 Y47.567 I-0.5 J0.0
G2 Y48.433 I0.25 J0.433
G2 X32.0416 Y48.4983 I0.25 J-0.433
G1 F100.0 Z-0.4
G2 F300.0 X32.5 Y48.0 I-0.0416 J-0.4983
G2 X31.75 Y47.567 I-0.5 J0.0
G2 Y48.433 I0.25 J0.433
G2 X32.0416 Y48.4983 I0.25 J-0.433
G1 F100.0 Z-0.6
G2 F300.0 X32.5 Y48.0 I-0.0416 J-0.4983
G2 X31.75 Y47.567 I-0.5 J0.0
G2 Y48.433 I0.25 J0.433
G2 X32.0416 Y48.4983 I0.25 J-0.433
G1 F100.0 Z-0.8
G2 F300.0 X32.5 Y48.0 I-0.0416 J-0.4983
G2 X31.75 Y47.567 I-0.5 J0.0
G2 Y48.433 I0.25 J0.433
G2 X32.0416 Y48.4983 I0.25 J-0.433
G1 F100.0 Z-1.0
G2 F300.0 X32.5 Y48.0 I-0.0416 J-0.4983
G2 X31.75 Y47.567 I-0.5 J0.0
G2 Y48.433 I0.25 J0.433
G2 X32.0416 Y48.4983 I0.25 J-0.433
G1 F100.0 Z-1.2
G2 F300.0 X32.5 Y48.0 I-0.0416 J-0.4983
G2 X31.75 Y47.567 I-0.5 J0.0
G2 Y48.433 I0.25 J0.433
G2 X32.0416 Y48.4983 I0.25 J-0.433
G1 F100.0 Z-1.4
G2 F300.0 X32.5 Y48.0 I-0.0416 J-0.4983
G2 X31.75 Y47.567 I-0.5 J0.0
G2 Y48.433 I0.25 J0.433
G2 X32.0416 Y48.4983 I0.25 J-0.433
G1 F100.0 Z-1.6
G2 F300.0 X32.5 Y48.0 I-0.0416 J-0.4983
G2 X31.75 Y47.567 I-0.5 J0.0
G2 Y48.433 I0.25 J0.433
G2 X32.0416 Y48.4983 I0.25 J-0.433
G1 F100.0 Z-1.8
G2 F300.0 X32.5 Y48.0 I-0.0416 J-0.4983
G2 X31.75 Y47.567 I-0.5 J0.0
G2 Y48.433 I0.25 J0.433
G2 X32.0416 Y48.4983 I0.25 J-0.433
G1 F100.0 Z-2.0
G2 F300.0 X32.5 Y48.0 I-0.0416 J-0.4983
G2 X31.75 Y47.567 I-0.5 J0.0
G2 Y48.433 I0.25 J0.433
G2 X32.0416 Y48.4983 I0.25 J-0.433
G0 Z2.0
G0 X19.8613 Y36.8456
G1 F100.0 Z-0.2
G2 F300.0 X20.0 Y36.5 I-0.3613 J-0.3456
G2 X19.25 Y36.067 I-0.5 J0.0
G2 Y36.933 I0.25 J0.433
G2 X19.8613 Y36.8456 I0.25 J-0.433
G1 F100.0 Z-0.4
G2 F300.0 X20.0 Y36.5 I-0.3613 J-0.3456
G2 X19.25 Y36.067 I-0.5 J0.0
G2 Y36.933 I0.25 J0.433
G2 X19.8613 Y36.8456 I0.25 J-0.433
G1 F100.0 Z-0.6
G2 F300.0 X20.0 Y36.5 I-0.3613 J-0.3456
G2 X19.25 Y36.067 I-0.5 J0.0
G2 Y36.933 I0.25 J0.433
G2 X19.8613 Y36.8456 I0.25 J-0.433
G1 F100.0 Z-0.8
G2 F300.0 X20.0 Y36.5 I-0.3613 J-0.3456
G2 X19.25 Y36.067 I-0.5 J0.0
G2 Y36.933 I0.25 J0.433
G2 X19.8613 Y36.8456 I0.25 J-0.433
G1 F100.0 Z-1.0
G2 F300.0 X20.0 Y36.5 I-0.3613 J-0.3456
G2 X19.25 Y36.067 I-0.5 J0.0
G2 Y36.933 I0.25 J0.433
G2 X19.8613 Y36.8456 I0.25 J-0.433
G1 F100.0 Z-1.2
G2 F300.0 X20.0 Y36.5 I-0.3613 J-0.3456
G2 X19.25 Y36.067 I-0.5 J0.0
G2 Y36.933 I0.25 J0.433
G2 X19.8613 Y36.8456 I0.25 J-0.433
G1 F100.0 Z-1.4
G2 F300.0 X20.0 Y36.5 I-0.3613 J-0.3456
G2 X19.25 Y36.067 I-0.5 J0.0
G2 Y36.933 I0.25 J0.433
G2 X19.8613 Y36.8456 I0.25 J-0.433
G1 F100.0 Z-1.6
G2 F300.0 X20.0 Y36.5 I-0.3613 J-0.3456
G2 X19.25 Y36.067 I-0.5 J0.0
G2 Y36.933 I0.25 J0.433
G2 X19.8613 Y36.8456 I0.25 J-0.433
G1 F100.0 Z-1.8
G2 F300.0 X20.0 Y36.5 I-0.3613 J-0.3456
G2 X19.25 Y36.067 I-0.5 J0.0
G2 Y36.933 I0.25 J0.433
G2 X19.8613 Y36.8456 I0.25 J-0.433
G1 F100.0 Z-2.0
G2 F300.0 X20.0 Y36.5 I-0.3613 J-0.3456
G2 X19.25 Y36.067 I-0.5 J0.0
G2 Y36.933 I0.25 J0.433
G2 X19.8613 Y36.8456 I0.25 J-0.433
G0 Z2.0
G0 X19.5414 Y32.9983
G1 F100.0 Z-0.2
G2 F300.0 X20.0 Y32.5 I-0.0414 J-0.4983
G2 X19.25 Y32.067 I-0.5 J0.0
G2 Y32.933 I0.25 J0.433
G2 X19.5414 Y32.9983 I0.25 J-0.433
G1 F100.0 Z-0.4
G2 F300.0 X20.0 Y32.5 I-0.0414 J-0.4983
G2 X19.25 Y32.067 I-0.5 J0.0
G2 Y32.933 I0.25 J0.433
G2 X19.5414 Y32.9983 I0.25 J-0.433
G1 F100.0 Z-0.6
G2 F300.0 X20.0 Y32.5 I-0.0414 J-0.4983
G2 X19.25 Y32.067 I-0.5 J0.0
G2 Y32.933 I0.25 J0.433
G2 X19.5414 Y32.9983 I0.25 J-0.433
G1 F100.0 Z-0.8
G2 F300.0 X20.0 Y32.5 I-0.0414 J-0.4983
G2 X19.25 Y32.067 I-0.5 J0.0
G2 Y32.933 I0.25 J0.433
G2 X19.5414 Y32.9983 I0.25 J-0.433
G1 F100.0 Z-1.0
G2 F300.0 X20.0 Y32.5 I-0.0414 J-0.4983
G2 X19.25 Y32.067 I-0.5 J0.0
G2 Y32.933 I0.25 J0.433
G2 X19.5414 Y32.9983 I0.25 J-0.433
G1 F100.0 Z-1.2
G2 F300.0 X20.0 Y32.5 I-0.0414 J-0.4983
G2 X19.25 Y32.067 I-0.5 J0.0
G2 Y32.933 I0.25 J0.433
G2 X19.5414 Y32.9983 I0.25 J-0.433
G1 F100.0 Z-1.4
G2 F300.0 X20.0 Y32.5 I-0.0414 J-0.4983
G2 X19.25 Y32.067 I-0.5 J0.0
G2 Y32.933 I0.25 J0.433
G2 X19.5414 Y32.9983 I0.25 J-0.433
G1 F100.0 Z-1.6
G2 F300.0 X20.0 Y32.5 I-0.0414 J-0.4983
G2 X19.25 Y32.067 I-0.5 J0.0
G2 Y32.933 I0.25 J0.433
G2 X19.5414 Y32.9983 I0.25 J-0.433
G1 F100.0 Z-1.8
G2 F300.0 X20.0 Y32.5 I-0.0414 J-0.4983
G2 X19.25 Y32.067 I-0.5 J0.0
G2 Y32.933 I0.25 J0.433
G2 X19.5414 Y32.9983 I0.25 J-0.433
G1 F100.0 Z-2.0
G2 F300.0 X20.0 Y32.5 I-0.0414 J-0.4983
G2 X19.25 Y32.067 I-0.5 J0.0
G2 Y32.933 I0.25 J0.433
G2 X19.5414 Y32.9983 I0.25 J-0.433
G0 Z2.0
G0 X19.5046 Y29.0
G1 F100.0 Z-0.2
G2 F300.0 X20.0 Y28.5 I-0.0046 J-0.5
G2 X19.25 Y28.067 I-0.5 J0.0
G2 Y28.933 I0.25 J0.433
G2 X19.5046 Y29.0 I0.25 J-0.433
G1 F100.0 Z-0.4
G2 F300.0 X20.0 Y28.5 I-0.0046 J-0.5
G2 X19.25 Y28.067 I-0.5 J0.0
G2 Y28.933 I0.25 J0.433
G2 X19.5046 Y29.0 I0.25 J-0.433
G1 F100.0 Z-0.6
G2 F300.0 X20.0 Y28.5 I-0.0046 J-0.5
G2 X19.25 Y28.067 I-0.5 J0.0
G2 Y28.933 I0.25 J0.433
G2 X19.5046 Y29.0 I0.25 J-0.433
G1 F100.0 Z-0.8
G2 F300.0 X20.0 Y28.5 I-0.0046 J-0.5
G2 X19.25 Y28.067 I-0.5 J0.0
G2 Y28.933 I0.25 J0.433
G2 X19.5046 Y29.0 I0.25 J-0.433
G1 F100.0 Z-1.0
G2 F300.0 X20.0 Y28.5 I-0.0046 J-0.5
G2 X19.25 Y28.067 I-0.5 J0.0
G2 Y28.933 I0.25 J0.433
G2 X19.5046 Y29.0 I0.25 J-0.433
G1 F100.0 Z-1.2
G2 F300.0 X20.0 Y28.5 I-0.0046 J-0.5
G2 X19.25 Y28.067 I-0.5 J0.0
G2 Y28.933 I0.25 J0.433
G2 X19.5046 Y29.0 I0.25 J-0.433
G1 F100.0 Z-1.4
G2 F300.0 X20.0 Y28.5 I-0.0046 J-0.5
G2 X19.25 Y28.067 I-0.5 J0.0
G2 Y28.933 I0.25 J0.433
G2 X19.5046 Y29.0 I0.25 J-0.433
G1 F100.0 Z-1.6
G2 F300.0 X20.0 Y28.5 I-0.0046 J-0.5
G2 X19.25 Y28.067 I-0.5 J0.0
G2 Y28.933 I0.25 J0.433
G2 X19.5046 Y29.0 I0.25 J-0.433
G1 F100.0 Z-1.8
G2 F300.0 X20.0 Y28.5 I-0.0046 J-0.5
G2 X19.25 Y28.067 I-0.5 J0.0
G2 Y28.933 I0.25 J0.433
G2 X19.5046 Y29.0 I0.25 J-0.433
G1 F100.0 Z-2.0
G2 F300.0 X20.0 Y28.5 I-0.0046 J-0.5
G2 X19.25 Y28.067 I-0.5 J0.0
G2 Y28.933 I0.25 J0.433
G2 X19.5046 Y29.0 I0.25 J-0.433
G0 Z2.0
G0 X19.5004 Y24.0
G1 F100.0 Z-0.2
G2 F300.0 X20.0 Y23.5 I-0.0004 J-0.5
G2 X19.25 Y23.067 I-0.5 J0.0
G2 Y23.933 I0.25 J0.433
G2 X19.5004 Y24.0 I0.25 J-0.433
G1 F100.0 Z-0.4
G2 F300.0 X20.0 Y23.5 I-0.0004 J-0.5
G2 X19.25 Y23.067 I-0.5 J0.0
G2 Y23.933 I0.25 J0.433
G2 X19.5004 Y24.0 I0.25 J-0.433
G1 F100.0 Z-0.6
G2 F300.0 X20.0 Y23.5 I-0.0004 J-0.5
G2 X19.25 Y23.067 I-0.5 J0.0
G2 Y23.933 I0.25 J0.433
G2 X19.5004 Y24.0 I0.25 J-0.433
G1 F100.0 Z-0.8
G2 F300.0 X20.0 Y23.5 I-0.0004 J-0.5
G2 X19.25 Y23.067 I-0.5 J0.0
G2 Y23.933 I0.25 J0.433
G2 X19.5004 Y24.0 I0.25 J-0.433
G1 F100.0 Z-1.0
G2 F300.0 X20.0 Y23.5 I-0.0004 J-0.5
G2 X19.25 Y23.067 I-0.5 J0.0
G2 Y23.933 I0.25 J0.433
G2 X19.5004 Y24.0 I0.25 J-0.433
G1 F100.0 Z-1.2
G2 F300.0 X20.0 Y23.5 I-0.0004 J-0.5
G2 X19.25 Y23.067 I-0.5 J0.0
G2 Y23.933 I0.25 J0.433
G2 X19.5004 Y24.0 I0.25 J-0.433
G1 F100.0 Z-1.4
G2 F300.0 X20.0 Y23.5 I-0.0004 J-0.5
G2 X19.25 Y23.067 I-0.5 J0.0
G2 Y23.933 I0.25 J0.433
G2 X19.5004 Y24.0 I0.25 J-0.433
G1 F100.0 Z-1.6
G2 F300.0 X20.0 Y23.5 I-0.0004 J-0.5
G2 X19.25 Y23.067 I-0.5 J0.0
G2 Y23.933 I0.25 J0.433
G2 X19.5004 Y24.0 I0.25 J-0.433
G1 F100.0 Z-1.8
G2 F300.0 X20.0 Y23.5 I-0.0004 J-0.5
G2 X19.25 Y23.067 I-0.5 J0.0
G2 Y23.933 I0.25 J0.433
G2 X19.5004 Y24.0 I0.25 J-0.433
G1 F100.0 Z-2.0
G2 F300.0 X20.0 Y23.5 I-0.0004 J-0.5
G2 X19.25 Y23.067 I-0.5 J0.0
G2 Y23.933 I0.25 J0.433
G2 X19.5004 Y24.0 I0.25 J-0.433
G0 Z2.0
G0 X19.5 Y20.0
G1 F100.0 Z-0.2
G2 F300.0 X20.0 Y19.5 I0.0 J-0.5
G2 X19.25 Y19.067 I-0.5 J0.0
G2 Y19.933 I0.25 J0.433
G2 X19.5 Y20.0 I0.25 J-0.433
G1 F100.0 Z-0.4
G2 F300.0 X20.0 Y19.5 I0.0 J-0.5
G2 X19.25 Y19.067 I-0.5 J0.0
G2 Y19.933 I0.25 J0.433
G2 X19.5 Y20.0 I0.25 J-0.433
G1 F100.0 Z-0.6
G2 F300.0 X20.0 Y19.5 I0.0 J-0.5
G2 X19.25 Y19.067 I-0.5 J0.0
G2 Y19.933 I0.25 J0.433
G2 X19.5 Y20.0 I0.25 J-0.433
G1 F100.0 Z-0.8
G2 F300.0 X20.0 Y19.5 I0.0 J-0.5
G2 X19.25 Y19.067 I-0.5 J0.0
G2 Y19.933 I0.25 J0.433
G2 X19.5 Y20.0 I0.25 J-0.433
G1 F100.0 Z-1.0
G2 F300.0 X20.0 Y19.5 I0.0 J-0.5
G2 X19.25 Y19.067 I-0.5 J0.0
G2 Y19.933 I0.25 J0.433
G2 X19.5 Y20.0 I0.25 J-0.433
G1 F100.0 Z-1.2
G2 F300.0 X20.0 Y19.5 I0.0 J-0.5
G2 X19.25 Y19.067 I-0.5 J0.0
G2 Y19.933 I0.25 J0.433
G2 X19.5 Y20.0 I0.25 J-0.433
G1 F100.0 Z-1.4
G2 F300.0 X20.0 Y19.5 I0.0 J-0.5
G2 X19.25 Y19.067 I-0.5 J0.0
G2 Y19.933 I0.25 J0.433
G2 X19.5 Y20.0 I0.25 J-0.433
G1 F100.0 Z-1.6
G2 F300.0 X20.0 Y19.5 I0.0 J-0.5
G2 X19.25 Y19.067 I-0.5 J0.0
G2 Y19.933 I0.25 J0.433
G2 X19.5 Y20.0 I0.25 J-0.433
G1 F100.0 Z-1.8
G2 F300.0 X20.0 Y19.5 I0.0 J-0.5
G2 X19.25 Y19.067 I-0.5 J0.0
G2 Y19.933 I0.25 J0.433
G2 X19.5 Y20.0 I0.25 J-0.433
G1 F100.0 Z-2.0
G2 F300.0 X20.0 Y19.5 I0.0 J-0.5
G2 X19.25 Y19.067 I-0.5 J0.0
G2 Y19.933 I0.25 J0.433
G2 X19.5 Y20.0 I0.25 J-0.433
G0 Z2.0
G0 Y16.0
G1 F100.0 Z-0.2
G2 F300.0 X20.0 Y15.5 I0.0 J-0.5
G2 X19.25 Y15.067 I-0.5 J0.0
G2 Y15.933 I0.25 J0.433
G2 X19.5 Y16.0 I0.25 J-0.433
G1 F100.0 Z-0.4
G2 F300.0 X20.0 Y15.5 I0.0 J-0.5
G2 X19.25 Y15.067 I-0.5 J0.0
G2 Y15.933 I0.25 J0.433
G2 X19.5 Y16.0 I0.25 J-0.433
G1 F100.0 Z-0.6
G2 F300.0 X20.0 Y15.5 I0.0 J-0.5
G2 X19.25 Y15.067 I-0.5 J0.0
G2 Y15.933 I0.25 J0.433
G2 X19.5 Y16.0 I0.25 J-0.433
G1 F100.0 Z-0.8
G2 F300.0 X20.0 Y15.5 I0.0 J-0.5
G2 X19.25 Y15.067 I-0.5 J0.0
G2 Y15.933 I0.25 J0.433
G2 X19.5 Y16.0 I0.25 J-0.433
G1 F100.0 Z-1.0
G2 F300.0 X20.0 Y15.5 I0.0 J-0.5
G2 X19.25 Y15.067 I-0.5 J0.0
G2 Y15.933 I0.25 J0.433
G2 X19.5 Y16.0 I0.25 J-0.433
G1 F100.0 Z-1.2
G2 F300.0 X20.0 Y15.5 I0.0 J-0.5
G2 X19.25 Y15.067 I-0.5 J0.0
G2 Y15.933 I0.25 J0.433
G2 X19.5 Y16.0 I0.25 J-0.433
G1 F100.0 Z-1.4
G2 F300.0 X20.0 Y15.5 I0.0 J-0.5
G2 X19.25 Y15.067 I-0.5 J0.0
G2 Y15.933 I0.25 J0.433
G2 X19.5 Y16.0 I0.25 J-0.433
G1 F100.0 Z-1.6
G2 F300.0 X20.0 Y15.5 I0.0 J-0.5
G2 X19.25 Y15.067 I-0.5 J0.0
G2 Y15.933 I0.25 J0.433
G2 X19.5 Y16.0 I0.25 J-0.433
G1 F100.0 Z-1.8
G2 F300.0 X20.0 Y15.5 I0.0 J-0.5
G2 X19.25 Y15.067 I-0.5 J0.0
G2 Y15.933 I0.25 J0.433
G2 X19.5 Y16.0 I0.25 J-0.433
G1 F100.0 Z-2.0
G2 F300.0 X20.0 Y15.5 I0.0 J-0.5
G2 X19.25 Y15.067 I-0.5 J0.0
G2 Y15.933 I0.25 J0.433
G2 X19.5 Y16.0 I0.25 J-0.433
G0 Z2.0
G0 X13.7526 Y46.1738
G1 F100.0 Z-0.2
G2 F300.0 X12.825 Y46.3309 I-0.2526 J1.3262
G2 Y48.6691 I0.675 J1.1691
G2 X14.85 Y47.5 I0.675 J-1.1691
G2 X13.7526 Y46.1738 I-1.35 J0.0
G1 F100.0 Z-0.4
G2 F300.0 X12.825 Y46.3309 I-0.2526 J1.3262
G2 Y48.6691 I0.675 J1.1691
G2 X14.85 Y47.5 I0.675 J-1.1691
G2 X13.7526 Y46.1738 I-1.35 J0.0
G1 F100.0 Z-0.6
G2 F300.0 X12.825 Y46.3309 I-0.2526 J1.3262
G2 Y48.6691 I0.675 J1.1691
G2 X14.85 Y47.5 I0.675 J-1.1691
G2 X13.7526 Y46.1738 I-1.35 J0.0
G1 F100.0 Z-0.8
G2 F300.0 X12.825 Y46.3309 I-0.2526 J1.3262
G2 Y48.6691 I0.675 J1.1691
G2 X14.85 Y47.5 I0.675 J-1.1691
G2 X13.7526 Y46.1738 I-1.35 J0.0
G1 F100.0 Z-1.0
G2 F300.0 X12.825 Y46.3309 I-0.2526 J1.3262
G2 Y48.6691 I0.675 J1.1691
G2 X14.85 Y47.5 I0.675 J-1.1691
G2 X13.7526 Y46.1738 I-1.35 J0.0
G1 F100.0 Z-1.2
G2 F300.0 X12.825 Y46.3309 I-0.2526 J1.3262
G2 Y48.6691 I0.675 J1.1691
G2 X14.85 Y47.5 I0.675 J-1.1691
G2 X13.7526 Y46.1738 I-1.35 J0.0
G1 F100.0 Z-1.4
G2 F300.0 X12.825 Y46.3309 I-0.2526 J1.3262
G2 Y48.6691 I0.675 J1.1691
G2 X14.85 Y47.5 I0.675 J-1.1691
G2 X13.7526 Y46.1738 I-1.35 J0.0
G1 F100.0 Z-1.6
G2 F300.0 X12.825 Y46.3309 I-0.2526 J1.3262
G2 Y48.6691 I0.675 J1.1691
G2 X14.85 Y47.5 I0.675 J-1.1691
G2 X13.7526 Y46.1738 I-1.35 J0.0
G1 F100.0 Z-1.8
G2 F300.0 X12.825 Y46.3309 I-0.2526 J1.3262
G2 Y48.6691 I0.675 J1.1691
G2 X14.85 Y47.5 I0.675 J-1.1691
G2 X13.7526 Y46.1738 I-1.35 J0.0
G1 F100.0 Z-2.0
G2 F300.0 X12.825 Y46.3309 I-0.2526 J1.3262
G2 Y48.6691 I0.675 J1.1691
G2 X14.85 Y47.5 I0.675 J-1.1691
G2 X13.7526 Y46.1738 I-1.35 J0.0
G0 Z2.0
G0 X13.5409 Y53.1506
G1 F100.0 Z-0.2
G2 F300.0 X12.825 Y53.3309 I-0.0409 J1.3494
G2 Y55.6691 I0.675 J1.1691
G2 X14.85 Y54.5 I0.675 J-1.1691
G2 X13.5409 Y53.1506 I-1.35 J0.0
G1 F100.0 Z-0.4
G2 F300.0 X12.825 Y53.3309 I-0.0409 J1.3494
G2 Y55.6691 I0.675 J1.1691
G2 X14.85 Y54.5 I0.675 J-1.1691
G2 X13.5409 Y53.1506 I-1.35 J0.0
G1 F100.0 Z-0.6
G2 F300.0 X12.825 Y53.3309 I-0.0409 J1.3494
G2 Y55.6691 I0.675 J1.1691
G2 X14.85 Y54.5 I0.675 J-1.1691
G2 X13.5409 Y53.1506 I-1.35 J0.0
G1 F100.0 Z-0.8
G2 F300.0 X12.825 Y53.3309 I-0.0409 J1.3494
G2 Y55.6691 I0.675 J1.1691
G2 X14.85 Y54.5 I0.675 J-1.1691
G2 X13.5409 Y53.1506 I-1.35 J0.0
G1 F100.0 Z-1.0
G2 F300.0 X12.825 Y53.3309 I-0.0409 J1.3494
G2 Y55.6691 I0.675 J1.1691
G2 X14.85 Y54.5 I0.675 J-1.1691
G2 X13.5409 Y53.1506 I-1.35 J0.0
G1 F100.0 Z-1.2
G2 F300.0 X12.825 Y53.3309 I-0.0409 J1.3494
G2 Y55.6691 I0.675 J1.1691
G2 X14.85 Y54.5 I0.675 J-1.1691
G2 X13.5409 Y53.1506 I-1.35 J0.0
G1 F100.0 Z-1.4
G2 F300.0 X12.825 Y53.3309 I-0.0409 J1.3494
G2 Y55.6691 I0.675 J1.1691
G2 X14.85 Y54.5 I0.675 J-1.1691
G2 X13.5409 Y53.1506 I-1.35 J0.0
G1 F100.0 Z-1.6
G2 F300.0 X12.825 Y53.3309 I-0.0409 J1.3494
G2 Y55.6691 I0.675 J1.1691
G2 X14.85 Y54.5 I0.675 J-1.1691
G2 X13.5409 Y53.1506 I-1.35 J0.0
G1 F100.0 Z-1.8
G2 F300.0 X12.825 Y53.3309 I-0.0409 J1.3494
G2 Y55.6691 I0.675 J1.1691
G2 X14.85 Y54.5 I0.675 J-1.1691
G2 X13.5409 Y53.1506 I-1.35 J0.0
G1 F100.0 Z-2.0
G2 F300.0 X12.825 Y53.3309 I-0.0409 J1.3494
G2 Y55.6691 I0.675 J1.1691
G2 X14.85 Y54.5 I0.675 J-1.1691
G2 X13.5409 Y53.1506 I-1.35 J0.0
G0 Z2.0
G0 X19.2827 Y65.0497
G1 F100.0 Z-0.2
G2 F300.0 X19.25 Y65.067 I0.2173 J0.4503
G2 Y65.933 I0.25 J0.433
G2 X20.0 Y65.5 I0.25 J-0.433
G2 X19.2827 Y65.0497 I-0.5 J0.0
G1 F100.0 Z-0.4
G2 F300.0 X19.25 Y65.067 I0.2173 J0.4503
G2 Y65.933 I0.25 J0.433
G2 X20.0 Y65.5 I0.25 J-0.433
G2 X19.2827 Y65.0497 I-0.5 J0.0
G1 F100.0 Z-0.6
G2 F300.0 X19.25 Y65.067 I0.2173 J0.4503
G2 Y65.933 I0.25 J0.433
G2 X20.0 Y65.5 I0.25 J-0.433
G2 X19.2827 Y65.0497 I-0.5 J0.0
G1 F100.0 Z-0.8
G2 F300.0 X19.25 Y65.067 I0.2173 J0.4503
G2 Y65.933 I0.25 J0.433
G2 X20.0 Y65.5 I0.25 J-0.433
G2 X19.2827 Y65.0497 I-0.5 J0.0
G1 F100.0 Z-1.0
G2 F300.0 X19.25 Y65.067 I0.2173 J0.4503
G2 Y65.933 I0.25 J0.433
G2 X20.0 Y65.5 I0.25 J-0.433
G2 X19.2827 Y65.0497 I-0.5 J0.0
G1 F100.0 Z-1.2
G2 F300.0 X19.25 Y65.067 I0.2173 J0.4503
G2 Y65.933 I0.25 J0.433
G2 X20.0 Y65.5 I0.25 J-0.433
G2 X19.2827 Y65.0497 I-0.5 J0.0
G1 F100.0 Z-1.4
G2 F300.0 X19.25 Y65.067 I0.2173 J0.4503
G2 Y65.933 I0.25 J0.433
G2 X20.0 Y65.5 I0.25 J-0.433
G2 X19.2827 Y65.0497 I-0.5 J0.0
G1 F100.0 Z-1.6
G2 F300.0 X19.25 Y65.067 I0.2173 J0.4503
G2 Y65.933 I0.25 J0.433
G2 X20.0 Y65.5 I0.25 J-0.433
G2 X19.2827 Y65.0497 I-0.5 J0.0
G1 F100.0 Z-1.8
G2 F300.0 X19.25 Y65.067 I0.2173 J0.4503
G2 Y65.933 I0.25 J0.433
G2 X20.0 Y65.5 I0.25 J-0.433
G2 X19.2827 Y65.0497 I-0.5 J0.0
G1 F100.0 Z-2.0
G2 F300.0 X19.25 Y65.067 I0.2173 J0.4503
G2 Y65.933 I0.25 J0.433
G2 X20.0 Y65.5 I0.25 J-0.433
G2 X19.2827 Y65.0497 I-0.5 J0.0
G0 Z2.0
G0 X19.4756 Y69.0006
G1 F100.0 Z-0.2
G2 F300.0 X19.25 Y69.067 I0.0244 J0.4994
G2 Y69.933 I0.25 J0.433
G2 X20.0 Y69.5 I0.25 J-0.433
G2 X19.4756 Y69.0006 I-0.5 J0.0
G1 F100.0 Z-0.4
G2 F300.0 X19.25 Y69.067 I0.0244 J0.4994
G2 Y69.933 I0.25 J0.433
G2 X20.0 Y69.5 I0.25 J-0.433
G2 X19.4756 Y69.0006 I-0.5 J0.0
G1 F100.0 Z-0.6
G2 F300.0 X19.25 Y69.067 I0.0244 J0.4994
G2 Y69.933 I0.25 J0.433
G2 X20.0 Y69.5 I0.25 J-0.433
G2 X19.4756 Y69.0006 I-0.5 J0.0
G1 F100.0 Z-0.8
G2 F300.0 X19.25 Y69.067 I0.0244 J0.4994
G2 Y69.933 I0.25 J0.433
G2 X20.0 Y69.5 I0.25 J-0.433
G2 X19.4756 Y69.0006 I-0.5 J0.0
G1 F100.0 Z-1.0
G2 F300.0 X19.25 Y69.067 I0.0244 J0.4994
G2 Y69.933 I0.25 J0.433
G2 X20.0 Y69.5 I0.25 J-0.433
G2 X19.4756 Y69.0006 I-0.5 J0.0
G1 F100.0 Z-1.2
G2 F300.0 X19.25 Y69.067 I0.0244 J0.4994
G2 Y69.933 I0.25 J0.433
G2 X20.0 Y69.5 I0.25 J-0.433
G2 X19.4756 Y69.0006 I-0.5 J0.0
G1 F100.0 Z-1.4
G2 F300.0 X19.25 Y69.067 I0.0244 J0.4994
G2 Y69.933 I0.25 J0.433
G2 X20.0 Y69.5 I0.25 J-0.433
G2 X19.4756 Y69.0006 I-0.5 J0.0
G1 F100.0 Z-1.6
G2 F300.0 X19.25 Y69.067 I0.0244 J0.4994
G2 Y69.933 I0.25 J0.433
G2 X20.0 Y69.5 I0.25 J-0.433
G2 X19.4756 Y69.0006 I-0.5 J0.0
G1 F100.0 Z-1.8
G2 F300.0 X19.25 Y69.067 I0.0244 J0.4994
G2 Y69.933 I0.25 J0.433
G2 X20.0 Y69.5 I0.25 J-0.433
G2 X19.4756 Y69.0006 I-0.5 J0.0
G1 F100.0 Z-2.0
G2 F300.0 X19.25 Y69.067 I0.0244 J0.4994
G2 Y69.933 I0.25 J0.433
G2 X20.0 Y69.5 I0.25 J-0.433
G2 X19.4756 Y69.0006 I-0.5 J0.0
G0 Z2.0
G0 X19.4973 Y73.0
G1 F100.0 Z-0.2
G2 F300.0 X19.25 Y73.067 I0.0027 J0.5
G2 Y73.933 I0.25 J0.433
G2 X20.0 Y73.5 I0.25 J-0.433
G2 X19.4973 Y73.0 I-0.5 J0.0
G1 F100.0 Z-0.4
G2 F300.0 X19.25 Y73.067 I0.0027 J0.5
G2 Y73.933 I0.25 J0.433
G2 X20.0 Y73.5 I0.25 J-0.433
G2 X19.4973 Y73.0 I-0.5 J0.0
G1 F100.0 Z-0.6
G2 F300.0 X19.25 Y73.067 I0.0027 J0.5
G2 Y73.933 I0.25 J0.433
G2 X20.0 Y73.5 I0.25 J-0.433
G2 X19.4973 Y73.0 I-0.5 J0.0
G1 F100.0 Z-0.8
G2 F300.0 X19.25 Y73.067 I0.0027 J0.5
G2 Y73.933 I0.25 J0.433
G2 X20.0 Y73.5 I0.25 J-0.433
G2 X19.4973 Y73.0 I-0.5 J0.0
G1 F100.0 Z-1.0
G2 F300.0 X19.25 Y73.067 I0.0027 J0.5
G2 Y73.933 I0.25 J0.433
G2 X20.0 Y73.5 I0.25 J-0.433
G2 X19.4973 Y73.0 I-0.5 J0.0
G1 F100.0 Z-1.2
G2 F300.0 X19.25 Y73.067 I0.0027 J0.5
G2 Y73.933 I0.25 J0.433
G2 X20.0 Y73.5 I0.25 J-0.433
G2 X19.4973 Y73.0 I-0.5 J0.0
G1 F100.0 Z-1.4
G2 F300.0 X19.25 Y73.067 I0.0027 J0.5
G2 Y73.933 I0.25 J0.433
G2 X20.0 Y73.5 I0.25 J-0.433
G2 X19.4973 Y73.0 I-0.5 J0.0
G1 F100.0 Z-1.6
G2 F300.0 X19.25 Y73.067 I0.0027 J0.5
G2 Y73.933 I0.25 J0.433
G2 X20.0 Y73.5 I0.25 J-0.433
G2 X19.4973 Y73.0 I-0.5 J0.0
G1 F100.0 Z-1.8
G2 F300.0 X19.25 Y73.067 I0.0027 J0.5
G2 Y73.933 I0.25 J0.433
G2 X20.0 Y73.5 I0.25 J-0.433
G2 X19.4973 Y73.0 I-0.5 J0.0
G1 F100.0 Z-2.0
G2 F300.0 X19.25 Y73.067 I0.0027 J0.5
G2 Y73.933 I0.25 J0.433
G2 X20.0 Y73.5 I0.25 J-0.433
G2 X19.4973 Y73.0 I-0.5 J0.0
G0 Z2.0
G0 X19.4998 Y78.0
G1 F100.0 Z-0.2
G2 F300.0 X19.25 Y78.067 I0.0002 J0.5
G2 Y78.933 I0.25 J0.433
G2 X20.0 Y78.5 I0.25 J-0.433
G2 X19.4998 Y78.0 I-0.5 J0.0
G1 F100.0 Z-0.4
G2 F300.0 X19.25 Y78.067 I0.0002 J0.5
G2 Y78.933 I0.25 J0.433
G2 X20.0 Y78.5 I0.25 J-0.433
G2 X19.4998 Y78.0 I-0.5 J0.0
G1 F100.0 Z-0.6
G2 F300.0 X19.25 Y78.067 I0.0002 J0.5
G2 Y78.933 I0.25 J0.433
G2 X20.0 Y78.5 I0.25 J-0.433
G2 X19.4998 Y78.0 I-0.5 J0.0
G1 F100.0 Z-0.8
G2 F300.0 X19.25 Y78.067 I0.0002 J0.5
G2 Y78.933 I0.25 J0.433
G2 X20.0 Y78.5 I0.25 J-0.433
G2 X19.4998 Y78.0 I-0.5 J0.0
G1 F100.0 Z-1.0
G2 F300.0 X19.25 Y78.067 I0.0002 J0.5
G2 Y78.933 I0.25 J0.433
G2 X20.0 Y78.5 I0.25 J-0.433
G2 X19.4998 Y78.0 I-0.5 J0.0
G1 F100.0 Z-1.2
G2 F300.0 X19.25 Y78.067 I0.0002 J0.5
G2 Y78.933 I0.25 J0.433
G2 X20.0 Y78.5 I0.25 J-0.433
G2 X19.4998 Y78.0 I-0.5 J0.0
G1 F100.0 Z-1.4
G2 F300.0 X19.25 Y78.067 I0.0002 J0.5
G2 Y78.933 I0.25 J0.433
G2 X20.0 Y78.5 I0.25 J-0.433
G2 X19.4998 Y78.0 I-0.5 J0.0
G1 F100.0 Z-1.6
G2 F300.0 X19.25 Y78.067 I0.0002 J0.5
G2 Y78.933 I0.25 J0.433
G2 X20.0 Y78.5 I0.25 J-0.433
G2 X19.4998 Y78.0 I-0.5 J0.0
G1 F100.0 Z-1.8
G2 F300.0 X19.25 Y78.067 I0.0002 J0.5
G2 Y78.933 I0.25 J0.433
G2 X20.0 Y78.5 I0.25 J-0.433
G2 X19.4998 Y78.0 I-0.5 J0.0
G1 F100.0 Z-2.0
G2 F300.0 X19.25 Y78.067 I0.0002 J0.5
G2 Y78.933 I0.25 J0.433
G2 X20.0 Y78.5 I0.25 J-0.433
G2 X19.4998 Y78.0 I-0.5 J0.0
G0 Z2.0
G0 X19.5 Y82.0
G1 F100.0 Z-0.2
G2 F300.0 X19.25 Y82.067 I0.0 J0.5
G2 Y82.933 I0.25 J0.433
G2 X20.0 Y82.5 I0.25 J-0.433
G2 X19.5 Y82.0 I-0.5 J0.0
G1 F100.0 Z-0.4
G2 F300.0 X19.25 Y82.067 I0.0 J0.5
G2 Y82.933 I0.25 J0.433
G2 X20.0 Y82.5 I0.25 J-0.433
G2 X19.5 Y82.0 I-0.5 J0.0
G1 F100.0 Z-0.6
G2 F300.0 X19.25 Y82.067 I0.0 J0.5
G2 Y82.933 I0.25 J0.433
G2 X20.0 Y82.5 I0.25 J-0.433
G2 X19.5 Y82.0 I-0.5 J0.0
G1 F100.0 Z-0.8
G2 F300.0 X19.25 Y82.067 I0.0 J0.5
G2 Y82.933 I0.25 J0.433
G2 X20.0 Y82.5 I0.25 J-0.433
G2 X19.5 Y82.0 I-0.5 J0.0
G1 F100.0 Z-1.0
G2 F300.0 X19.25 Y82.067 I0.0 J0.5
G2 Y82.933 I0.25 J0.433
G2 X20.0 Y82.5 I0.25 J-0.433
G2 X19.5 Y82.0 I-0.5 J0.0
G1 F100.0 Z-1.2
G2 F300.0 X19.25 Y82.067 I0.0 J0.5
G2 Y82.933 I0.25 J0.433
G2 X20.0 Y82.5 I0.25 J-0.433
G2 X19.5 Y82.0 I-0.5 J0.0
G1 F100.0 Z-1.4
G2 F300.0 X19.25 Y82.067 I0.0 J0.5
G2 Y82.933 I0.25 J0.433
G2 X20.0 Y82.5 I0.25 J-0.433
G2 X19.5 Y82.0 I-0.5 J0.0
G1 F100.0 Z-1.6
G2 F300.0 X19.25 Y82.067 I0.0 J0.5
G2 Y82.933 I0.25 J0.433
G2 X20.0 Y82.5 I0.25 J-0.433
G2 X19.5 Y82.0 I-0.5 J0.0
G1 F100.0 Z-1.8
G2 F300.0 X19.25 Y82.067 I0.0 J0.5
G2 Y82.933 I0.25 J0.433
G2 X20.0 Y82.5 I0.25 J-0.433
G2 X19.5 Y82.0 I-0.5 J0.0
G1 F100.0 Z-2.0
G2 F300.0 X19.25 Y82.067 I0.0 J0.5
G2 Y82.933 I0.25 J0.433
G2 X20.0 Y82.5 I0.25 J-0.433
G2 X19.5 Y82.0 I-0.5 J0.0
G0 Z2.0
G0 Y86.0
G1 F100.0 Z-0.2
G2 F300.0 X19.25 Y86.067 I0.0 J0.5
G2 Y86.933 I0.25 J0.433
G2 X20.0 Y86.5 I0.25 J-0.433
G2 X19.5 Y86.0 I-0.5 J0.0
G1 F100.0 Z-0.4
G2 F300.0 X19.25 Y86.067 I0.0 J0.5
G2 Y86.933 I0.25 J0.433
G2 X20.0 Y86.5 I0.25 J-0.433
G2 X19.5 Y86.0 I-0.5 J0.0
G1 F100.0 Z-0.6
G2 F300.0 X19.25 Y86.067 I0.0 J0.5
G2 Y86.933 I0.25 J0.433
G2 X20.0 Y86.5 I0.25 J-0.433
G2 X19.5 Y86.0 I-0.5 J0.0
G1 F100.0 Z-0.8
G2 F300.0 X19.25 Y86.067 I0.0 J0.5
G2 Y86.933 I0.25 J0.433
G2 X20.0 Y86.5 I0.25 J-0.433
G2 X19.5 Y86.0 I-0.5 J0.0
G1 F100.0 Z-1.0
G2 F300.0 X19.25 Y86.067 I0.0 J0.5
G2 Y86.933 I0.25 J0.433
G2 X20.0 Y86.5 I0.25 J-0.433
G2 X19.5 Y86.0 I-0.5 J0.0
G1 F100.0 Z-1.2
G2 F300.0 X19.25 Y86.067 I0.0 J0.5
G2 Y86.933 I0.25 J0.433
G2 X20.0 Y86.5 I0.25 J-0.433
G2 X19.5 Y86.0 I-0.5 J0.0
G1 F100.0 Z-1.4
G2 F300.0 X19.25 Y86.067 I0.0 J0.5
G2 Y86.933 I0.25 J0.433
G2 X20.0 Y86.5 I0.25 J-0.433
G2 X19.5 Y86.0 I-0.5 J0.0
G1 F100.0 Z-1.6
G2 F300.0 X19.25 Y86.067 I0.0 J0.5
G2 Y86.933 I0.25 J0.433
G2 X20.0 Y86.5 I0.25 J-0.433
G2 X19.5 Y86.0 I-0.5 J0.0
G1 F100.0 Z-1.8
G2 F300.0 X19.25 Y86.067 I0.0 J0.5
G2 Y86.933 I0.25 J0.433
G2 X20.0 Y86.5 I0.25 J-0.433
G2 X19.5 Y86.0 I-0.5 J0.0
G1 F100.0 Z-2.0
G2 F300.0 X19.25 Y86.067 I0.0 J0.5
G2 Y86.933 I0.25 J0.433
G2 X20.0 Y86.5 I0.25 J-0.433
G2 X19.5 Y86.0 I-0.5 J0.0
G0 Z2.0
M5
M30
