( Made using CamBam - http://www.cambam.co.uk )
( pcb_esc 3/29/2022 4:39:39 PM )
( T0 : 0.3 )
G21 G90 G40
G0 Z2.0
( T0 : 0.3 )
T0 M6
( 1_traces1 )
G17
M3 S1000
G0 X43.5492 Y45.85
G1 F100.0 Z-0.15
G1 F300.0 X45.1
G0 Z0.15
G1 X45.25
G1 X46.75
G1 X46.9
G1 F100.0 Z-0.15
G1 F300.0 X57.8167
G3 X60.5 Y44.35 I2.6833 J1.65
G3 X63.228 Y49.075 I0.0 J3.15
G3 X58.7971 Y50.15 I-2.728 J-1.575
G1 X46.0
G1 X43.5492
G3 X39.705 Y49.325 I-1.5492 J-2.15
G3 X39.3843 Y48.4248 I2.295 J-1.325
G1 X35.1094 Y44.15
G1 X30.8906
G1 X28.15 Y46.8906
G1 Y49.1094
G1 X30.7201 Y51.6796
G3 X32.0 Y51.35 I1.2799 J2.3204
G3 X34.295 Y55.325 I0.0 J2.65
G3 X30.4508 Y56.15 I-2.295 J-1.325
G1 X30.0
G3 X28.4797 Y55.5203 I0.0 J-2.15
G1 X24.4797 Y51.5203
G1 X23.1094 Y50.15
G1 X15.2029
G3 X10.772 Y49.075 I-1.7029 J-2.65
G3 X13.5 Y44.35 I2.728 J-1.575
G3 X16.1833 Y45.85 I0.0 J3.15
G1 X23.1094
G1 X24.4797 Y44.4797
G1 X28.4797 Y40.4797
G3 X30.0 Y39.85 I1.5203 J1.5203
G1 X36.0
G3 X37.5203 Y40.4797 I0.0 J2.15
G1 X42.4248 Y45.3843
G3 X43.5492 Y45.85 I-0.4248 J2.6157
G0 Z2.0
G0 X42.4949 Y51.3966
G1 F100.0 Z-0.15
G3 F300.0 X43.5492 Y51.85 I-0.4949 J2.6034
G1 X58.7971
G3 X60.5 Y51.35 I1.7029 J2.65
G3 X63.228 Y56.075 I0.0 J3.15
G3 X61.4 Y57.5187 I-2.728 J-1.575
G1 Y72.2222
G1 X61.7664 Y72.5886
G3 X60.4936 Y73.8614 I-0.6364 J0.6364
G1 X59.8636 Y73.2314
G3 X59.6 Y72.595 I0.6364 J-0.6364
G1 Y57.5187
G3 X57.8167 Y56.15 I0.9 J-3.0187
G1 X43.5492
G3 X40.7201 Y56.3204 I-1.5492 J-2.15
G1 X39.0203 Y58.0203
G1 X35.5203 Y61.5203
G3 X34.0 Y62.15 I-1.5203 J-1.5203
G1 X28.0
G3 X26.4797 Y61.5203 I0.0 J-2.15
G1 X21.1094 Y56.15
G1 X16.1833
G3 X10.772 Y56.075 I-2.6833 J-1.65
G3 X13.5 Y51.35 I2.728 J-1.575
G3 X15.2029 Y51.85 I0.0 J3.15
G1 X22.0
G3 X23.5203 Y52.4797 I0.0 J2.15
G1 X28.8906 Y57.85
G1 X33.1094
G1 X35.35 Y55.6094
G1 Y52.3906
G1 X33.2799 Y50.3204
G3 X29.705 Y49.325 I-1.2799 J-2.3204
G3 X32.0 Y45.35 I2.295 J-1.325
G3 X33.5492 Y45.85 I0.0 J2.65
G1 X34.0
G3 X35.5203 Y46.4797 I0.0 J2.15
G1 X39.0203 Y49.9797
G1 X40.7201 Y51.6796
G3 X42.0 Y51.35 I1.2799 J2.3204
G3 X42.4949 Y51.3966 I0.0 J2.65
G0 Z2.0
G0 X53.2308 Y64.009
G1 F100.0 Z-0.15
G3 F300.0 X54.5 Y63.542 I1.2692 J1.491
G3 X56.1957 Y66.479 I0.0 J1.958
G3 X52.8043 I-1.6957 J-0.979
G3 X53.2308 Y64.009 I1.6957 J-0.979
G0 Z2.0
G0 X54.0591 Y67.5923
G1 F100.0 Z-0.15
G3 F300.0 X54.5 Y67.542 I0.4409 J1.9077
G3 X56.1957 Y70.479 I0.0 J1.958
G3 X52.8043 I-1.6957 J-0.979
G3 X54.0591 Y67.5923 I1.6957 J-0.979
G0 Z2.0
G0 X54.3543 Y71.5474
G1 F100.0 Z-0.15
G3 F300.0 X54.5 Y71.542 I0.1457 J1.9526
G3 X56.1957 Y74.479 I0.0 J1.958
G3 X52.8043 I-1.6957 J-0.979
G3 X54.3543 Y71.5474 I1.6957 J-0.979
G0 Z2.0
G0 X54.459 Y76.5424
G1 F100.0 Z-0.15
G3 F300.0 X54.5 Y76.542 I0.041 J1.9576
G3 X56.1957 Y79.479 I0.0 J1.958
G3 X52.8043 I-1.6957 J-0.979
G3 X54.459 Y76.5424 I1.6957 J-0.979
G0 Z2.0
G0 X54.4865 Y80.542
G1 F100.0 Z-0.15
G3 F300.0 X54.5 I0.0135 J1.958
G3 X56.1957 Y83.479 I0.0 J1.958
G3 X52.8043 I-1.6957 J-0.979
G3 X54.4865 Y80.542 I1.6957 J-0.979
G0 Z2.0
G0 X54.4956 Y84.542
G1 F100.0 Z-0.15
G3 F300.0 X54.5 I0.0044 J1.958
G3 X56.1957 Y87.479 I0.0 J1.958
G3 X52.8043 I-1.6957 J-0.979
G3 X54.4956 Y84.542 I1.6957 J-0.979
G0 Z2.0
G0 X21.4549 Y86.3906
G1 F100.0 Z-0.15
G3 F300.0 X21.1957 Y87.479 I-1.9549 J0.1094
G3 X17.8043 I-1.6957 J-0.979
G3 X19.5 Y84.542 I1.6957 J-0.979
G3 X21.4549 Y86.3906 I0.0 J1.958
G0 Z2.0
G0 X20.3791 Y84.2496
G1 F100.0 Z-0.15
G3 F300.0 X17.8043 Y83.479 I-0.8791 J-1.7496
G3 X19.5 Y80.542 I1.6957 J-0.979
G3 X21.1957 Y83.479 I0.0 J1.958
G3 X20.3791 Y84.2496 I-1.6957 J-0.979
G0 Z2.0
G0 X19.7959 Y80.4355
G1 F100.0 Z-0.15
G3 F300.0 X17.8043 Y79.479 I-0.2959 J-1.9355
G3 X19.5 Y76.542 I1.6957 J-0.979
G3 X21.1957 Y79.479 I0.0 J1.958
G3 X19.7959 Y80.4355 I-1.6957 J-0.979
G0 Z2.0
G0 X19.5835 Y75.4562
G1 F100.0 Z-0.15
G3 F300.0 X17.8043 Y74.479 I-0.0835 J-1.9562
G3 X19.5 Y71.542 I1.6957 J-0.979
G3 X21.1957 Y74.479 I0.0 J1.958
G3 X19.5835 Y75.4562 I-1.6957 J-0.979
G0 Z2.0
G0 X19.5274 Y71.4578
G1 F100.0 Z-0.15
G3 F300.0 X17.8043 Y70.479 I-0.0274 J-1.9578
G3 X19.5 Y67.542 I1.6957 J-0.979
G3 X21.1957 Y70.479 I0.0 J1.958
G3 X19.5274 Y71.4578 I-1.6957 J-0.979
G0 Z2.0
G0 X19.509 Y67.458
G1 F100.0 Z-0.15
G3 F300.0 X17.8043 Y66.479 I-0.009 J-1.958
G3 X19.5 Y63.542 I1.6957 J-0.979
G3 X21.1957 Y66.479 I0.0 J1.958
G3 X19.509 Y67.458 I-1.6957 J-0.979
G0 Z2.0
G0 X19.5006 Y38.458
G1 F100.0 Z-0.15
G3 F300.0 X17.8043 Y37.479 I-0.0006 J-1.958
G3 X19.5 Y34.542 I1.6957 J-0.979
G3 X21.1957 Y37.479 I0.0 J1.958
G3 X19.5006 Y38.458 I-1.6957 J-0.979
G0 Z2.0
G0 X19.5002 Y34.458
G1 F100.0 Z-0.15
G3 F300.0 X17.8043 Y33.479 I-0.0002 J-1.958
G3 X19.5 Y30.542 I1.6957 J-0.979
G3 X21.1957 Y33.479 I0.0 J1.958
G3 X19.5002 Y34.458 I-1.6957 J-0.979
G0 Z2.0
G0 X19.5001 Y30.458
G1 F100.0 Z-0.15
G3 F300.0 X17.8043 Y29.479 I-0.0001 J-1.958
G3 X19.5 Y26.542 I1.6957 J-0.979
G3 X21.1957 Y29.479 I0.0 J1.958
G3 X19.5001 Y30.458 I-1.6957 J-0.979
G0 Z2.0
G0 X19.5 Y25.458
G1 F100.0 Z-0.15
G3 F300.0 X17.8043 Y24.479 I0.0 J-1.958
G3 X19.5 Y21.542 I1.6957 J-0.979
G3 X21.1957 Y24.479 I0.0 J1.958
G3 X19.5 Y25.458 I-1.6957 J-0.979
G0 Z2.0
G0 Y21.458
G1 F100.0 Z-0.15
G3 F300.0 X17.8043 Y20.479 I0.0 J-1.958
G3 X19.5 Y17.542 I1.6957 J-0.979
G3 X21.1957 Y20.479 I0.0 J1.958
G3 X19.5 Y21.458 I-1.6957 J-0.979
G0 Z2.0
G0 Y17.458
G1 F100.0 Z-0.15
G3 F300.0 X17.8043 Y16.479 I0.0 J-1.958
G3 X19.5 Y13.542 I1.6957 J-0.979
G3 X21.1957 Y16.479 I0.0 J1.958
G3 X19.5 Y17.458 I-1.6957 J-0.979
G0 Z2.0
G0 X52.5451 Y15.6094
G1 F100.0 Z-0.15
G3 F300.0 X54.5 Y13.542 I1.9549 J-0.1094
G3 X56.1957 Y16.479 I0.0 J1.958
G3 X52.8043 I-1.6957 J-0.979
G3 X52.5451 Y15.6094 I1.6957 J-0.979
G0 Z2.0
G0 X53.6209 Y17.7504
G1 F100.0 Z-0.15
G3 F300.0 X54.5 Y17.542 I0.8791 J1.7496
G3 X56.1957 Y20.479 I0.0 J1.958
G3 X52.8043 I-1.6957 J-0.979
G3 X53.6209 Y17.7504 I1.6957 J-0.979
G0 Z2.0
G0 X54.2041 Y21.5645
G1 F100.0 Z-0.15
G3 F300.0 X54.5 Y21.542 I0.2959 J1.9355
G3 X56.1957 Y24.479 I0.0 J1.958
G3 X52.8043 I-1.6957 J-0.979
G3 X54.2041 Y21.5645 I1.6957 J-0.979
G0 Z2.0
G0 X54.4165 Y26.5438
G1 F100.0 Z-0.15
G3 F300.0 X54.5 Y26.542 I0.0835 J1.9562
G3 X56.1957 Y29.479 I0.0 J1.958
G3 X52.8043 I-1.6957 J-0.979
G3 X54.4165 Y26.5438 I1.6957 J-0.979
G0 Z2.0
G0 X54.4726 Y30.5422
G1 F100.0 Z-0.15
G3 F300.0 X54.5 Y30.542 I0.0274 J1.9578
G3 X56.1957 Y33.479 I0.0 J1.958
G3 X52.8043 I-1.6957 J-0.979
G3 X54.4726 Y30.5422 I1.6957 J-0.979
G0 Z2.0
G0 X54.491 Y34.542
G1 F100.0 Z-0.15
G3 F300.0 X54.5 I0.009 J1.958
G3 X56.1957 Y37.479 I0.0 J1.958
G3 X52.8043 I-1.6957 J-0.979
G3 X54.491 Y34.542 I1.6957 J-0.979
G0 Z2.0
M5
M30
