( Made using CamBam - http://www.cambam.co.uk )
( pcb_esc 3/29/2022 4:39:42 PM )
( T0 : 0.98 )
G21 G90 G40
G0 Z2.0
( T0 : 0.98 )
T0 M6
( 2_traces2 )
G17
M3 S1000
G0 X43.6553 Y45.51
G1 F100.0 Z-0.15
G1 F300.0 X45.11
G0 Z0.15
G1 X45.25
G1 X46.75
G1 X46.89
G1 F100.0 Z-0.15
G1 F300.0 X57.6329
G3 X60.5 Y44.01 I2.8671 J1.99
G3 X63.5224 Y49.245 I0.0 J3.49
G3 X58.7 Y50.49 I-3.0224 J-1.745
G1 X46.0
G1 X43.6553
G3 X39.4106 Y49.495 I-1.6553 J-2.49
G3 X39.0688 Y48.5902 I2.5894 J-1.495
G1 X34.9686 Y44.49
G1 X31.0314
G1 X28.49 Y47.0314
G1 Y48.9686
G1 X30.788 Y51.2666
G3 X32.0 Y51.01 I1.212 J2.7334
G3 X34.5894 Y55.495 I0.0 J2.99
G3 X30.3447 Y56.49 I-2.5894 J-1.495
G1 X30.0
G3 X28.2393 Y55.7607 I0.0 J-2.49
G1 X24.2393 Y51.7607
G1 X22.9686 Y50.49
G1 X15.3
G3 X10.4776 Y49.245 I-1.8 J-2.99
G3 X13.5 Y44.01 I3.0224 J-1.745
G3 X16.3671 Y45.51 I0.0 J3.49
G1 X22.9686
G1 X24.2393 Y44.2393
G1 X28.2393 Y40.2393
G3 X30.0 Y39.51 I1.7607 J1.7607
G1 X36.0
G3 X37.7607 Y40.2393 I0.0 J2.49
G1 X42.5902 Y45.0688
G3 X43.6553 Y45.51 I-0.5902 J2.9312
G0 Z2.0
G0 X42.5722 Y51.0653
G1 F100.0 Z-0.15
G3 F300.0 X43.6553 Y51.51 I-0.5722 J2.9347
G1 X58.7
G3 X60.5 Y51.01 I1.8 J2.99
G3 X63.5224 Y56.245 I0.0 J3.49
G3 X61.74 Y57.7623 I-3.0224 J-1.745
G1 Y72.0814
G1 X62.0068 Y72.3482
G3 X60.2532 Y74.1018 I-0.8768 J0.8768
G1 X59.6232 Y73.4718
G3 X59.26 Y72.595 I0.8768 J-0.8768
G1 Y57.7623
G3 X57.6329 Y56.49 I1.24 J-3.2623
G1 X43.6553
G3 X40.788 Y56.7334 I-1.6553 J-2.49
G1 X39.2607 Y58.2607
G1 X35.7607 Y61.7607
G3 X34.0 Y62.49 I-1.7607 J-1.7607
G1 X28.0
G3 X26.2393 Y61.7607 I0.0 J-2.49
G1 X20.9686 Y56.49
G1 X16.3671
G3 X10.4776 Y56.245 I-2.8671 J-1.99
G3 X13.5 Y51.01 I3.0224 J-1.745
G3 X15.3 Y51.51 I0.0 J3.49
G1 X22.0
G3 X23.7607 Y52.2393 I0.0 J2.49
G1 X29.0314 Y57.51
G1 X32.9686
G1 X35.01 Y55.4686
G1 Y52.5314
G1 X33.212 Y50.7334
G3 X29.4106 Y49.495 I-1.212 J-2.7334
G3 X32.0 Y45.01 I2.5894 J-1.495
G3 X33.6553 Y45.51 I0.0 J2.99
G1 X34.0
G3 X35.7607 Y46.2393 I0.0 J2.49
G1 X39.2607 Y49.7393
G1 X40.788 Y51.2666
G3 X42.0 Y51.01 I1.212 J2.7334
G3 X42.5722 Y51.0653 I0.0 J2.99
G0 Z2.0
G0 X53.0362 Y63.7285
G1 F100.0 Z-0.15
G3 F300.0 X54.5 Y63.202 I1.4638 J1.7715
G3 X56.4901 Y66.649 I0.0 J2.298
G3 X55.6317 Y67.5 I-1.9901 J-1.149
G3 X56.4901 Y70.649 I-1.1317 J2.0
G3 X55.6317 Y71.5 I-1.9901 J-1.149
G3 X56.4901 Y74.649 I-1.1317 J2.0
G3 X52.5099 I-1.9901 J-1.149
G3 X53.3683 Y71.5 I1.9901 J-1.149
G3 X52.5099 Y70.649 I1.1317 J-2.0
G3 X53.3683 Y67.5 I1.9901 J-1.149
G3 X52.5099 Y66.649 I1.1317 J-2.0
G3 X53.0362 Y63.7285 I1.9901 J-1.149
G0 Z2.0
G0 X54.2734 Y76.2132
G1 F100.0 Z-0.15
G3 F300.0 X54.5 Y76.202 I0.2266 J2.2868
G3 X56.4901 Y79.649 I0.0 J2.298
G3 X55.6317 Y80.5 I-1.9901 J-1.149
G3 X56.4901 Y83.649 I-1.1317 J2.0
G3 X55.6317 Y84.5 I-1.9901 J-1.149
G3 X56.4901 Y87.649 I-1.1317 J2.0
G3 X52.5099 I-1.9901 J-1.149
G3 X53.3683 Y84.5 I1.9901 J-1.149
G3 X52.5099 Y83.649 I1.1317 J-2.0
G3 X53.3683 Y80.5 I1.9901 J-1.149
G3 X52.5099 Y79.649 I1.1317 J-2.0
G3 X54.2734 Y76.2132 I1.9901 J-1.149
G0 Z2.0
G0 X21.793 Y78.3492
G1 F100.0 Z-0.15
G3 F300.0 X21.4901 Y79.649 I-2.293 J0.1508
G3 X20.6317 Y80.5 I-1.9901 J-1.149
G3 X21.4901 Y83.649 I-1.1317 J2.0
G3 X20.6317 Y84.5 I-1.9901 J-1.149
G3 X21.4901 Y87.649 I-1.1317 J2.0
G3 X17.5099 I-1.9901 J-1.149
G3 X18.3683 Y84.5 I1.9901 J-1.149
G3 X17.5099 Y83.649 I1.1317 J-2.0
G3 X18.3683 Y80.5 I1.9901 J-1.149
G3 X17.5099 Y79.649 I1.1317 J-2.0
G3 X19.5 Y76.202 I1.9901 J-1.149
G3 X21.793 Y78.3492 I0.0 J2.298
G0 Z2.0
G0 X20.4824 Y75.5774
G1 F100.0 Z-0.15
G3 F300.0 X17.5099 Y74.649 I-0.9824 J-2.0774
G3 X18.3683 Y71.5 I1.9901 J-1.149
G3 X17.5099 Y70.649 I1.1317 J-2.0
G3 X18.3683 Y67.5 I1.9901 J-1.149
G3 X17.5099 Y66.649 I1.1317 J-2.0
G3 X19.5 Y63.202 I1.9901 J-1.149
G3 X21.4901 Y66.649 I0.0 J2.298
G3 X20.6317 Y67.5 I-1.9901 J-1.149
G3 X21.4901 Y70.649 I-1.1317 J2.0
G3 X20.6317 Y71.5 I-1.9901 J-1.149
G3 X21.4901 Y74.649 I-1.1317 J2.0
G3 X20.4824 Y75.5774 I-1.9901 J-1.149
G0 Z2.0
G0 X19.5578 Y38.7973
G1 F100.0 Z-0.15
G3 F300.0 X17.5099 Y37.649 I-0.0578 J-2.2973
G3 X18.3683 Y34.5 I1.9901 J-1.149
G3 X17.5099 Y33.649 I1.1317 J-2.0
G3 X18.3683 Y30.5 I1.9901 J-1.149
G3 X17.5099 Y29.649 I1.1317 J-2.0
G3 X19.5 Y26.202 I1.9901 J-1.149
G3 X21.4901 Y29.649 I0.0 J2.298
G3 X20.6317 Y30.5 I-1.9901 J-1.149
G3 X21.4901 Y33.649 I-1.1317 J2.0
G3 X20.6317 Y34.5 I-1.9901 J-1.149
G3 X21.4901 Y37.649 I-1.1317 J2.0
G3 X19.5578 Y38.7973 I-1.9901 J-1.149
G0 Z2.0
G0 X19.5087 Y25.798
G1 F100.0 Z-0.15
G3 F300.0 X17.5099 Y24.649 I-0.0087 J-2.298
G3 X18.3683 Y21.5 I1.9901 J-1.149
G3 X17.5099 Y20.649 I1.1317 J-2.0
G3 X18.3683 Y17.5 I1.9901 J-1.149
G3 X17.5099 Y16.649 I1.1317 J-2.0
G3 X19.5 Y13.202 I1.9901 J-1.149
G3 X21.4901 Y16.649 I0.0 J2.298
G3 X20.6317 Y17.5 I-1.9901 J-1.149
G3 X21.4901 Y20.649 I-1.1317 J2.0
G3 X20.6317 Y21.5 I-1.9901 J-1.149
G3 X21.4901 Y24.649 I-1.1317 J2.0
G3 X19.5087 Y25.798 I-1.9901 J-1.149
G0 Z2.0
G0 X52.2069 Y23.6506
G1 F100.0 Z-0.15
G3 F300.0 X53.3683 Y21.5 I2.2931 J-0.1506
G3 X52.5099 Y20.649 I1.1317 J-2.0
G3 X53.3683 Y17.5 I1.9901 J-1.149
G3 X52.5099 Y16.649 I1.1317 J-2.0
G3 X54.5 Y13.202 I1.9901 J-1.149
G3 X56.4901 Y16.649 I0.0 J2.298
G3 X55.6317 Y17.5 I-1.9901 J-1.149
G3 X56.4901 Y20.649 I-1.1317 J2.0
G3 X55.6317 Y21.5 I-1.9901 J-1.149
G3 X56.4901 Y24.649 I-1.1317 J2.0
G3 X52.5099 I-1.9901 J-1.149
G3 X52.2069 Y23.6506 I1.9901 J-1.149
G0 Z2.0
G0 X53.5177 Y26.4225
G1 F100.0 Z-0.15
G3 F300.0 X54.5 Y26.202 I0.9823 J2.0775
G3 X56.4901 Y29.649 I0.0 J2.298
G3 X55.6317 Y30.5 I-1.9901 J-1.149
G3 X56.4901 Y33.649 I-1.1317 J2.0
G3 X55.6317 Y34.5 I-1.9901 J-1.149
G3 X56.4901 Y37.649 I-1.1317 J2.0
G3 X52.5099 I-1.9901 J-1.149
G3 X53.3683 Y34.5 I1.9901 J-1.149
G3 X52.5099 Y33.649 I1.1317 J-2.0
G3 X53.3683 Y30.5 I1.9901 J-1.149
G3 X52.5099 Y29.649 I1.1317 J-2.0
G3 X53.5177 Y26.4225 I1.9901 J-1.149
G0 Z2.0
M5
M30
