( Made using CamBam - http://www.cambam.co.uk )
( pcb_esc 3/29/2022 4:39:52 PM )
( T0 : 3.175 )
G21 G90 G40
G0 Z2.0
( T0 : 3.175 )
T0 M6
( 4_drill_end )
G17
M3 S1000
G0 X61.5 Y32.0
G81 X61.5 Y32.0 Z-2.0 R2.0 F100.0
G81 X47.0 Y36.0 Z-2.0
G81 Y16.0 Z-2.0
G81 X27.0 Z-2.0
G81 Y36.0 Z-2.0
G81 X12.5 Y32.0 Z-2.0
G81 X27.0 Y66.0 Z-2.0
G81 Y86.0 Z-2.0
G81 X12.5 Y90.0 Z-2.0
G81 X47.0 Y86.0 Z-2.0
G81 X61.5 Y90.0 Z-2.0
G81 X47.0 Y66.0 Z-2.0
G80
M5
M30
