( Made using CamBam - http://www.cambam.co.uk )
( pcb_esc 3/29/2022 5:27:39 PM )
( T0 : 3.175 )
G21 G90 G40
G0 Z2.0
( T0 : 3.175 )
T0 M6
( 5_free )
G17
M3 S1000
G0 X7.2856 Y11.5
G1 F100.0 Z-0.2
G3 F300.0 X7.2872 Y11.4253 I1.7145 J0.0
G1 X7.2986 Y11.1638
G3 X7.3116 Y11.015 I1.7129 J0.0747
G1 X7.3457 Y10.7556
G3 X7.3718 Y10.6077 I1.6999 J0.2235
G1 X7.4285 Y10.3522
G3 X7.4671 Y10.2082 I1.6738 J0.3714
G1 X7.5458 Y9.9585
G3 X7.597 Y9.8179 I1.6352 J0.5154
G1 X7.6971 Y9.5762
G3 X7.7604 Y9.4404 I1.584 J0.656
G1 X7.8813 Y9.2082
G3 X7.956 Y9.0788 I1.5207 J0.7918
G1 X8.0966 Y8.8581
G3 X8.1822 Y8.7359 I1.446 J0.9212
G1 X8.3415 Y8.5282
G3 X8.438 Y8.4132 I1.3604 J1.0434
G1 X8.6148 Y8.2203
G3 X8.7206 Y8.1145 I1.2639 J1.1584
G1 X8.9136 Y7.9377
G3 X9.028 Y7.8417 I1.1581 J1.2642
G1 X9.2356 Y7.6824
G3 X9.3579 Y7.5967 I1.0437 J1.3602
G1 X9.5787 Y7.456
G3 X9.7086 Y7.3811 I0.9214 J1.4459
G1 X9.9407 Y7.2603
G3 X10.0758 Y7.1972 I0.7915 J1.5208
G1 X10.3176 Y7.097
G3 X10.4584 Y7.0458 I0.6563 J1.5839
G1 X10.708 Y6.9671
G3 X10.8528 Y6.9283 I0.5156 J1.6351
G1 X11.1083 Y6.8717
G3 X11.2551 Y6.8458 I0.3708 J1.6739
G1 X11.5146 Y6.8116
G3 X11.6639 Y6.7985 I0.224 J1.6998
G1 X11.9254 Y6.7871
G3 X12.0001 Y6.7855 I0.0747 J1.7129
G1 X61.9999
G3 X62.0746 Y6.7871 I0.0 J1.7145
G1 X62.3361 Y6.7985
G3 X62.4854 Y6.8116 I-0.0747 J1.7129
G1 X62.7449 Y6.8458
G3 X62.8917 Y6.8717 I-0.224 J1.6998
G1 X63.1472 Y6.9283
G3 X63.292 Y6.9671 I-0.3708 J1.6739
G1 X63.5416 Y7.0458
G3 X63.6824 Y7.097 I-0.5156 J1.6351
G1 X63.9242 Y7.1972
G3 X64.0593 Y7.2603 I-0.6563 J1.5839
G1 X64.2914 Y7.3811
G3 X64.4213 Y7.456 I-0.7915 J1.5208
G1 X64.6421 Y7.5967
G3 X64.7644 Y7.6824 I-0.9214 J1.4459
G1 X64.972 Y7.8417
G3 X65.0864 Y7.9377 I-1.0437 J1.3602
G1 X65.2794 Y8.1145
G3 X65.3852 Y8.2203 I-1.1581 J1.2642
G1 X65.562 Y8.4132
G3 X65.6585 Y8.5282 I-1.2639 J1.1584
G1 X65.8178 Y8.7359
G3 X65.9034 Y8.8581 I-1.3604 J1.0434
G1 X66.044 Y9.0788
G3 X66.1187 Y9.2082 I-1.446 J0.9212
G1 X66.2396 Y9.4404
G3 X66.3029 Y9.5762 I-1.5207 J0.7918
G1 X66.403 Y9.8179
G3 X66.4542 Y9.9585 I-1.584 J0.656
G1 X66.5329 Y10.2082
G3 X66.5715 Y10.3522 I-1.6352 J0.5154
G1 X66.6282 Y10.6077
G3 X66.6543 Y10.7556 I-1.6738 J0.3714
G1 X66.6884 Y11.015
G3 X66.7014 Y11.1638 I-1.6999 J0.2235
G1 X66.7128 Y11.4253
G3 X66.7144 Y11.5 I-1.7129 J0.0747
G1 Y90.5
G3 X66.7128 Y90.5747 I-1.7145 J0.0
G1 X66.7014 Y90.8362
G3 X66.6884 Y90.985 I-1.7129 J-0.0747
G1 X66.6543 Y91.2444
G3 X66.6282 Y91.3923 I-1.6999 J-0.2235
G1 X66.5715 Y91.6478
G3 X66.5329 Y91.7918 I-1.6738 J-0.3714
G1 X66.4542 Y92.0415
G3 X66.403 Y92.1821 I-1.6352 J-0.5154
G1 X66.3029 Y92.4238
G3 X66.2396 Y92.5596 I-1.584 J-0.656
G1 X66.1187 Y92.7918
G3 X66.044 Y92.9212 I-1.5207 J-0.7918
G1 X65.9034 Y93.1419
G3 X65.8178 Y93.2641 I-1.446 J-0.9212
G1 X65.6585 Y93.4718
G3 X65.562 Y93.5868 I-1.3604 J-1.0434
G1 X65.3852 Y93.7797
G3 X65.2794 Y93.8855 I-1.2639 J-1.1584
G1 X65.0864 Y94.0623
G3 X64.972 Y94.1583 I-1.1581 J-1.2642
G1 X64.7644 Y94.3176
G3 X64.6421 Y94.4033 I-1.0437 J-1.3602
G1 X64.4213 Y94.544
G3 X64.2914 Y94.6189 I-0.9214 J-1.4459
G1 X64.0593 Y94.7397
G3 X63.9242 Y94.8028 I-0.7915 J-1.5208
G1 X63.6824 Y94.903
G3 X63.5416 Y94.9542 I-0.6563 J-1.5839
G1 X63.292 Y95.0329
G3 X63.1472 Y95.0717 I-0.5156 J-1.6351
G1 X62.8917 Y95.1283
G3 X62.7449 Y95.1542 I-0.3708 J-1.6739
G1 X62.4854 Y95.1884
G3 X62.3361 Y95.2015 I-0.224 J-1.6998
G1 X62.0746 Y95.2129
G3 X61.9999 Y95.2145 I-0.0747 J-1.7129
G1 X12.0001
G3 X11.9254 Y95.2129 I0.0 J-1.7145
G1 X11.6639 Y95.2015
G3 X11.5146 Y95.1884 I0.0747 J-1.7129
G1 X11.2551 Y95.1542
G3 X11.1083 Y95.1283 I0.224 J-1.6998
G1 X10.8528 Y95.0717
G3 X10.708 Y95.0329 I0.3708 J-1.6739
G1 X10.4584 Y94.9542
G3 X10.3176 Y94.903 I0.5156 J-1.6351
G1 X10.0758 Y94.8028
G3 X9.9407 Y94.7397 I0.6563 J-1.5839
G1 X9.7086 Y94.6189
G3 X9.5787 Y94.544 I0.7915 J-1.5208
G1 X9.3579 Y94.4033
G3 X9.2356 Y94.3176 I0.9214 J-1.4459
G1 X9.028 Y94.1583
G3 X8.9136 Y94.0623 I1.0437 J-1.3602
G1 X8.7206 Y93.8855
G3 X8.6148 Y93.7797 I1.1581 J-1.2642
G1 X8.438 Y93.5868
G3 X8.3415 Y93.4718 I1.2639 J-1.1584
G1 X8.1822 Y93.2641
G3 X8.0966 Y93.1419 I1.3604 J-1.0434
G1 X7.956 Y92.9212
G3 X7.8813 Y92.7918 I1.446 J-0.9212
G1 X7.7604 Y92.5596
G3 X7.6971 Y92.4238 I1.5207 J-0.7918
G1 X7.597 Y92.1821
G3 X7.5458 Y92.0415 I1.584 J-0.656
G1 X7.4671 Y91.7918
G3 X7.4285 Y91.6478 I1.6352 J-0.5154
G1 X7.3718 Y91.3923
G3 X7.3457 Y91.2444 I1.6738 J-0.3714
G1 X7.3116 Y90.985
G3 X7.2986 Y90.8362 I1.6999 J-0.2235
G1 X7.2872 Y90.5747
G3 X7.2856 Y90.5 I1.7129 J-0.0747
G1 Y11.5
G1 F100.0 Z-0.4
G3 F300.0 X7.2872 Y11.4253 I1.7145 J0.0
G1 X7.2986 Y11.1638
G3 X7.3116 Y11.015 I1.7129 J0.0747
G1 X7.3457 Y10.7556
G3 X7.3718 Y10.6077 I1.6999 J0.2235
G1 X7.4285 Y10.3522
G3 X7.4671 Y10.2082 I1.6738 J0.3714
G1 X7.5458 Y9.9585
G3 X7.597 Y9.8179 I1.6352 J0.5154
G1 X7.6971 Y9.5762
G3 X7.7604 Y9.4404 I1.584 J0.656
G1 X7.8813 Y9.2082
G3 X7.956 Y9.0788 I1.5207 J0.7918
G1 X8.0966 Y8.8581
G3 X8.1822 Y8.7359 I1.446 J0.9212
G1 X8.3415 Y8.5282
G3 X8.438 Y8.4132 I1.3604 J1.0434
G1 X8.6148 Y8.2203
G3 X8.7206 Y8.1145 I1.2639 J1.1584
G1 X8.9136 Y7.9377
G3 X9.028 Y7.8417 I1.1581 J1.2642
G1 X9.2356 Y7.6824
G3 X9.3579 Y7.5967 I1.0437 J1.3602
G1 X9.5787 Y7.456
G3 X9.7086 Y7.3811 I0.9214 J1.4459
G1 X9.9407 Y7.2603
G3 X10.0758 Y7.1972 I0.7915 J1.5208
G1 X10.3176 Y7.097
G3 X10.4584 Y7.0458 I0.6563 J1.5839
G1 X10.708 Y6.9671
G3 X10.8528 Y6.9283 I0.5156 J1.6351
G1 X11.1083 Y6.8717
G3 X11.2551 Y6.8458 I0.3708 J1.6739
G1 X11.5146 Y6.8116
G3 X11.6639 Y6.7985 I0.224 J1.6998
G1 X11.9254 Y6.7871
G3 X12.0001 Y6.7855 I0.0747 J1.7129
G1 X61.9999
G3 X62.0746 Y6.7871 I0.0 J1.7145
G1 X62.3361 Y6.7985
G3 X62.4854 Y6.8116 I-0.0747 J1.7129
G1 X62.7449 Y6.8458
G3 X62.8917 Y6.8717 I-0.224 J1.6998
G1 X63.1472 Y6.9283
G3 X63.292 Y6.9671 I-0.3708 J1.6739
G1 X63.5416 Y7.0458
G3 X63.6824 Y7.097 I-0.5156 J1.6351
G1 X63.9242 Y7.1972
G3 X64.0593 Y7.2603 I-0.6563 J1.5839
G1 X64.2914 Y7.3811
G3 X64.4213 Y7.456 I-0.7915 J1.5208
G1 X64.6421 Y7.5967
G3 X64.7644 Y7.6824 I-0.9214 J1.4459
G1 X64.972 Y7.8417
G3 X65.0864 Y7.9377 I-1.0437 J1.3602
G1 X65.2794 Y8.1145
G3 X65.3852 Y8.2203 I-1.1581 J1.2642
G1 X65.562 Y8.4132
G3 X65.6585 Y8.5282 I-1.2639 J1.1584
G1 X65.8178 Y8.7359
G3 X65.9034 Y8.8581 I-1.3604 J1.0434
G1 X66.044 Y9.0788
G3 X66.1187 Y9.2082 I-1.446 J0.9212
G1 X66.2396 Y9.4404
G3 X66.3029 Y9.5762 I-1.5207 J0.7918
G1 X66.403 Y9.8179
G3 X66.4542 Y9.9585 I-1.584 J0.656
G1 X66.5329 Y10.2082
G3 X66.5715 Y10.3522 I-1.6352 J0.5154
G1 X66.6282 Y10.6077
G3 X66.6543 Y10.7556 I-1.6738 J0.3714
G1 X66.6884 Y11.015
G3 X66.7014 Y11.1638 I-1.6999 J0.2235
G1 X66.7128 Y11.4253
G3 X66.7144 Y11.5 I-1.7129 J0.0747
G1 Y90.5
G3 X66.7128 Y90.5747 I-1.7145 J0.0
G1 X66.7014 Y90.8362
G3 X66.6884 Y90.985 I-1.7129 J-0.0747
G1 X66.6543 Y91.2444
G3 X66.6282 Y91.3923 I-1.6999 J-0.2235
G1 X66.5715 Y91.6478
G3 X66.5329 Y91.7918 I-1.6738 J-0.3714
G1 X66.4542 Y92.0415
G3 X66.403 Y92.1821 I-1.6352 J-0.5154
G1 X66.3029 Y92.4238
G3 X66.2396 Y92.5596 I-1.584 J-0.656
G1 X66.1187 Y92.7918
G3 X66.044 Y92.9212 I-1.5207 J-0.7918
G1 X65.9034 Y93.1419
G3 X65.8178 Y93.2641 I-1.446 J-0.9212
G1 X65.6585 Y93.4718
G3 X65.562 Y93.5868 I-1.3604 J-1.0434
G1 X65.3852 Y93.7797
G3 X65.2794 Y93.8855 I-1.2639 J-1.1584
G1 X65.0864 Y94.0623
G3 X64.972 Y94.1583 I-1.1581 J-1.2642
G1 X64.7644 Y94.3176
G3 X64.6421 Y94.4033 I-1.0437 J-1.3602
G1 X64.4213 Y94.544
G3 X64.2914 Y94.6189 I-0.9214 J-1.4459
G1 X64.0593 Y94.7397
G3 X63.9242 Y94.8028 I-0.7915 J-1.5208
G1 X63.6824 Y94.903
G3 X63.5416 Y94.9542 I-0.6563 J-1.5839
G1 X63.292 Y95.0329
G3 X63.1472 Y95.0717 I-0.5156 J-1.6351
G1 X62.8917 Y95.1283
G3 X62.7449 Y95.1542 I-0.3708 J-1.6739
G1 X62.4854 Y95.1884
G3 X62.3361 Y95.2015 I-0.224 J-1.6998
G1 X62.0746 Y95.2129
G3 X61.9999 Y95.2145 I-0.0747 J-1.7129
G1 X12.0001
G3 X11.9254 Y95.2129 I0.0 J-1.7145
G1 X11.6639 Y95.2015
G3 X11.5146 Y95.1884 I0.0747 J-1.7129
G1 X11.2551 Y95.1542
G3 X11.1083 Y95.1283 I0.224 J-1.6998
G1 X10.8528 Y95.0717
G3 X10.708 Y95.0329 I0.3708 J-1.6739
G1 X10.4584 Y94.9542
G3 X10.3176 Y94.903 I0.5156 J-1.6351
G1 X10.0758 Y94.8028
G3 X9.9407 Y94.7397 I0.6563 J-1.5839
G1 X9.7086 Y94.6189
G3 X9.5787 Y94.544 I0.7915 J-1.5208
G1 X9.3579 Y94.4033
G3 X9.2356 Y94.3176 I0.9214 J-1.4459
G1 X9.028 Y94.1583
G3 X8.9136 Y94.0623 I1.0437 J-1.3602
G1 X8.7206 Y93.8855
G3 X8.6148 Y93.7797 I1.1581 J-1.2642
G1 X8.438 Y93.5868
G3 X8.3415 Y93.4718 I1.2639 J-1.1584
G1 X8.1822 Y93.2641
G3 X8.0966 Y93.1419 I1.3604 J-1.0434
G1 X7.956 Y92.9212
G3 X7.8813 Y92.7918 I1.446 J-0.9212
G1 X7.7604 Y92.5596
G3 X7.6971 Y92.4238 I1.5207 J-0.7918
G1 X7.597 Y92.1821
G3 X7.5458 Y92.0415 I1.584 J-0.656
G1 X7.4671 Y91.7918
G3 X7.4285 Y91.6478 I1.6352 J-0.5154
G1 X7.3718 Y91.3923
G3 X7.3457 Y91.2444 I1.6738 J-0.3714
G1 X7.3116 Y90.985
G3 X7.2986 Y90.8362 I1.6999 J-0.2235
G1 X7.2872 Y90.5747
G3 X7.2856 Y90.5 I1.7129 J-0.0747
G1 Y11.5
G1 F100.0 Z-0.6
G3 F300.0 X7.2872 Y11.4253 I1.7145 J0.0
G1 X7.2986 Y11.1638
G3 X7.3116 Y11.015 I1.7129 J0.0747
G1 X7.3457 Y10.7556
G3 X7.3718 Y10.6077 I1.6999 J0.2235
G1 X7.4285 Y10.3522
G3 X7.4671 Y10.2082 I1.6738 J0.3714
G1 X7.5458 Y9.9585
G3 X7.597 Y9.8179 I1.6352 J0.5154
G1 X7.6971 Y9.5762
G3 X7.7604 Y9.4404 I1.584 J0.656
G1 X7.8813 Y9.2082
G3 X7.956 Y9.0788 I1.5207 J0.7918
G1 X8.0966 Y8.8581
G3 X8.1822 Y8.7359 I1.446 J0.9212
G1 X8.3415 Y8.5282
G3 X8.438 Y8.4132 I1.3604 J1.0434
G1 X8.6148 Y8.2203
G3 X8.7206 Y8.1145 I1.2639 J1.1584
G1 X8.9136 Y7.9377
G3 X9.028 Y7.8417 I1.1581 J1.2642
G1 X9.2356 Y7.6824
G3 X9.3579 Y7.5967 I1.0437 J1.3602
G1 X9.5787 Y7.456
G3 X9.7086 Y7.3811 I0.9214 J1.4459
G1 X9.9407 Y7.2603
G3 X10.0758 Y7.1972 I0.7915 J1.5208
G1 X10.3176 Y7.097
G3 X10.4584 Y7.0458 I0.6563 J1.5839
G1 X10.708 Y6.9671
G3 X10.8528 Y6.9283 I0.5156 J1.6351
G1 X11.1083 Y6.8717
G3 X11.2551 Y6.8458 I0.3708 J1.6739
G1 X11.5146 Y6.8116
G3 X11.6639 Y6.7985 I0.224 J1.6998
G1 X11.9254 Y6.7871
G3 X12.0001 Y6.7855 I0.0747 J1.7129
G1 X61.9999
G3 X62.0746 Y6.7871 I0.0 J1.7145
G1 X62.3361 Y6.7985
G3 X62.4854 Y6.8116 I-0.0747 J1.7129
G1 X62.7449 Y6.8458
G3 X62.8917 Y6.8717 I-0.224 J1.6998
G1 X63.1472 Y6.9283
G3 X63.292 Y6.9671 I-0.3708 J1.6739
G1 X63.5416 Y7.0458
G3 X63.6824 Y7.097 I-0.5156 J1.6351
G1 X63.9242 Y7.1972
G3 X64.0593 Y7.2603 I-0.6563 J1.5839
G1 X64.2914 Y7.3811
G3 X64.4213 Y7.456 I-0.7915 J1.5208
G1 X64.6421 Y7.5967
G3 X64.7644 Y7.6824 I-0.9214 J1.4459
G1 X64.972 Y7.8417
G3 X65.0864 Y7.9377 I-1.0437 J1.3602
G1 X65.2794 Y8.1145
G3 X65.3852 Y8.2203 I-1.1581 J1.2642
G1 X65.562 Y8.4132
G3 X65.6585 Y8.5282 I-1.2639 J1.1584
G1 X65.8178 Y8.7359
G3 X65.9034 Y8.8581 I-1.3604 J1.0434
G1 X66.044 Y9.0788
G3 X66.1187 Y9.2082 I-1.446 J0.9212
G1 X66.2396 Y9.4404
G3 X66.3029 Y9.5762 I-1.5207 J0.7918
G1 X66.403 Y9.8179
G3 X66.4542 Y9.9585 I-1.584 J0.656
G1 X66.5329 Y10.2082
G3 X66.5715 Y10.3522 I-1.6352 J0.5154
G1 X66.6282 Y10.6077
G3 X66.6543 Y10.7556 I-1.6738 J0.3714
G1 X66.6884 Y11.015
G3 X66.7014 Y11.1638 I-1.6999 J0.2235
G1 X66.7128 Y11.4253
G3 X66.7144 Y11.5 I-1.7129 J0.0747
G1 Y90.5
G3 X66.7128 Y90.5747 I-1.7145 J0.0
G1 X66.7014 Y90.8362
G3 X66.6884 Y90.985 I-1.7129 J-0.0747
G1 X66.6543 Y91.2444
G3 X66.6282 Y91.3923 I-1.6999 J-0.2235
G1 X66.5715 Y91.6478
G3 X66.5329 Y91.7918 I-1.6738 J-0.3714
G1 X66.4542 Y92.0415
G3 X66.403 Y92.1821 I-1.6352 J-0.5154
G1 X66.3029 Y92.4238
G3 X66.2396 Y92.5596 I-1.584 J-0.656
G1 X66.1187 Y92.7918
G3 X66.044 Y92.9212 I-1.5207 J-0.7918
G1 X65.9034 Y93.1419
G3 X65.8178 Y93.2641 I-1.446 J-0.9212
G1 X65.6585 Y93.4718
G3 X65.562 Y93.5868 I-1.3604 J-1.0434
G1 X65.3852 Y93.7797
G3 X65.2794 Y93.8855 I-1.2639 J-1.1584
G1 X65.0864 Y94.0623
G3 X64.972 Y94.1583 I-1.1581 J-1.2642
G1 X64.7644 Y94.3176
G3 X64.6421 Y94.4033 I-1.0437 J-1.3602
G1 X64.4213 Y94.544
G3 X64.2914 Y94.6189 I-0.9214 J-1.4459
G1 X64.0593 Y94.7397
G3 X63.9242 Y94.8028 I-0.7915 J-1.5208
G1 X63.6824 Y94.903
G3 X63.5416 Y94.9542 I-0.6563 J-1.5839
G1 X63.292 Y95.0329
G3 X63.1472 Y95.0717 I-0.5156 J-1.6351
G1 X62.8917 Y95.1283
G3 X62.7449 Y95.1542 I-0.3708 J-1.6739
G1 X62.4854 Y95.1884
G3 X62.3361 Y95.2015 I-0.224 J-1.6998
G1 X62.0746 Y95.2129
G3 X61.9999 Y95.2145 I-0.0747 J-1.7129
G1 X12.0001
G3 X11.9254 Y95.2129 I0.0 J-1.7145
G1 X11.6639 Y95.2015
G3 X11.5146 Y95.1884 I0.0747 J-1.7129
G1 X11.2551 Y95.1542
G3 X11.1083 Y95.1283 I0.224 J-1.6998
G1 X10.8528 Y95.0717
G3 X10.708 Y95.0329 I0.3708 J-1.6739
G1 X10.4584 Y94.9542
G3 X10.3176 Y94.903 I0.5156 J-1.6351
G1 X10.0758 Y94.8028
G3 X9.9407 Y94.7397 I0.6563 J-1.5839
G1 X9.7086 Y94.6189
G3 X9.5787 Y94.544 I0.7915 J-1.5208
G1 X9.3579 Y94.4033
G3 X9.2356 Y94.3176 I0.9214 J-1.4459
G1 X9.028 Y94.1583
G3 X8.9136 Y94.0623 I1.0437 J-1.3602
G1 X8.7206 Y93.8855
G3 X8.6148 Y93.7797 I1.1581 J-1.2642
G1 X8.438 Y93.5868
G3 X8.3415 Y93.4718 I1.2639 J-1.1584
G1 X8.1822 Y93.2641
G3 X8.0966 Y93.1419 I1.3604 J-1.0434
G1 X7.956 Y92.9212
G3 X7.8813 Y92.7918 I1.446 J-0.9212
G1 X7.7604 Y92.5596
G3 X7.6971 Y92.4238 I1.5207 J-0.7918
G1 X7.597 Y92.1821
G3 X7.5458 Y92.0415 I1.584 J-0.656
G1 X7.4671 Y91.7918
G3 X7.4285 Y91.6478 I1.6352 J-0.5154
G1 X7.3718 Y91.3923
G3 X7.3457 Y91.2444 I1.6738 J-0.3714
G1 X7.3116 Y90.985
G3 X7.2986 Y90.8362 I1.6999 J-0.2235
G1 X7.2872 Y90.5747
G3 X7.2856 Y90.5 I1.7129 J-0.0747
G1 Y11.5
G1 F100.0 Z-0.8
G3 F300.0 X7.2872 Y11.4253 I1.7145 J0.0
G1 X7.2986 Y11.1638
G3 X7.3116 Y11.015 I1.7129 J0.0747
G1 X7.3457 Y10.7556
G3 X7.3718 Y10.6077 I1.6999 J0.2235
G1 X7.4285 Y10.3522
G3 X7.4671 Y10.2082 I1.6738 J0.3714
G1 X7.5458 Y9.9585
G3 X7.597 Y9.8179 I1.6352 J0.5154
G1 X7.6971 Y9.5762
G3 X7.7604 Y9.4404 I1.584 J0.656
G1 X7.8813 Y9.2082
G3 X7.956 Y9.0788 I1.5207 J0.7918
G1 X8.0966 Y8.8581
G3 X8.1822 Y8.7359 I1.446 J0.9212
G1 X8.3415 Y8.5282
G3 X8.438 Y8.4132 I1.3604 J1.0434
G1 X8.6148 Y8.2203
G3 X8.7206 Y8.1145 I1.2639 J1.1584
G1 X8.9136 Y7.9377
G3 X9.028 Y7.8417 I1.1581 J1.2642
G1 X9.2356 Y7.6824
G3 X9.3579 Y7.5967 I1.0437 J1.3602
G1 X9.5787 Y7.456
G3 X9.7086 Y7.3811 I0.9214 J1.4459
G1 X9.9407 Y7.2603
G3 X10.0758 Y7.1972 I0.7915 J1.5208
G1 X10.3176 Y7.097
G3 X10.4584 Y7.0458 I0.6563 J1.5839
G1 X10.708 Y6.9671
G3 X10.8528 Y6.9283 I0.5156 J1.6351
G1 X11.1083 Y6.8717
G3 X11.2551 Y6.8458 I0.3708 J1.6739
G1 X11.5146 Y6.8116
G3 X11.6639 Y6.7985 I0.224 J1.6998
G1 X11.9254 Y6.7871
G3 X12.0001 Y6.7855 I0.0747 J1.7129
G1 X61.9999
G3 X62.0746 Y6.7871 I0.0 J1.7145
G1 X62.3361 Y6.7985
G3 X62.4854 Y6.8116 I-0.0747 J1.7129
G1 X62.7449 Y6.8458
G3 X62.8917 Y6.8717 I-0.224 J1.6998
G1 X63.1472 Y6.9283
G3 X63.292 Y6.9671 I-0.3708 J1.6739
G1 X63.5416 Y7.0458
G3 X63.6824 Y7.097 I-0.5156 J1.6351
G1 X63.9242 Y7.1972
G3 X64.0593 Y7.2603 I-0.6563 J1.5839
G1 X64.2914 Y7.3811
G3 X64.4213 Y7.456 I-0.7915 J1.5208
G1 X64.6421 Y7.5967
G3 X64.7644 Y7.6824 I-0.9214 J1.4459
G1 X64.972 Y7.8417
G3 X65.0864 Y7.9377 I-1.0437 J1.3602
G1 X65.2794 Y8.1145
G3 X65.3852 Y8.2203 I-1.1581 J1.2642
G1 X65.562 Y8.4132
G3 X65.6585 Y8.5282 I-1.2639 J1.1584
G1 X65.8178 Y8.7359
G3 X65.9034 Y8.8581 I-1.3604 J1.0434
G1 X66.044 Y9.0788
G3 X66.1187 Y9.2082 I-1.446 J0.9212
G1 X66.2396 Y9.4404
G3 X66.3029 Y9.5762 I-1.5207 J0.7918
G1 X66.403 Y9.8179
G3 X66.4542 Y9.9585 I-1.584 J0.656
G1 X66.5329 Y10.2082
G3 X66.5715 Y10.3522 I-1.6352 J0.5154
G1 X66.6282 Y10.6077
G3 X66.6543 Y10.7556 I-1.6738 J0.3714
G1 X66.6884 Y11.015
G3 X66.7014 Y11.1638 I-1.6999 J0.2235
G1 X66.7128 Y11.4253
G3 X66.7144 Y11.5 I-1.7129 J0.0747
G1 Y90.5
G3 X66.7128 Y90.5747 I-1.7145 J0.0
G1 X66.7014 Y90.8362
G3 X66.6884 Y90.985 I-1.7129 J-0.0747
G1 X66.6543 Y91.2444
G3 X66.6282 Y91.3923 I-1.6999 J-0.2235
G1 X66.5715 Y91.6478
G3 X66.5329 Y91.7918 I-1.6738 J-0.3714
G1 X66.4542 Y92.0415
G3 X66.403 Y92.1821 I-1.6352 J-0.5154
G1 X66.3029 Y92.4238
G3 X66.2396 Y92.5596 I-1.584 J-0.656
G1 X66.1187 Y92.7918
G3 X66.044 Y92.9212 I-1.5207 J-0.7918
G1 X65.9034 Y93.1419
G3 X65.8178 Y93.2641 I-1.446 J-0.9212
G1 X65.6585 Y93.4718
G3 X65.562 Y93.5868 I-1.3604 J-1.0434
G1 X65.3852 Y93.7797
G3 X65.2794 Y93.8855 I-1.2639 J-1.1584
G1 X65.0864 Y94.0623
G3 X64.972 Y94.1583 I-1.1581 J-1.2642
G1 X64.7644 Y94.3176
G3 X64.6421 Y94.4033 I-1.0437 J-1.3602
G1 X64.4213 Y94.544
G3 X64.2914 Y94.6189 I-0.9214 J-1.4459
G1 X64.0593 Y94.7397
G3 X63.9242 Y94.8028 I-0.7915 J-1.5208
G1 X63.6824 Y94.903
G3 X63.5416 Y94.9542 I-0.6563 J-1.5839
G1 X63.292 Y95.0329
G3 X63.1472 Y95.0717 I-0.5156 J-1.6351
G1 X62.8917 Y95.1283
G3 X62.7449 Y95.1542 I-0.3708 J-1.6739
G1 X62.4854 Y95.1884
G3 X62.3361 Y95.2015 I-0.224 J-1.6998
G1 X62.0746 Y95.2129
G3 X61.9999 Y95.2145 I-0.0747 J-1.7129
G1 X12.0001
G3 X11.9254 Y95.2129 I0.0 J-1.7145
G1 X11.6639 Y95.2015
G3 X11.5146 Y95.1884 I0.0747 J-1.7129
G1 X11.2551 Y95.1542
G3 X11.1083 Y95.1283 I0.224 J-1.6998
G1 X10.8528 Y95.0717
G3 X10.708 Y95.0329 I0.3708 J-1.6739
G1 X10.4584 Y94.9542
G3 X10.3176 Y94.903 I0.5156 J-1.6351
G1 X10.0758 Y94.8028
G3 X9.9407 Y94.7397 I0.6563 J-1.5839
G1 X9.7086 Y94.6189
G3 X9.5787 Y94.544 I0.7915 J-1.5208
G1 X9.3579 Y94.4033
G3 X9.2356 Y94.3176 I0.9214 J-1.4459
G1 X9.028 Y94.1583
G3 X8.9136 Y94.0623 I1.0437 J-1.3602
G1 X8.7206 Y93.8855
G3 X8.6148 Y93.7797 I1.1581 J-1.2642
G1 X8.438 Y93.5868
G3 X8.3415 Y93.4718 I1.2639 J-1.1584
G1 X8.1822 Y93.2641
G3 X8.0966 Y93.1419 I1.3604 J-1.0434
G1 X7.956 Y92.9212
G3 X7.8813 Y92.7918 I1.446 J-0.9212
G1 X7.7604 Y92.5596
G3 X7.6971 Y92.4238 I1.5207 J-0.7918
G1 X7.597 Y92.1821
G3 X7.5458 Y92.0415 I1.584 J-0.656
G1 X7.4671 Y91.7918
G3 X7.4285 Y91.6478 I1.6352 J-0.5154
G1 X7.3718 Y91.3923
G3 X7.3457 Y91.2444 I1.6738 J-0.3714
G1 X7.3116 Y90.985
G3 X7.2986 Y90.8362 I1.6999 J-0.2235
G1 X7.2872 Y90.5747
G3 X7.2856 Y90.5 I1.7129 J-0.0747
G1 Y11.5
G1 F100.0 Z-1.0
G3 F300.0 X7.2872 Y11.4253 I1.7145 J0.0
G1 X7.2986 Y11.1638
G3 X7.3116 Y11.015 I1.7129 J0.0747
G1 X7.3457 Y10.7556
G3 X7.3718 Y10.6077 I1.6999 J0.2235
G1 X7.4285 Y10.3522
G3 X7.4671 Y10.2082 I1.6738 J0.3714
G1 X7.5458 Y9.9585
G3 X7.597 Y9.8179 I1.6352 J0.5154
G1 X7.6971 Y9.5762
G3 X7.7604 Y9.4404 I1.584 J0.656
G1 X7.8813 Y9.2082
G3 X7.956 Y9.0788 I1.5207 J0.7918
G1 X8.0966 Y8.8581
G3 X8.1822 Y8.7359 I1.446 J0.9212
G1 X8.3415 Y8.5282
G3 X8.438 Y8.4132 I1.3604 J1.0434
G1 X8.6148 Y8.2203
G3 X8.7206 Y8.1145 I1.2639 J1.1584
G1 X8.9136 Y7.9377
G3 X9.028 Y7.8417 I1.1581 J1.2642
G1 X9.2356 Y7.6824
G3 X9.3579 Y7.5967 I1.0437 J1.3602
G1 X9.5787 Y7.456
G3 X9.7086 Y7.3811 I0.9214 J1.4459
G1 X9.9407 Y7.2603
G3 X10.0758 Y7.1972 I0.7915 J1.5208
G1 X10.3176 Y7.097
G3 X10.4584 Y7.0458 I0.6563 J1.5839
G1 X10.708 Y6.9671
G3 X10.8528 Y6.9283 I0.5156 J1.6351
G1 X11.1083 Y6.8717
G3 X11.2551 Y6.8458 I0.3708 J1.6739
G1 X11.5146 Y6.8116
G3 X11.6639 Y6.7985 I0.224 J1.6998
G1 X11.9254 Y6.7871
G3 X12.0001 Y6.7855 I0.0747 J1.7129
G1 X61.9999
G3 X62.0746 Y6.7871 I0.0 J1.7145
G1 X62.3361 Y6.7985
G3 X62.4854 Y6.8116 I-0.0747 J1.7129
G1 X62.7449 Y6.8458
G3 X62.8917 Y6.8717 I-0.224 J1.6998
G1 X63.1472 Y6.9283
G3 X63.292 Y6.9671 I-0.3708 J1.6739
G1 X63.5416 Y7.0458
G3 X63.6824 Y7.097 I-0.5156 J1.6351
G1 X63.9242 Y7.1972
G3 X64.0593 Y7.2603 I-0.6563 J1.5839
G1 X64.2914 Y7.3811
G3 X64.4213 Y7.456 I-0.7915 J1.5208
G1 X64.6421 Y7.5967
G3 X64.7644 Y7.6824 I-0.9214 J1.4459
G1 X64.972 Y7.8417
G3 X65.0864 Y7.9377 I-1.0437 J1.3602
G1 X65.2794 Y8.1145
G3 X65.3852 Y8.2203 I-1.1581 J1.2642
G1 X65.562 Y8.4132
G3 X65.6585 Y8.5282 I-1.2639 J1.1584
G1 X65.8178 Y8.7359
G3 X65.9034 Y8.8581 I-1.3604 J1.0434
G1 X66.044 Y9.0788
G3 X66.1187 Y9.2082 I-1.446 J0.9212
G1 X66.2396 Y9.4404
G3 X66.3029 Y9.5762 I-1.5207 J0.7918
G1 X66.403 Y9.8179
G3 X66.4542 Y9.9585 I-1.584 J0.656
G1 X66.5329 Y10.2082
G3 X66.5715 Y10.3522 I-1.6352 J0.5154
G1 X66.6282 Y10.6077
G3 X66.6543 Y10.7556 I-1.6738 J0.3714
G1 X66.6884 Y11.015
G3 X66.7014 Y11.1638 I-1.6999 J0.2235
G1 X66.7128 Y11.4253
G3 X66.7144 Y11.5 I-1.7129 J0.0747
G1 Y90.5
G3 X66.7128 Y90.5747 I-1.7145 J0.0
G1 X66.7014 Y90.8362
G3 X66.6884 Y90.985 I-1.7129 J-0.0747
G1 X66.6543 Y91.2444
G3 X66.6282 Y91.3923 I-1.6999 J-0.2235
G1 X66.5715 Y91.6478
G3 X66.5329 Y91.7918 I-1.6738 J-0.3714
G1 X66.4542 Y92.0415
G3 X66.403 Y92.1821 I-1.6352 J-0.5154
G1 X66.3029 Y92.4238
G3 X66.2396 Y92.5596 I-1.584 J-0.656
G1 X66.1187 Y92.7918
G3 X66.044 Y92.9212 I-1.5207 J-0.7918
G1 X65.9034 Y93.1419
G3 X65.8178 Y93.2641 I-1.446 J-0.9212
G1 X65.6585 Y93.4718
G3 X65.562 Y93.5868 I-1.3604 J-1.0434
G1 X65.3852 Y93.7797
G3 X65.2794 Y93.8855 I-1.2639 J-1.1584
G1 X65.0864 Y94.0623
G3 X64.972 Y94.1583 I-1.1581 J-1.2642
G1 X64.7644 Y94.3176
G3 X64.6421 Y94.4033 I-1.0437 J-1.3602
G1 X64.4213 Y94.544
G3 X64.2914 Y94.6189 I-0.9214 J-1.4459
G1 X64.0593 Y94.7397
G3 X63.9242 Y94.8028 I-0.7915 J-1.5208
G1 X63.6824 Y94.903
G3 X63.5416 Y94.9542 I-0.6563 J-1.5839
G1 X63.292 Y95.0329
G3 X63.1472 Y95.0717 I-0.5156 J-1.6351
G1 X62.8917 Y95.1283
G3 X62.7449 Y95.1542 I-0.3708 J-1.6739
G1 X62.4854 Y95.1884
G3 X62.3361 Y95.2015 I-0.224 J-1.6998
G1 X62.0746 Y95.2129
G3 X61.9999 Y95.2145 I-0.0747 J-1.7129
G1 X12.0001
G3 X11.9254 Y95.2129 I0.0 J-1.7145
G1 X11.6639 Y95.2015
G3 X11.5146 Y95.1884 I0.0747 J-1.7129
G1 X11.2551 Y95.1542
G3 X11.1083 Y95.1283 I0.224 J-1.6998
G1 X10.8528 Y95.0717
G3 X10.708 Y95.0329 I0.3708 J-1.6739
G1 X10.4584 Y94.9542
G3 X10.3176 Y94.903 I0.5156 J-1.6351
G1 X10.0758 Y94.8028
G3 X9.9407 Y94.7397 I0.6563 J-1.5839
G1 X9.7086 Y94.6189
G3 X9.5787 Y94.544 I0.7915 J-1.5208
G1 X9.3579 Y94.4033
G3 X9.2356 Y94.3176 I0.9214 J-1.4459
G1 X9.028 Y94.1583
G3 X8.9136 Y94.0623 I1.0437 J-1.3602
G1 X8.7206 Y93.8855
G3 X8.6148 Y93.7797 I1.1581 J-1.2642
G1 X8.438 Y93.5868
G3 X8.3415 Y93.4718 I1.2639 J-1.1584
G1 X8.1822 Y93.2641
G3 X8.0966 Y93.1419 I1.3604 J-1.0434
G1 X7.956 Y92.9212
G3 X7.8813 Y92.7918 I1.446 J-0.9212
G1 X7.7604 Y92.5596
G3 X7.6971 Y92.4238 I1.5207 J-0.7918
G1 X7.597 Y92.1821
G3 X7.5458 Y92.0415 I1.584 J-0.656
G1 X7.4671 Y91.7918
G3 X7.4285 Y91.6478 I1.6352 J-0.5154
G1 X7.3718 Y91.3923
G3 X7.3457 Y91.2444 I1.6738 J-0.3714
G1 X7.3116 Y90.985
G3 X7.2986 Y90.8362 I1.6999 J-0.2235
G1 X7.2872 Y90.5747
G3 X7.2856 Y90.5 I1.7129 J-0.0747
G1 Y11.5
G1 F100.0 Z-1.2
G3 F300.0 X7.2872 Y11.4253 I1.7145 J0.0
G1 X7.2986 Y11.1638
G3 X7.3116 Y11.015 I1.7129 J0.0747
G1 X7.3457 Y10.7556
G3 X7.3718 Y10.6077 I1.6999 J0.2235
G1 X7.4285 Y10.3522
G3 X7.4671 Y10.2082 I1.6738 J0.3714
G1 X7.5458 Y9.9585
G3 X7.597 Y9.8179 I1.6352 J0.5154
G1 X7.6971 Y9.5762
G3 X7.7604 Y9.4404 I1.584 J0.656
G1 X7.8813 Y9.2082
G3 X7.956 Y9.0788 I1.5207 J0.7918
G1 X8.0966 Y8.8581
G3 X8.1822 Y8.7359 I1.446 J0.9212
G1 X8.3415 Y8.5282
G3 X8.438 Y8.4132 I1.3604 J1.0434
G1 X8.6148 Y8.2203
G3 X8.7206 Y8.1145 I1.2639 J1.1584
G1 X8.9136 Y7.9377
G3 X9.028 Y7.8417 I1.1581 J1.2642
G1 X9.2356 Y7.6824
G3 X9.3579 Y7.5967 I1.0437 J1.3602
G1 X9.5787 Y7.456
G3 X9.7086 Y7.3811 I0.9214 J1.4459
G1 X9.9407 Y7.2603
G3 X10.0758 Y7.1972 I0.7915 J1.5208
G1 X10.3176 Y7.097
G3 X10.4584 Y7.0458 I0.6563 J1.5839
G1 X10.708 Y6.9671
G3 X10.8528 Y6.9283 I0.5156 J1.6351
G1 X11.1083 Y6.8717
G3 X11.2551 Y6.8458 I0.3708 J1.6739
G1 X11.5146 Y6.8116
G3 X11.6639 Y6.7985 I0.224 J1.6998
G1 X11.9254 Y6.7871
G3 X12.0001 Y6.7855 I0.0747 J1.7129
G1 X61.9999
G3 X62.0746 Y6.7871 I0.0 J1.7145
G1 X62.3361 Y6.7985
G3 X62.4854 Y6.8116 I-0.0747 J1.7129
G1 X62.7449 Y6.8458
G3 X62.8917 Y6.8717 I-0.224 J1.6998
G1 X63.1472 Y6.9283
G3 X63.292 Y6.9671 I-0.3708 J1.6739
G1 X63.5416 Y7.0458
G3 X63.6824 Y7.097 I-0.5156 J1.6351
G1 X63.9242 Y7.1972
G3 X64.0593 Y7.2603 I-0.6563 J1.5839
G1 X64.2914 Y7.3811
G3 X64.4213 Y7.456 I-0.7915 J1.5208
G1 X64.6421 Y7.5967
G3 X64.7644 Y7.6824 I-0.9214 J1.4459
G1 X64.972 Y7.8417
G3 X65.0864 Y7.9377 I-1.0437 J1.3602
G1 X65.2794 Y8.1145
G3 X65.3852 Y8.2203 I-1.1581 J1.2642
G1 X65.562 Y8.4132
G3 X65.6585 Y8.5282 I-1.2639 J1.1584
G1 X65.8178 Y8.7359
G3 X65.9034 Y8.8581 I-1.3604 J1.0434
G1 X66.044 Y9.0788
G3 X66.1187 Y9.2082 I-1.446 J0.9212
G1 X66.2396 Y9.4404
G3 X66.3029 Y9.5762 I-1.5207 J0.7918
G1 X66.403 Y9.8179
G3 X66.4542 Y9.9585 I-1.584 J0.656
G1 X66.5329 Y10.2082
G3 X66.5715 Y10.3522 I-1.6352 J0.5154
G1 X66.6282 Y10.6077
G3 X66.6543 Y10.7556 I-1.6738 J0.3714
G1 X66.6884 Y11.015
G3 X66.7014 Y11.1638 I-1.6999 J0.2235
G1 X66.7128 Y11.4253
G3 X66.7144 Y11.5 I-1.7129 J0.0747
G1 Y90.5
G3 X66.7128 Y90.5747 I-1.7145 J0.0
G1 X66.7014 Y90.8362
G3 X66.6884 Y90.985 I-1.7129 J-0.0747
G1 X66.6543 Y91.2444
G3 X66.6282 Y91.3923 I-1.6999 J-0.2235
G1 X66.5715 Y91.6478
G3 X66.5329 Y91.7918 I-1.6738 J-0.3714
G1 X66.4542 Y92.0415
G3 X66.403 Y92.1821 I-1.6352 J-0.5154
G1 X66.3029 Y92.4238
G3 X66.2396 Y92.5596 I-1.584 J-0.656
G1 X66.1187 Y92.7918
G3 X66.044 Y92.9212 I-1.5207 J-0.7918
G1 X65.9034 Y93.1419
G3 X65.8178 Y93.2641 I-1.446 J-0.9212
G1 X65.6585 Y93.4718
G3 X65.562 Y93.5868 I-1.3604 J-1.0434
G1 X65.3852 Y93.7797
G3 X65.2794 Y93.8855 I-1.2639 J-1.1584
G1 X65.0864 Y94.0623
G3 X64.972 Y94.1583 I-1.1581 J-1.2642
G1 X64.7644 Y94.3176
G3 X64.6421 Y94.4033 I-1.0437 J-1.3602
G1 X64.4213 Y94.544
G3 X64.2914 Y94.6189 I-0.9214 J-1.4459
G1 X64.0593 Y94.7397
G3 X63.9242 Y94.8028 I-0.7915 J-1.5208
G1 X63.6824 Y94.903
G3 X63.5416 Y94.9542 I-0.6563 J-1.5839
G1 X63.292 Y95.0329
G3 X63.1472 Y95.0717 I-0.5156 J-1.6351
G1 X62.8917 Y95.1283
G3 X62.7449 Y95.1542 I-0.3708 J-1.6739
G1 X62.4854 Y95.1884
G3 X62.3361 Y95.2015 I-0.224 J-1.6998
G1 X62.0746 Y95.2129
G3 X61.9999 Y95.2145 I-0.0747 J-1.7129
G1 X12.0001
G3 X11.9254 Y95.2129 I0.0 J-1.7145
G1 X11.6639 Y95.2015
G3 X11.5146 Y95.1884 I0.0747 J-1.7129
G1 X11.2551 Y95.1542
G3 X11.1083 Y95.1283 I0.224 J-1.6998
G1 X10.8528 Y95.0717
G3 X10.708 Y95.0329 I0.3708 J-1.6739
G1 X10.4584 Y94.9542
G3 X10.3176 Y94.903 I0.5156 J-1.6351
G1 X10.0758 Y94.8028
G3 X9.9407 Y94.7397 I0.6563 J-1.5839
G1 X9.7086 Y94.6189
G3 X9.5787 Y94.544 I0.7915 J-1.5208
G1 X9.3579 Y94.4033
G3 X9.2356 Y94.3176 I0.9214 J-1.4459
G1 X9.028 Y94.1583
G3 X8.9136 Y94.0623 I1.0437 J-1.3602
G1 X8.7206 Y93.8855
G3 X8.6148 Y93.7797 I1.1581 J-1.2642
G1 X8.438 Y93.5868
G3 X8.3415 Y93.4718 I1.2639 J-1.1584
G1 X8.1822 Y93.2641
G3 X8.0966 Y93.1419 I1.3604 J-1.0434
G1 X7.956 Y92.9212
G3 X7.8813 Y92.7918 I1.446 J-0.9212
G1 X7.7604 Y92.5596
G3 X7.6971 Y92.4238 I1.5207 J-0.7918
G1 X7.597 Y92.1821
G3 X7.5458 Y92.0415 I1.584 J-0.656
G1 X7.4671 Y91.7918
G3 X7.4285 Y91.6478 I1.6352 J-0.5154
G1 X7.3718 Y91.3923
G3 X7.3457 Y91.2444 I1.6738 J-0.3714
G1 X7.3116 Y90.985
G3 X7.2986 Y90.8362 I1.6999 J-0.2235
G1 X7.2872 Y90.5747
G3 X7.2856 Y90.5 I1.7129 J-0.0747
G1 Y11.5
G1 F100.0 Z-1.4
G3 F300.0 X7.2872 Y11.4253 I1.7145 J0.0
G1 X7.2986 Y11.1638
G3 X7.3116 Y11.015 I1.7129 J0.0747
G1 X7.3457 Y10.7556
G3 X7.3718 Y10.6077 I1.6999 J0.2235
G1 X7.4285 Y10.3522
G3 X7.4671 Y10.2082 I1.6738 J0.3714
G1 X7.5458 Y9.9585
G3 X7.597 Y9.8179 I1.6352 J0.5154
G1 X7.6971 Y9.5762
G3 X7.7604 Y9.4404 I1.584 J0.656
G1 X7.8813 Y9.2082
G3 X7.956 Y9.0788 I1.5207 J0.7918
G1 X8.0966 Y8.8581
G3 X8.1822 Y8.7359 I1.446 J0.9212
G1 X8.3415 Y8.5282
G3 X8.438 Y8.4132 I1.3604 J1.0434
G1 X8.6148 Y8.2203
G3 X8.7206 Y8.1145 I1.2639 J1.1584
G1 X8.9136 Y7.9377
G3 X9.028 Y7.8417 I1.1581 J1.2642
G1 X9.2356 Y7.6824
G3 X9.3579 Y7.5967 I1.0437 J1.3602
G1 X9.5787 Y7.456
G3 X9.7086 Y7.3811 I0.9214 J1.4459
G1 X9.9407 Y7.2603
G3 X10.0758 Y7.1972 I0.7915 J1.5208
G1 X10.3176 Y7.097
G3 X10.4584 Y7.0458 I0.6563 J1.5839
G1 X10.708 Y6.9671
G3 X10.8528 Y6.9283 I0.5156 J1.6351
G1 X11.1083 Y6.8717
G3 X11.2551 Y6.8458 I0.3708 J1.6739
G1 X11.5146 Y6.8116
G3 X11.6639 Y6.7985 I0.224 J1.6998
G1 X11.9254 Y6.7871
G3 X12.0001 Y6.7855 I0.0747 J1.7129
G1 X61.9999
G3 X62.0746 Y6.7871 I0.0 J1.7145
G1 X62.3361 Y6.7985
G3 X62.4854 Y6.8116 I-0.0747 J1.7129
G1 X62.7449 Y6.8458
G3 X62.8917 Y6.8717 I-0.224 J1.6998
G1 X63.1472 Y6.9283
G3 X63.292 Y6.9671 I-0.3708 J1.6739
G1 X63.5416 Y7.0458
G3 X63.6824 Y7.097 I-0.5156 J1.6351
G1 X63.9242 Y7.1972
G3 X64.0593 Y7.2603 I-0.6563 J1.5839
G1 X64.2914 Y7.3811
G3 X64.4213 Y7.456 I-0.7915 J1.5208
G1 X64.6421 Y7.5967
G3 X64.7644 Y7.6824 I-0.9214 J1.4459
G1 X64.972 Y7.8417
G3 X65.0864 Y7.9377 I-1.0437 J1.3602
G1 X65.2794 Y8.1145
G3 X65.3852 Y8.2203 I-1.1581 J1.2642
G1 X65.562 Y8.4132
G3 X65.6585 Y8.5282 I-1.2639 J1.1584
G1 X65.8178 Y8.7359
G3 X65.9034 Y8.8581 I-1.3604 J1.0434
G1 X66.044 Y9.0788
G3 X66.1187 Y9.2082 I-1.446 J0.9212
G1 X66.2396 Y9.4404
G3 X66.3029 Y9.5762 I-1.5207 J0.7918
G1 X66.403 Y9.8179
G3 X66.4542 Y9.9585 I-1.584 J0.656
G1 X66.5329 Y10.2082
G3 X66.5715 Y10.3522 I-1.6352 J0.5154
G1 X66.6282 Y10.6077
G3 X66.6543 Y10.7556 I-1.6738 J0.3714
G1 X66.6884 Y11.015
G3 X66.7014 Y11.1638 I-1.6999 J0.2235
G1 X66.7128 Y11.4253
G3 X66.7144 Y11.5 I-1.7129 J0.0747
G1 Y90.5
G3 X66.7128 Y90.5747 I-1.7145 J0.0
G1 X66.7014 Y90.8362
G3 X66.6884 Y90.985 I-1.7129 J-0.0747
G1 X66.6543 Y91.2444
G3 X66.6282 Y91.3923 I-1.6999 J-0.2235
G1 X66.5715 Y91.6478
G3 X66.5329 Y91.7918 I-1.6738 J-0.3714
G1 X66.4542 Y92.0415
G3 X66.403 Y92.1821 I-1.6352 J-0.5154
G1 X66.3029 Y92.4238
G3 X66.2396 Y92.5596 I-1.584 J-0.656
G1 X66.1187 Y92.7918
G3 X66.044 Y92.9212 I-1.5207 J-0.7918
G1 X65.9034 Y93.1419
G3 X65.8178 Y93.2641 I-1.446 J-0.9212
G1 X65.6585 Y93.4718
G3 X65.562 Y93.5868 I-1.3604 J-1.0434
G1 X65.3852 Y93.7797
G3 X65.2794 Y93.8855 I-1.2639 J-1.1584
G1 X65.0864 Y94.0623
G3 X64.972 Y94.1583 I-1.1581 J-1.2642
G1 X64.7644 Y94.3176
G3 X64.6421 Y94.4033 I-1.0437 J-1.3602
G1 X64.4213 Y94.544
G3 X64.2914 Y94.6189 I-0.9214 J-1.4459
G1 X64.0593 Y94.7397
G3 X63.9242 Y94.8028 I-0.7915 J-1.5208
G1 X63.6824 Y94.903
G3 X63.5416 Y94.9542 I-0.6563 J-1.5839
G1 X63.292 Y95.0329
G3 X63.1472 Y95.0717 I-0.5156 J-1.6351
G1 X62.8917 Y95.1283
G3 X62.7449 Y95.1542 I-0.3708 J-1.6739
G1 X62.4854 Y95.1884
G3 X62.3361 Y95.2015 I-0.224 J-1.6998
G1 X62.0746 Y95.2129
G3 X61.9999 Y95.2145 I-0.0747 J-1.7129
G1 X12.0001
G3 X11.9254 Y95.2129 I0.0 J-1.7145
G1 X11.6639 Y95.2015
G3 X11.5146 Y95.1884 I0.0747 J-1.7129
G1 X11.2551 Y95.1542
G3 X11.1083 Y95.1283 I0.224 J-1.6998
G1 X10.8528 Y95.0717
G3 X10.708 Y95.0329 I0.3708 J-1.6739
G1 X10.4584 Y94.9542
G3 X10.3176 Y94.903 I0.5156 J-1.6351
G1 X10.0758 Y94.8028
G3 X9.9407 Y94.7397 I0.6563 J-1.5839
G1 X9.7086 Y94.6189
G3 X9.5787 Y94.544 I0.7915 J-1.5208
G1 X9.3579 Y94.4033
G3 X9.2356 Y94.3176 I0.9214 J-1.4459
G1 X9.028 Y94.1583
G3 X8.9136 Y94.0623 I1.0437 J-1.3602
G1 X8.7206 Y93.8855
G3 X8.6148 Y93.7797 I1.1581 J-1.2642
G1 X8.438 Y93.5868
G3 X8.3415 Y93.4718 I1.2639 J-1.1584
G1 X8.1822 Y93.2641
G3 X8.0966 Y93.1419 I1.3604 J-1.0434
G1 X7.956 Y92.9212
G3 X7.8813 Y92.7918 I1.446 J-0.9212
G1 X7.7604 Y92.5596
G3 X7.6971 Y92.4238 I1.5207 J-0.7918
G1 X7.597 Y92.1821
G3 X7.5458 Y92.0415 I1.584 J-0.656
G1 X7.4671 Y91.7918
G3 X7.4285 Y91.6478 I1.6352 J-0.5154
G1 X7.3718 Y91.3923
G3 X7.3457 Y91.2444 I1.6738 J-0.3714
G1 X7.3116 Y90.985
G3 X7.2986 Y90.8362 I1.6999 J-0.2235
G1 X7.2872 Y90.5747
G3 X7.2856 Y90.5 I1.7129 J-0.0747
G1 Y11.5
G1 F100.0 Z-1.6
G3 F300.0 X7.2872 Y11.4253 I1.7145 J0.0
G1 X7.2986 Y11.1638
G3 X7.3116 Y11.015 I1.7129 J0.0747
G1 X7.3457 Y10.7556
G3 X7.3718 Y10.6077 I1.6999 J0.2235
G1 X7.4285 Y10.3522
G3 X7.4671 Y10.2082 I1.6738 J0.3714
G1 X7.5458 Y9.9585
G3 X7.597 Y9.8179 I1.6352 J0.5154
G1 X7.6971 Y9.5762
G3 X7.7604 Y9.4404 I1.584 J0.656
G1 X7.8813 Y9.2082
G3 X7.956 Y9.0788 I1.5207 J0.7918
G1 X8.0966 Y8.8581
G3 X8.1822 Y8.7359 I1.446 J0.9212
G1 X8.3415 Y8.5282
G3 X8.438 Y8.4132 I1.3604 J1.0434
G1 X8.6148 Y8.2203
G3 X8.7206 Y8.1145 I1.2639 J1.1584
G1 X8.9136 Y7.9377
G3 X9.028 Y7.8417 I1.1581 J1.2642
G1 X9.2356 Y7.6824
G3 X9.3579 Y7.5967 I1.0437 J1.3602
G1 X9.5787 Y7.456
G3 X9.7086 Y7.3811 I0.9214 J1.4459
G1 X9.9407 Y7.2603
G3 X10.0758 Y7.1972 I0.7915 J1.5208
G1 X10.3176 Y7.097
G3 X10.4584 Y7.0458 I0.6563 J1.5839
G1 X10.708 Y6.9671
G3 X10.8528 Y6.9283 I0.5156 J1.6351
G1 X11.1083 Y6.8717
G3 X11.2551 Y6.8458 I0.3708 J1.6739
G1 X11.5146 Y6.8116
G3 X11.6639 Y6.7985 I0.224 J1.6998
G1 X11.9254 Y6.7871
G3 X12.0001 Y6.7855 I0.0747 J1.7129
G1 X61.9999
G3 X62.0746 Y6.7871 I0.0 J1.7145
G1 X62.3361 Y6.7985
G3 X62.4854 Y6.8116 I-0.0747 J1.7129
G1 X62.7449 Y6.8458
G3 X62.8917 Y6.8717 I-0.224 J1.6998
G1 X63.1472 Y6.9283
G3 X63.292 Y6.9671 I-0.3708 J1.6739
G1 X63.5416 Y7.0458
G3 X63.6824 Y7.097 I-0.5156 J1.6351
G1 X63.9242 Y7.1972
G3 X64.0593 Y7.2603 I-0.6563 J1.5839
G1 X64.2914 Y7.3811
G3 X64.4213 Y7.456 I-0.7915 J1.5208
G1 X64.6421 Y7.5967
G3 X64.7644 Y7.6824 I-0.9214 J1.4459
G1 X64.972 Y7.8417
G3 X65.0864 Y7.9377 I-1.0437 J1.3602
G1 X65.2794 Y8.1145
G3 X65.3852 Y8.2203 I-1.1581 J1.2642
G1 X65.562 Y8.4132
G3 X65.6585 Y8.5282 I-1.2639 J1.1584
G1 X65.8178 Y8.7359
G3 X65.9034 Y8.8581 I-1.3604 J1.0434
G1 X66.044 Y9.0788
G3 X66.1187 Y9.2082 I-1.446 J0.9212
G1 X66.2396 Y9.4404
G3 X66.3029 Y9.5762 I-1.5207 J0.7918
G1 X66.403 Y9.8179
G3 X66.4542 Y9.9585 I-1.584 J0.656
G1 X66.5329 Y10.2082
G3 X66.5715 Y10.3522 I-1.6352 J0.5154
G1 X66.6282 Y10.6077
G3 X66.6543 Y10.7556 I-1.6738 J0.3714
G1 X66.6884 Y11.015
G3 X66.7014 Y11.1638 I-1.6999 J0.2235
G1 X66.7128 Y11.4253
G3 X66.7144 Y11.5 I-1.7129 J0.0747
G1 Y90.5
G3 X66.7128 Y90.5747 I-1.7145 J0.0
G1 X66.7014 Y90.8362
G3 X66.6884 Y90.985 I-1.7129 J-0.0747
G1 X66.6543 Y91.2444
G3 X66.6282 Y91.3923 I-1.6999 J-0.2235
G1 X66.5715 Y91.6478
G3 X66.5329 Y91.7918 I-1.6738 J-0.3714
G1 X66.4542 Y92.0415
G3 X66.403 Y92.1821 I-1.6352 J-0.5154
G1 X66.3029 Y92.4238
G3 X66.2396 Y92.5596 I-1.584 J-0.656
G1 X66.1187 Y92.7918
G3 X66.044 Y92.9212 I-1.5207 J-0.7918
G1 X65.9034 Y93.1419
G3 X65.8178 Y93.2641 I-1.446 J-0.9212
G1 X65.6585 Y93.4718
G3 X65.562 Y93.5868 I-1.3604 J-1.0434
G1 X65.3852 Y93.7797
G3 X65.2794 Y93.8855 I-1.2639 J-1.1584
G1 X65.0864 Y94.0623
G3 X64.972 Y94.1583 I-1.1581 J-1.2642
G1 X64.7644 Y94.3176
G3 X64.6421 Y94.4033 I-1.0437 J-1.3602
G1 X64.4213 Y94.544
G3 X64.2914 Y94.6189 I-0.9214 J-1.4459
G1 X64.0593 Y94.7397
G3 X63.9242 Y94.8028 I-0.7915 J-1.5208
G1 X63.6824 Y94.903
G3 X63.5416 Y94.9542 I-0.6563 J-1.5839
G1 X63.292 Y95.0329
G3 X63.1472 Y95.0717 I-0.5156 J-1.6351
G1 X62.8917 Y95.1283
G3 X62.7449 Y95.1542 I-0.3708 J-1.6739
G1 X62.4854 Y95.1884
G3 X62.3361 Y95.2015 I-0.224 J-1.6998
G1 X62.0746 Y95.2129
G3 X61.9999 Y95.2145 I-0.0747 J-1.7129
G1 X12.0001
G3 X11.9254 Y95.2129 I0.0 J-1.7145
G1 X11.6639 Y95.2015
G3 X11.5146 Y95.1884 I0.0747 J-1.7129
G1 X11.2551 Y95.1542
G3 X11.1083 Y95.1283 I0.224 J-1.6998
G1 X10.8528 Y95.0717
G3 X10.708 Y95.0329 I0.3708 J-1.6739
G1 X10.4584 Y94.9542
G3 X10.3176 Y94.903 I0.5156 J-1.6351
G1 X10.0758 Y94.8028
G3 X9.9407 Y94.7397 I0.6563 J-1.5839
G1 X9.7086 Y94.6189
G3 X9.5787 Y94.544 I0.7915 J-1.5208
G1 X9.3579 Y94.4033
G3 X9.2356 Y94.3176 I0.9214 J-1.4459
G1 X9.028 Y94.1583
G3 X8.9136 Y94.0623 I1.0437 J-1.3602
G1 X8.7206 Y93.8855
G3 X8.6148 Y93.7797 I1.1581 J-1.2642
G1 X8.438 Y93.5868
G3 X8.3415 Y93.4718 I1.2639 J-1.1584
G1 X8.1822 Y93.2641
G3 X8.0966 Y93.1419 I1.3604 J-1.0434
G1 X7.956 Y92.9212
G3 X7.8813 Y92.7918 I1.446 J-0.9212
G1 X7.7604 Y92.5596
G3 X7.6971 Y92.4238 I1.5207 J-0.7918
G1 X7.597 Y92.1821
G3 X7.5458 Y92.0415 I1.584 J-0.656
G1 X7.4671 Y91.7918
G3 X7.4285 Y91.6478 I1.6352 J-0.5154
G1 X7.3718 Y91.3923
G3 X7.3457 Y91.2444 I1.6738 J-0.3714
G1 X7.3116 Y90.985
G3 X7.2986 Y90.8362 I1.6999 J-0.2235
G1 X7.2872 Y90.5747
G3 X7.2856 Y90.5 I1.7129 J-0.0747
G1 Y11.5
G1 F100.0 Z-1.8
G3 F300.0 X7.2872 Y11.4253 I1.7145 J0.0
G1 X7.2986 Y11.1638
G3 X7.3116 Y11.015 I1.7129 J0.0747
G1 X7.3457 Y10.7556
G3 X7.3718 Y10.6077 I1.6999 J0.2235
G1 X7.4285 Y10.3522
G3 X7.4671 Y10.2082 I1.6738 J0.3714
G1 X7.5458 Y9.9585
G3 X7.597 Y9.8179 I1.6352 J0.5154
G1 X7.6971 Y9.5762
G3 X7.7604 Y9.4404 I1.584 J0.656
G1 X7.8813 Y9.2082
G3 X7.956 Y9.0788 I1.5207 J0.7918
G1 X8.0966 Y8.8581
G3 X8.1822 Y8.7359 I1.446 J0.9212
G1 X8.3415 Y8.5282
G3 X8.438 Y8.4132 I1.3604 J1.0434
G1 X8.6148 Y8.2203
G3 X8.7206 Y8.1145 I1.2639 J1.1584
G1 X8.9136 Y7.9377
G3 X9.028 Y7.8417 I1.1581 J1.2642
G1 X9.2356 Y7.6824
G3 X9.3579 Y7.5967 I1.0437 J1.3602
G1 X9.5787 Y7.456
G3 X9.7086 Y7.3811 I0.9214 J1.4459
G1 X9.9407 Y7.2603
G3 X10.0758 Y7.1972 I0.7915 J1.5208
G1 X10.3176 Y7.097
G3 X10.4584 Y7.0458 I0.6563 J1.5839
G1 X10.708 Y6.9671
G3 X10.8528 Y6.9283 I0.5156 J1.6351
G1 X11.1083 Y6.8717
G3 X11.2551 Y6.8458 I0.3708 J1.6739
G1 X11.5146 Y6.8116
G3 X11.6639 Y6.7985 I0.224 J1.6998
G1 X11.9254 Y6.7871
G3 X12.0001 Y6.7855 I0.0747 J1.7129
G1 X61.9999
G3 X62.0746 Y6.7871 I0.0 J1.7145
G1 X62.3361 Y6.7985
G3 X62.4854 Y6.8116 I-0.0747 J1.7129
G1 X62.7449 Y6.8458
G3 X62.8917 Y6.8717 I-0.224 J1.6998
G1 X63.1472 Y6.9283
G3 X63.292 Y6.9671 I-0.3708 J1.6739
G1 X63.5416 Y7.0458
G3 X63.6824 Y7.097 I-0.5156 J1.6351
G1 X63.9242 Y7.1972
G3 X64.0593 Y7.2603 I-0.6563 J1.5839
G1 X64.2914 Y7.3811
G3 X64.4213 Y7.456 I-0.7915 J1.5208
G1 X64.6421 Y7.5967
G3 X64.7644 Y7.6824 I-0.9214 J1.4459
G1 X64.972 Y7.8417
G3 X65.0864 Y7.9377 I-1.0437 J1.3602
G1 X65.2794 Y8.1145
G3 X65.3852 Y8.2203 I-1.1581 J1.2642
G1 X65.562 Y8.4132
G3 X65.6585 Y8.5282 I-1.2639 J1.1584
G1 X65.8178 Y8.7359
G3 X65.9034 Y8.8581 I-1.3604 J1.0434
G1 X66.044 Y9.0788
G3 X66.1187 Y9.2082 I-1.446 J0.9212
G1 X66.2396 Y9.4404
G3 X66.3029 Y9.5762 I-1.5207 J0.7918
G1 X66.403 Y9.8179
G3 X66.4542 Y9.9585 I-1.584 J0.656
G1 X66.5329 Y10.2082
G3 X66.5715 Y10.3522 I-1.6352 J0.5154
G1 X66.6282 Y10.6077
G3 X66.6543 Y10.7556 I-1.6738 J0.3714
G1 X66.6884 Y11.015
G3 X66.7014 Y11.1638 I-1.6999 J0.2235
G1 X66.7128 Y11.4253
G3 X66.7144 Y11.5 I-1.7129 J0.0747
G1 Y90.5
G3 X66.7128 Y90.5747 I-1.7145 J0.0
G1 X66.7014 Y90.8362
G3 X66.6884 Y90.985 I-1.7129 J-0.0747
G1 X66.6543 Y91.2444
G3 X66.6282 Y91.3923 I-1.6999 J-0.2235
G1 X66.5715 Y91.6478
G3 X66.5329 Y91.7918 I-1.6738 J-0.3714
G1 X66.4542 Y92.0415
G3 X66.403 Y92.1821 I-1.6352 J-0.5154
G1 X66.3029 Y92.4238
G3 X66.2396 Y92.5596 I-1.584 J-0.656
G1 X66.1187 Y92.7918
G3 X66.044 Y92.9212 I-1.5207 J-0.7918
G1 X65.9034 Y93.1419
G3 X65.8178 Y93.2641 I-1.446 J-0.9212
G1 X65.6585 Y93.4718
G3 X65.562 Y93.5868 I-1.3604 J-1.0434
G1 X65.3852 Y93.7797
G3 X65.2794 Y93.8855 I-1.2639 J-1.1584
G1 X65.0864 Y94.0623
G3 X64.972 Y94.1583 I-1.1581 J-1.2642
G1 X64.7644 Y94.3176
G3 X64.6421 Y94.4033 I-1.0437 J-1.3602
G1 X64.4213 Y94.544
G3 X64.2914 Y94.6189 I-0.9214 J-1.4459
G1 X64.0593 Y94.7397
G3 X63.9242 Y94.8028 I-0.7915 J-1.5208
G1 X63.6824 Y94.903
G3 X63.5416 Y94.9542 I-0.6563 J-1.5839
G1 X63.292 Y95.0329
G3 X63.1472 Y95.0717 I-0.5156 J-1.6351
G1 X62.8917 Y95.1283
G3 X62.7449 Y95.1542 I-0.3708 J-1.6739
G1 X62.4854 Y95.1884
G3 X62.3361 Y95.2015 I-0.224 J-1.6998
G1 X62.0746 Y95.2129
G3 X61.9999 Y95.2145 I-0.0747 J-1.7129
G1 X12.0001
G3 X11.9254 Y95.2129 I0.0 J-1.7145
G1 X11.6639 Y95.2015
G3 X11.5146 Y95.1884 I0.0747 J-1.7129
G1 X11.2551 Y95.1542
G3 X11.1083 Y95.1283 I0.224 J-1.6998
G1 X10.8528 Y95.0717
G3 X10.708 Y95.0329 I0.3708 J-1.6739
G1 X10.4584 Y94.9542
G3 X10.3176 Y94.903 I0.5156 J-1.6351
G1 X10.0758 Y94.8028
G3 X9.9407 Y94.7397 I0.6563 J-1.5839
G1 X9.7086 Y94.6189
G3 X9.5787 Y94.544 I0.7915 J-1.5208
G1 X9.3579 Y94.4033
G3 X9.2356 Y94.3176 I0.9214 J-1.4459
G1 X9.028 Y94.1583
G3 X8.9136 Y94.0623 I1.0437 J-1.3602
G1 X8.7206 Y93.8855
G3 X8.6148 Y93.7797 I1.1581 J-1.2642
G1 X8.438 Y93.5868
G3 X8.3415 Y93.4718 I1.2639 J-1.1584
G1 X8.1822 Y93.2641
G3 X8.0966 Y93.1419 I1.3604 J-1.0434
G1 X7.956 Y92.9212
G3 X7.8813 Y92.7918 I1.446 J-0.9212
G1 X7.7604 Y92.5596
G3 X7.6971 Y92.4238 I1.5207 J-0.7918
G1 X7.597 Y92.1821
G3 X7.5458 Y92.0415 I1.584 J-0.656
G1 X7.4671 Y91.7918
G3 X7.4285 Y91.6478 I1.6352 J-0.5154
G1 X7.3718 Y91.3923
G3 X7.3457 Y91.2444 I1.6738 J-0.3714
G1 X7.3116 Y90.985
G3 X7.2986 Y90.8362 I1.6999 J-0.2235
G1 X7.2872 Y90.5747
G3 X7.2856 Y90.5 I1.7129 J-0.0747
G1 Y11.5
G1 F100.0 Z-2.0
G3 F300.0 X7.2872 Y11.4253 I1.7145 J0.0
G1 X7.2986 Y11.1638
G3 X7.3116 Y11.015 I1.7129 J0.0747
G1 X7.3457 Y10.7556
G3 X7.3718 Y10.6077 I1.6999 J0.2235
G1 X7.4285 Y10.3522
G3 X7.4671 Y10.2082 I1.6738 J0.3714
G1 X7.5458 Y9.9585
G3 X7.597 Y9.8179 I1.6352 J0.5154
G1 X7.6971 Y9.5762
G3 X7.7604 Y9.4404 I1.584 J0.656
G1 X7.8813 Y9.2082
G3 X7.956 Y9.0788 I1.5207 J0.7918
G1 X8.0966 Y8.8581
G3 X8.1822 Y8.7359 I1.446 J0.9212
G1 X8.3415 Y8.5282
G3 X8.438 Y8.4132 I1.3604 J1.0434
G1 X8.6148 Y8.2203
G3 X8.7206 Y8.1145 I1.2639 J1.1584
G1 X8.9136 Y7.9377
G3 X9.028 Y7.8417 I1.1581 J1.2642
G1 X9.2356 Y7.6824
G3 X9.3579 Y7.5967 I1.0437 J1.3602
G1 X9.5787 Y7.456
G3 X9.7086 Y7.3811 I0.9214 J1.4459
G1 X9.9407 Y7.2603
G3 X10.0758 Y7.1972 I0.7915 J1.5208
G1 X10.3176 Y7.097
G3 X10.4584 Y7.0458 I0.6563 J1.5839
G1 X10.708 Y6.9671
G3 X10.8528 Y6.9283 I0.5156 J1.6351
G1 X11.1083 Y6.8717
G3 X11.2551 Y6.8458 I0.3708 J1.6739
G1 X11.5146 Y6.8116
G3 X11.6639 Y6.7985 I0.224 J1.6998
G1 X11.9254 Y6.7871
G3 X12.0001 Y6.7855 I0.0747 J1.7129
G1 X61.9999
G3 X62.0746 Y6.7871 I0.0 J1.7145
G1 X62.3361 Y6.7985
G3 X62.4854 Y6.8116 I-0.0747 J1.7129
G1 X62.7449 Y6.8458
G3 X62.8917 Y6.8717 I-0.224 J1.6998
G1 X63.1472 Y6.9283
G3 X63.292 Y6.9671 I-0.3708 J1.6739
G1 X63.5416 Y7.0458
G3 X63.6824 Y7.097 I-0.5156 J1.6351
G1 X63.9242 Y7.1972
G3 X64.0593 Y7.2603 I-0.6563 J1.5839
G1 X64.2914 Y7.3811
G3 X64.4213 Y7.456 I-0.7915 J1.5208
G1 X64.6421 Y7.5967
G3 X64.7644 Y7.6824 I-0.9214 J1.4459
G1 X64.972 Y7.8417
G3 X65.0864 Y7.9377 I-1.0437 J1.3602
G1 X65.2794 Y8.1145
G3 X65.3852 Y8.2203 I-1.1581 J1.2642
G1 X65.562 Y8.4132
G3 X65.6585 Y8.5282 I-1.2639 J1.1584
G1 X65.8178 Y8.7359
G3 X65.9034 Y8.8581 I-1.3604 J1.0434
G1 X66.044 Y9.0788
G3 X66.1187 Y9.2082 I-1.446 J0.9212
G1 X66.2396 Y9.4404
G3 X66.3029 Y9.5762 I-1.5207 J0.7918
G1 X66.403 Y9.8179
G3 X66.4542 Y9.9585 I-1.584 J0.656
G1 X66.5329 Y10.2082
G3 X66.5715 Y10.3522 I-1.6352 J0.5154
G1 X66.6282 Y10.6077
G3 X66.6543 Y10.7556 I-1.6738 J0.3714
G1 X66.6884 Y11.015
G3 X66.7014 Y11.1638 I-1.6999 J0.2235
G1 X66.7128 Y11.4253
G3 X66.7144 Y11.5 I-1.7129 J0.0747
G1 Y90.5
G3 X66.7128 Y90.5747 I-1.7145 J0.0
G1 X66.7014 Y90.8362
G3 X66.6884 Y90.985 I-1.7129 J-0.0747
G1 X66.6543 Y91.2444
G3 X66.6282 Y91.3923 I-1.6999 J-0.2235
G1 X66.5715 Y91.6478
G3 X66.5329 Y91.7918 I-1.6738 J-0.3714
G1 X66.4542 Y92.0415
G3 X66.403 Y92.1821 I-1.6352 J-0.5154
G1 X66.3029 Y92.4238
G3 X66.2396 Y92.5596 I-1.584 J-0.656
G1 X66.1187 Y92.7918
G3 X66.044 Y92.9212 I-1.5207 J-0.7918
G1 X65.9034 Y93.1419
G3 X65.8178 Y93.2641 I-1.446 J-0.9212
G1 X65.6585 Y93.4718
G3 X65.562 Y93.5868 I-1.3604 J-1.0434
G1 X65.3852 Y93.7797
G3 X65.2794 Y93.8855 I-1.2639 J-1.1584
G1 X65.0864 Y94.0623
G3 X64.972 Y94.1583 I-1.1581 J-1.2642
G1 X64.7644 Y94.3176
G3 X64.6421 Y94.4033 I-1.0437 J-1.3602
G1 X64.4213 Y94.544
G3 X64.2914 Y94.6189 I-0.9214 J-1.4459
G1 X64.0593 Y94.7397
G3 X63.9242 Y94.8028 I-0.7915 J-1.5208
G1 X63.6824 Y94.903
G3 X63.5416 Y94.9542 I-0.6563 J-1.5839
G1 X63.292 Y95.0329
G3 X63.1472 Y95.0717 I-0.5156 J-1.6351
G1 X62.8917 Y95.1283
G3 X62.7449 Y95.1542 I-0.3708 J-1.6739
G1 X62.4854 Y95.1884
G3 X62.3361 Y95.2015 I-0.224 J-1.6998
G1 X62.0746 Y95.2129
G3 X61.9999 Y95.2145 I-0.0747 J-1.7129
G1 X12.0001
G3 X11.9254 Y95.2129 I0.0 J-1.7145
G1 X11.6639 Y95.2015
G3 X11.5146 Y95.1884 I0.0747 J-1.7129
G1 X11.2551 Y95.1542
G3 X11.1083 Y95.1283 I0.224 J-1.6998
G1 X10.8528 Y95.0717
G3 X10.708 Y95.0329 I0.3708 J-1.6739
G1 X10.4584 Y94.9542
G3 X10.3176 Y94.903 I0.5156 J-1.6351
G1 X10.0758 Y94.8028
G3 X9.9407 Y94.7397 I0.6563 J-1.5839
G1 X9.7086 Y94.6189
G3 X9.5787 Y94.544 I0.7915 J-1.5208
G1 X9.3579 Y94.4033
G3 X9.2356 Y94.3176 I0.9214 J-1.4459
G1 X9.028 Y94.1583
G3 X8.9136 Y94.0623 I1.0437 J-1.3602
G1 X8.7206 Y93.8855
G3 X8.6148 Y93.7797 I1.1581 J-1.2642
G1 X8.438 Y93.5868
G3 X8.3415 Y93.4718 I1.2639 J-1.1584
G1 X8.1822 Y93.2641
G3 X8.0966 Y93.1419 I1.3604 J-1.0434
G1 X7.956 Y92.9212
G3 X7.8813 Y92.7918 I1.446 J-0.9212
G1 X7.7604 Y92.5596
G3 X7.6971 Y92.4238 I1.5207 J-0.7918
G1 X7.597 Y92.1821
G3 X7.5458 Y92.0415 I1.584 J-0.656
G1 X7.4671 Y91.7918
G3 X7.4285 Y91.6478 I1.6352 J-0.5154
G1 X7.3718 Y91.3923
G3 X7.3457 Y91.2444 I1.6738 J-0.3714
G1 X7.3116 Y90.985
G3 X7.2986 Y90.8362 I1.6999 J-0.2235
G1 X7.2872 Y90.5747
G3 X7.2856 Y90.5 I1.7129 J-0.0747
G1 Y11.5
G0 Z2.0
M5
M30
