( Made using CamBam - http://www.cambam.co.uk )
( m_mount_tube 2/9/2022 6:10:44 PM )
( T0 : 3.175 )
G21 G90 G40
G0 Z2.0
( T0 : 3.175 )
T0 M6
( 3_center )
G17
M3 S2500
G0 X-6.5875 Y-33.0
G1 F25.0 Z-0.4
G2 F75.0 X-11.7063 Y-35.9553 I-3.4125 J0.0
G2 Y-30.0447 I1.7063 J2.9553
G2 X-6.5875 Y-33.0 I1.7063 J-2.9553
G1 F25.0 Z-0.8
G2 F75.0 X-11.7063 Y-35.9553 I-3.4125 J0.0
G2 Y-30.0447 I1.7063 J2.9553
G2 X-6.5875 Y-33.0 I1.7063 J-2.9553
G1 F25.0 Z-1.2
G2 F75.0 X-11.7063 Y-35.9553 I-3.4125 J0.0
G2 Y-30.0447 I1.7063 J2.9553
G2 X-6.5875 Y-33.0 I1.7063 J-2.9553
G1 F25.0 Z-1.6
G2 F75.0 X-11.7063 Y-35.9553 I-3.4125 J0.0
G2 Y-30.0447 I1.7063 J2.9553
G2 X-6.5875 Y-33.0 I1.7063 J-2.9553
G1 F25.0 Z-2.0
G2 F75.0 X-11.7063 Y-35.9553 I-3.4125 J0.0
G2 Y-30.0447 I1.7063 J2.9553
G2 X-6.5875 Y-33.0 I1.7063 J-2.9553
G1 F25.0 Z-2.4
G2 F75.0 X-11.7063 Y-35.9553 I-3.4125 J0.0
G2 Y-30.0447 I1.7063 J2.9553
G2 X-6.5875 Y-33.0 I1.7063 J-2.9553
G1 F25.0 Z-2.8
G2 F75.0 X-11.7063 Y-35.9553 I-3.4125 J0.0
G2 Y-30.0447 I1.7063 J2.9553
G2 X-6.5875 Y-33.0 I1.7063 J-2.9553
G1 F25.0 Z-3.2
G2 F75.0 X-11.7063 Y-35.9553 I-3.4125 J0.0
G2 Y-30.0447 I1.7063 J2.9553
G2 X-6.5875 Y-33.0 I1.7063 J-2.9553
G1 F25.0 Z-3.6
G2 F75.0 X-11.7063 Y-35.9553 I-3.4125 J0.0
G2 Y-30.0447 I1.7063 J2.9553
G2 X-6.5875 Y-33.0 I1.7063 J-2.9553
G1 F25.0 Z-4.0
G2 F75.0 X-11.7063 Y-35.9553 I-3.4125 J0.0
G2 Y-30.0447 I1.7063 J2.9553
G2 X-6.5875 Y-33.0 I1.7063 J-2.9553
G1 F25.0 Z-4.4
G2 F75.0 X-11.7063 Y-35.9553 I-3.4125 J0.0
G2 Y-30.0447 I1.7063 J2.9553
G2 X-6.5875 Y-33.0 I1.7063 J-2.9553
G1 F25.0 Z-4.8
G2 F75.0 X-11.7063 Y-35.9553 I-3.4125 J0.0
G2 Y-30.0447 I1.7063 J2.9553
G2 X-6.5875 Y-33.0 I1.7063 J-2.9553
G1 F25.0 Z-5.2
G2 F75.0 X-11.7063 Y-35.9553 I-3.4125 J0.0
G2 Y-30.0447 I1.7063 J2.9553
G2 X-6.5875 Y-33.0 I1.7063 J-2.9553
G1 F25.0 Z-5.6
G2 F75.0 X-11.7063 Y-35.9553 I-3.4125 J0.0
G2 Y-30.0447 I1.7063 J2.9553
G2 X-6.5875 Y-33.0 I1.7063 J-2.9553
G0 Z2.0
G0 X6.5875
G1 F25.0 Z-0.4
G2 F75.0 X8.2938 Y-30.0447 I3.4125 J0.0
G2 X13.4125 Y-33.0 I1.7063 J-2.9553
G2 X8.2938 Y-35.9553 I-3.4125 J0.0
G2 X6.5875 Y-33.0 I1.7063 J2.9553
G1 F25.0 Z-0.8
G2 F75.0 X8.2938 Y-30.0447 I3.4125 J0.0
G2 X13.4125 Y-33.0 I1.7063 J-2.9553
G2 X8.2938 Y-35.9553 I-3.4125 J0.0
G2 X6.5875 Y-33.0 I1.7063 J2.9553
G1 F25.0 Z-1.2
G2 F75.0 X8.2938 Y-30.0447 I3.4125 J0.0
G2 X13.4125 Y-33.0 I1.7063 J-2.9553
G2 X8.2938 Y-35.9553 I-3.4125 J0.0
G2 X6.5875 Y-33.0 I1.7063 J2.9553
G1 F25.0 Z-1.6
G2 F75.0 X8.2938 Y-30.0447 I3.4125 J0.0
G2 X13.4125 Y-33.0 I1.7063 J-2.9553
G2 X8.2938 Y-35.9553 I-3.4125 J0.0
G2 X6.5875 Y-33.0 I1.7063 J2.9553
G1 F25.0 Z-2.0
G2 F75.0 X8.2938 Y-30.0447 I3.4125 J0.0
G2 X13.4125 Y-33.0 I1.7063 J-2.9553
G2 X8.2938 Y-35.9553 I-3.4125 J0.0
G2 X6.5875 Y-33.0 I1.7063 J2.9553
G1 F25.0 Z-2.4
G2 F75.0 X8.2938 Y-30.0447 I3.4125 J0.0
G2 X13.4125 Y-33.0 I1.7063 J-2.9553
G2 X8.2938 Y-35.9553 I-3.4125 J0.0
G2 X6.5875 Y-33.0 I1.7063 J2.9553
G1 F25.0 Z-2.8
G2 F75.0 X8.2938 Y-30.0447 I3.4125 J0.0
G2 X13.4125 Y-33.0 I1.7063 J-2.9553
G2 X8.2938 Y-35.9553 I-3.4125 J0.0
G2 X6.5875 Y-33.0 I1.7063 J2.9553
G1 F25.0 Z-3.2
G2 F75.0 X8.2938 Y-30.0447 I3.4125 J0.0
G2 X13.4125 Y-33.0 I1.7063 J-2.9553
G2 X8.2938 Y-35.9553 I-3.4125 J0.0
G2 X6.5875 Y-33.0 I1.7063 J2.9553
G1 F25.0 Z-3.6
G2 F75.0 X8.2938 Y-30.0447 I3.4125 J0.0
G2 X13.4125 Y-33.0 I1.7063 J-2.9553
G2 X8.2938 Y-35.9553 I-3.4125 J0.0
G2 X6.5875 Y-33.0 I1.7063 J2.9553
G1 F25.0 Z-4.0
G2 F75.0 X8.2938 Y-30.0447 I3.4125 J0.0
G2 X13.4125 Y-33.0 I1.7063 J-2.9553
G2 X8.2938 Y-35.9553 I-3.4125 J0.0
G2 X6.5875 Y-33.0 I1.7063 J2.9553
G1 F25.0 Z-4.4
G2 F75.0 X8.2938 Y-30.0447 I3.4125 J0.0
G2 X13.4125 Y-33.0 I1.7063 J-2.9553
G2 X8.2938 Y-35.9553 I-3.4125 J0.0
G2 X6.5875 Y-33.0 I1.7063 J2.9553
G1 F25.0 Z-4.8
G2 F75.0 X8.2938 Y-30.0447 I3.4125 J0.0
G2 X13.4125 Y-33.0 I1.7063 J-2.9553
G2 X8.2938 Y-35.9553 I-3.4125 J0.0
G2 X6.5875 Y-33.0 I1.7063 J2.9553
G1 F25.0 Z-5.2
G2 F75.0 X8.2938 Y-30.0447 I3.4125 J0.0
G2 X13.4125 Y-33.0 I1.7063 J-2.9553
G2 X8.2938 Y-35.9553 I-3.4125 J0.0
G2 X6.5875 Y-33.0 I1.7063 J2.9553
G1 F25.0 Z-5.6
G2 F75.0 X8.2938 Y-30.0447 I3.4125 J0.0
G2 X13.4125 Y-33.0 I1.7063 J-2.9553
G2 X8.2938 Y-35.9553 I-3.4125 J0.0
G2 X6.5875 Y-33.0 I1.7063 J2.9553
G0 Z2.0
G0 X9.4769 Y-14.3722
G1 F25.0 Z-0.4
G2 F75.0 X8.2938 Y-13.9553 I0.5231 J3.3722
G2 Y-8.0447 I1.7063 J2.9553
G2 X13.4125 Y-11.0 I1.7063 J-2.9553
G2 X9.4769 Y-14.3722 I-3.4125 J0.0
G1 F25.0 Z-0.8
G2 F75.0 X8.2938 Y-13.9553 I0.5231 J3.3722
G2 Y-8.0447 I1.7063 J2.9553
G2 X13.4125 Y-11.0 I1.7063 J-2.9553
G2 X9.4769 Y-14.3722 I-3.4125 J0.0
G1 F25.0 Z-1.2
G2 F75.0 X8.2938 Y-13.9553 I0.5231 J3.3722
G2 Y-8.0447 I1.7063 J2.9553
G2 X13.4125 Y-11.0 I1.7063 J-2.9553
G2 X9.4769 Y-14.3722 I-3.4125 J0.0
G1 F25.0 Z-1.6
G2 F75.0 X8.2938 Y-13.9553 I0.5231 J3.3722
G2 Y-8.0447 I1.7063 J2.9553
G2 X13.4125 Y-11.0 I1.7063 J-2.9553
G2 X9.4769 Y-14.3722 I-3.4125 J0.0
G1 F25.0 Z-2.0
G2 F75.0 X8.2938 Y-13.9553 I0.5231 J3.3722
G2 Y-8.0447 I1.7063 J2.9553
G2 X13.4125 Y-11.0 I1.7063 J-2.9553
G2 X9.4769 Y-14.3722 I-3.4125 J0.0
G1 F25.0 Z-2.4
G2 F75.0 X8.2938 Y-13.9553 I0.5231 J3.3722
G2 Y-8.0447 I1.7063 J2.9553
G2 X13.4125 Y-11.0 I1.7063 J-2.9553
G2 X9.4769 Y-14.3722 I-3.4125 J0.0
G1 F25.0 Z-2.8
G2 F75.0 X8.2938 Y-13.9553 I0.5231 J3.3722
G2 Y-8.0447 I1.7063 J2.9553
G2 X13.4125 Y-11.0 I1.7063 J-2.9553
G2 X9.4769 Y-14.3722 I-3.4125 J0.0
G1 F25.0 Z-3.2
G2 F75.0 X8.2938 Y-13.9553 I0.5231 J3.3722
G2 Y-8.0447 I1.7063 J2.9553
G2 X13.4125 Y-11.0 I1.7063 J-2.9553
G2 X9.4769 Y-14.3722 I-3.4125 J0.0
G1 F25.0 Z-3.6
G2 F75.0 X8.2938 Y-13.9553 I0.5231 J3.3722
G2 Y-8.0447 I1.7063 J2.9553
G2 X13.4125 Y-11.0 I1.7063 J-2.9553
G2 X9.4769 Y-14.3722 I-3.4125 J0.0
G1 F25.0 Z-4.0
G2 F75.0 X8.2938 Y-13.9553 I0.5231 J3.3722
G2 Y-8.0447 I1.7063 J2.9553
G2 X13.4125 Y-11.0 I1.7063 J-2.9553
G2 X9.4769 Y-14.3722 I-3.4125 J0.0
G1 F25.0 Z-4.4
G2 F75.0 X8.2938 Y-13.9553 I0.5231 J3.3722
G2 Y-8.0447 I1.7063 J2.9553
G2 X13.4125 Y-11.0 I1.7063 J-2.9553
G2 X9.4769 Y-14.3722 I-3.4125 J0.0
G1 F25.0 Z-4.8
G2 F75.0 X8.2938 Y-13.9553 I0.5231 J3.3722
G2 Y-8.0447 I1.7063 J2.9553
G2 X13.4125 Y-11.0 I1.7063 J-2.9553
G2 X9.4769 Y-14.3722 I-3.4125 J0.0
G1 F25.0 Z-5.2
G2 F75.0 X8.2938 Y-13.9553 I0.5231 J3.3722
G2 Y-8.0447 I1.7063 J2.9553
G2 X13.4125 Y-11.0 I1.7063 J-2.9553
G2 X9.4769 Y-14.3722 I-3.4125 J0.0
G1 F25.0 Z-5.6
G2 F75.0 X8.2938 Y-13.9553 I0.5231 J3.3722
G2 Y-8.0447 I1.7063 J2.9553
G2 X13.4125 Y-11.0 I1.7063 J-2.9553
G2 X9.4769 Y-14.3722 I-3.4125 J0.0
G0 Z2.0
G0 X-6.6375 Y-11.5822
G1 F25.0 Z-0.4
G2 F75.0 X-11.7063 Y-13.9553 I-3.3625 J0.5822
G2 Y-8.0447 I1.7063 J2.9553
G2 X-6.5875 Y-11.0 I1.7063 J-2.9553
G2 X-6.6375 Y-11.5822 I-3.4125 J0.0
G1 F25.0 Z-0.8
G2 F75.0 X-11.7063 Y-13.9553 I-3.3625 J0.5822
G2 Y-8.0447 I1.7063 J2.9553
G2 X-6.5875 Y-11.0 I1.7063 J-2.9553
G2 X-6.6375 Y-11.5822 I-3.4125 J0.0
G1 F25.0 Z-1.2
G2 F75.0 X-11.7063 Y-13.9553 I-3.3625 J0.5822
G2 Y-8.0447 I1.7063 J2.9553
G2 X-6.5875 Y-11.0 I1.7063 J-2.9553
G2 X-6.6375 Y-11.5822 I-3.4125 J0.0
G1 F25.0 Z-1.6
G2 F75.0 X-11.7063 Y-13.9553 I-3.3625 J0.5822
G2 Y-8.0447 I1.7063 J2.9553
G2 X-6.5875 Y-11.0 I1.7063 J-2.9553
G2 X-6.6375 Y-11.5822 I-3.4125 J0.0
G1 F25.0 Z-2.0
G2 F75.0 X-11.7063 Y-13.9553 I-3.3625 J0.5822
G2 Y-8.0447 I1.7063 J2.9553
G2 X-6.5875 Y-11.0 I1.7063 J-2.9553
G2 X-6.6375 Y-11.5822 I-3.4125 J0.0
G1 F25.0 Z-2.4
G2 F75.0 X-11.7063 Y-13.9553 I-3.3625 J0.5822
G2 Y-8.0447 I1.7063 J2.9553
G2 X-6.5875 Y-11.0 I1.7063 J-2.9553
G2 X-6.6375 Y-11.5822 I-3.4125 J0.0
G1 F25.0 Z-2.8
G2 F75.0 X-11.7063 Y-13.9553 I-3.3625 J0.5822
G2 Y-8.0447 I1.7063 J2.9553
G2 X-6.5875 Y-11.0 I1.7063 J-2.9553
G2 X-6.6375 Y-11.5822 I-3.4125 J0.0
G1 F25.0 Z-3.2
G2 F75.0 X-11.7063 Y-13.9553 I-3.3625 J0.5822
G2 Y-8.0447 I1.7063 J2.9553
G2 X-6.5875 Y-11.0 I1.7063 J-2.9553
G2 X-6.6375 Y-11.5822 I-3.4125 J0.0
G1 F25.0 Z-3.6
G2 F75.0 X-11.7063 Y-13.9553 I-3.3625 J0.5822
G2 Y-8.0447 I1.7063 J2.9553
G2 X-6.5875 Y-11.0 I1.7063 J-2.9553
G2 X-6.6375 Y-11.5822 I-3.4125 J0.0
G1 F25.0 Z-4.0
G2 F75.0 X-11.7063 Y-13.9553 I-3.3625 J0.5822
G2 Y-8.0447 I1.7063 J2.9553
G2 X-6.5875 Y-11.0 I1.7063 J-2.9553
G2 X-6.6375 Y-11.5822 I-3.4125 J0.0
G1 F25.0 Z-4.4
G2 F75.0 X-11.7063 Y-13.9553 I-3.3625 J0.5822
G2 Y-8.0447 I1.7063 J2.9553
G2 X-6.5875 Y-11.0 I1.7063 J-2.9553
G2 X-6.6375 Y-11.5822 I-3.4125 J0.0
G1 F25.0 Z-4.8
G2 F75.0 X-11.7063 Y-13.9553 I-3.3625 J0.5822
G2 Y-8.0447 I1.7063 J2.9553
G2 X-6.5875 Y-11.0 I1.7063 J-2.9553
G2 X-6.6375 Y-11.5822 I-3.4125 J0.0
G1 F25.0 Z-5.2
G2 F75.0 X-11.7063 Y-13.9553 I-3.3625 J0.5822
G2 Y-8.0447 I1.7063 J2.9553
G2 X-6.5875 Y-11.0 I1.7063 J-2.9553
G2 X-6.6375 Y-11.5822 I-3.4125 J0.0
G1 F25.0 Z-5.6
G2 F75.0 X-11.7063 Y-13.9553 I-3.3625 J0.5822
G2 Y-8.0447 I1.7063 J2.9553
G2 X-6.5875 Y-11.0 I1.7063 J-2.9553
G2 X-6.6375 Y-11.5822 I-3.4125 J0.0
G0 Z2.0
G0 X-9.4974 Y7.6247
G1 F25.0 Z-0.4
G2 F75.0 X-11.7063 Y8.0447 I-0.5026 J3.3753
G2 Y13.9553 I1.7063 J2.9553
G2 X-6.5875 Y11.0 I1.7063 J-2.9553
G2 X-9.4974 Y7.6247 I-3.4125 J0.0
G1 F25.0 Z-0.8
G2 F75.0 X-11.7063 Y8.0447 I-0.5026 J3.3753
G2 Y13.9553 I1.7063 J2.9553
G2 X-6.5875 Y11.0 I1.7063 J-2.9553
G2 X-9.4974 Y7.6247 I-3.4125 J0.0
G1 F25.0 Z-1.2
G2 F75.0 X-11.7063 Y8.0447 I-0.5026 J3.3753
G2 Y13.9553 I1.7063 J2.9553
G2 X-6.5875 Y11.0 I1.7063 J-2.9553
G2 X-9.4974 Y7.6247 I-3.4125 J0.0
G1 F25.0 Z-1.6
G2 F75.0 X-11.7063 Y8.0447 I-0.5026 J3.3753
G2 Y13.9553 I1.7063 J2.9553
G2 X-6.5875 Y11.0 I1.7063 J-2.9553
G2 X-9.4974 Y7.6247 I-3.4125 J0.0
G1 F25.0 Z-2.0
G2 F75.0 X-11.7063 Y8.0447 I-0.5026 J3.3753
G2 Y13.9553 I1.7063 J2.9553
G2 X-6.5875 Y11.0 I1.7063 J-2.9553
G2 X-9.4974 Y7.6247 I-3.4125 J0.0
G1 F25.0 Z-2.4
G2 F75.0 X-11.7063 Y8.0447 I-0.5026 J3.3753
G2 Y13.9553 I1.7063 J2.9553
G2 X-6.5875 Y11.0 I1.7063 J-2.9553
G2 X-9.4974 Y7.6247 I-3.4125 J0.0
G1 F25.0 Z-2.8
G2 F75.0 X-11.7063 Y8.0447 I-0.5026 J3.3753
G2 Y13.9553 I1.7063 J2.9553
G2 X-6.5875 Y11.0 I1.7063 J-2.9553
G2 X-9.4974 Y7.6247 I-3.4125 J0.0
G1 F25.0 Z-3.2
G2 F75.0 X-11.7063 Y8.0447 I-0.5026 J3.3753
G2 Y13.9553 I1.7063 J2.9553
G2 X-6.5875 Y11.0 I1.7063 J-2.9553
G2 X-9.4974 Y7.6247 I-3.4125 J0.0
G1 F25.0 Z-3.6
G2 F75.0 X-11.7063 Y8.0447 I-0.5026 J3.3753
G2 Y13.9553 I1.7063 J2.9553
G2 X-6.5875 Y11.0 I1.7063 J-2.9553
G2 X-9.4974 Y7.6247 I-3.4125 J0.0
G1 F25.0 Z-4.0
G2 F75.0 X-11.7063 Y8.0447 I-0.5026 J3.3753
G2 Y13.9553 I1.7063 J2.9553
G2 X-6.5875 Y11.0 I1.7063 J-2.9553
G2 X-9.4974 Y7.6247 I-3.4125 J0.0
G1 F25.0 Z-4.4
G2 F75.0 X-11.7063 Y8.0447 I-0.5026 J3.3753
G2 Y13.9553 I1.7063 J2.9553
G2 X-6.5875 Y11.0 I1.7063 J-2.9553
G2 X-9.4974 Y7.6247 I-3.4125 J0.0
G1 F25.0 Z-4.8
G2 F75.0 X-11.7063 Y8.0447 I-0.5026 J3.3753
G2 Y13.9553 I1.7063 J2.9553
G2 X-6.5875 Y11.0 I1.7063 J-2.9553
G2 X-9.4974 Y7.6247 I-3.4125 J0.0
G1 F25.0 Z-5.2
G2 F75.0 X-11.7063 Y8.0447 I-0.5026 J3.3753
G2 Y13.9553 I1.7063 J2.9553
G2 X-6.5875 Y11.0 I1.7063 J-2.9553
G2 X-9.4974 Y7.6247 I-3.4125 J0.0
G1 F25.0 Z-5.6
G2 F75.0 X-11.7063 Y8.0447 I-0.5026 J3.3753
G2 Y13.9553 I1.7063 J2.9553
G2 X-6.5875 Y11.0 I1.7063 J-2.9553
G2 X-9.4974 Y7.6247 I-3.4125 J0.0
G0 Z2.0
G0 X6.6375 Y10.4179
G1 F25.0 Z-0.4
G2 F75.0 X8.2938 Y13.9553 I3.3625 J0.5821
G2 X13.4125 Y11.0 I1.7063 J-2.9553
G2 X8.2938 Y8.0447 I-3.4125 J0.0
G2 X6.6375 Y10.4179 I1.7063 J2.9553
G1 F25.0 Z-0.8
G2 F75.0 X8.2938 Y13.9553 I3.3625 J0.5821
G2 X13.4125 Y11.0 I1.7063 J-2.9553
G2 X8.2938 Y8.0447 I-3.4125 J0.0
G2 X6.6375 Y10.4179 I1.7063 J2.9553
G1 F25.0 Z-1.2
G2 F75.0 X8.2938 Y13.9553 I3.3625 J0.5821
G2 X13.4125 Y11.0 I1.7063 J-2.9553
G2 X8.2938 Y8.0447 I-3.4125 J0.0
G2 X6.6375 Y10.4179 I1.7063 J2.9553
G1 F25.0 Z-1.6
G2 F75.0 X8.2938 Y13.9553 I3.3625 J0.5821
G2 X13.4125 Y11.0 I1.7063 J-2.9553
G2 X8.2938 Y8.0447 I-3.4125 J0.0
G2 X6.6375 Y10.4179 I1.7063 J2.9553
G1 F25.0 Z-2.0
G2 F75.0 X8.2938 Y13.9553 I3.3625 J0.5821
G2 X13.4125 Y11.0 I1.7063 J-2.9553
G2 X8.2938 Y8.0447 I-3.4125 J0.0
G2 X6.6375 Y10.4179 I1.7063 J2.9553
G1 F25.0 Z-2.4
G2 F75.0 X8.2938 Y13.9553 I3.3625 J0.5821
G2 X13.4125 Y11.0 I1.7063 J-2.9553
G2 X8.2938 Y8.0447 I-3.4125 J0.0
G2 X6.6375 Y10.4179 I1.7063 J2.9553
G1 F25.0 Z-2.8
G2 F75.0 X8.2938 Y13.9553 I3.3625 J0.5821
G2 X13.4125 Y11.0 I1.7063 J-2.9553
G2 X8.2938 Y8.0447 I-3.4125 J0.0
G2 X6.6375 Y10.4179 I1.7063 J2.9553
G1 F25.0 Z-3.2
G2 F75.0 X8.2938 Y13.9553 I3.3625 J0.5821
G2 X13.4125 Y11.0 I1.7063 J-2.9553
G2 X8.2938 Y8.0447 I-3.4125 J0.0
G2 X6.6375 Y10.4179 I1.7063 J2.9553
G1 F25.0 Z-3.6
G2 F75.0 X8.2938 Y13.9553 I3.3625 J0.5821
G2 X13.4125 Y11.0 I1.7063 J-2.9553
G2 X8.2938 Y8.0447 I-3.4125 J0.0
G2 X6.6375 Y10.4179 I1.7063 J2.9553
G1 F25.0 Z-4.0
G2 F75.0 X8.2938 Y13.9553 I3.3625 J0.5821
G2 X13.4125 Y11.0 I1.7063 J-2.9553
G2 X8.2938 Y8.0447 I-3.4125 J0.0
G2 X6.6375 Y10.4179 I1.7063 J2.9553
G1 F25.0 Z-4.4
G2 F75.0 X8.2938 Y13.9553 I3.3625 J0.5821
G2 X13.4125 Y11.0 I1.7063 J-2.9553
G2 X8.2938 Y8.0447 I-3.4125 J0.0
G2 X6.6375 Y10.4179 I1.7063 J2.9553
G1 F25.0 Z-4.8
G2 F75.0 X8.2938 Y13.9553 I3.3625 J0.5821
G2 X13.4125 Y11.0 I1.7063 J-2.9553
G2 X8.2938 Y8.0447 I-3.4125 J0.0
G2 X6.6375 Y10.4179 I1.7063 J2.9553
G1 F25.0 Z-5.2
G2 F75.0 X8.2938 Y13.9553 I3.3625 J0.5821
G2 X13.4125 Y11.0 I1.7063 J-2.9553
G2 X8.2938 Y8.0447 I-3.4125 J0.0
G2 X6.6375 Y10.4179 I1.7063 J2.9553
G1 F25.0 Z-5.6
G2 F75.0 X8.2938 Y13.9553 I3.3625 J0.5821
G2 X13.4125 Y11.0 I1.7063 J-2.9553
G2 X8.2938 Y8.0447 I-3.4125 J0.0
G2 X6.6375 Y10.4179 I1.7063 J2.9553
G0 Z2.0
G0 X9.4974 Y29.6247
G1 F25.0 Z-0.4
G2 F75.0 X8.2938 Y30.0447 I0.5026 J3.3753
G2 Y35.9553 I1.7063 J2.9553
G2 X13.4125 Y33.0 I1.7063 J-2.9553
G2 X9.4974 Y29.6247 I-3.4125 J0.0
G1 F25.0 Z-0.8
G2 F75.0 X8.2938 Y30.0447 I0.5026 J3.3753
G2 Y35.9553 I1.7063 J2.9553
G2 X13.4125 Y33.0 I1.7063 J-2.9553
G2 X9.4974 Y29.6247 I-3.4125 J0.0
G1 F25.0 Z-1.2
G2 F75.0 X8.2938 Y30.0447 I0.5026 J3.3753
G2 Y35.9553 I1.7063 J2.9553
G2 X13.4125 Y33.0 I1.7063 J-2.9553
G2 X9.4974 Y29.6247 I-3.4125 J0.0
G1 F25.0 Z-1.6
G2 F75.0 X8.2938 Y30.0447 I0.5026 J3.3753
G2 Y35.9553 I1.7063 J2.9553
G2 X13.4125 Y33.0 I1.7063 J-2.9553
G2 X9.4974 Y29.6247 I-3.4125 J0.0
G1 F25.0 Z-2.0
G2 F75.0 X8.2938 Y30.0447 I0.5026 J3.3753
G2 Y35.9553 I1.7063 J2.9553
G2 X13.4125 Y33.0 I1.7063 J-2.9553
G2 X9.4974 Y29.6247 I-3.4125 J0.0
G1 F25.0 Z-2.4
G2 F75.0 X8.2938 Y30.0447 I0.5026 J3.3753
G2 Y35.9553 I1.7063 J2.9553
G2 X13.4125 Y33.0 I1.7063 J-2.9553
G2 X9.4974 Y29.6247 I-3.4125 J0.0
G1 F25.0 Z-2.8
G2 F75.0 X8.2938 Y30.0447 I0.5026 J3.3753
G2 Y35.9553 I1.7063 J2.9553
G2 X13.4125 Y33.0 I1.7063 J-2.9553
G2 X9.4974 Y29.6247 I-3.4125 J0.0
G1 F25.0 Z-3.2
G2 F75.0 X8.2938 Y30.0447 I0.5026 J3.3753
G2 Y35.9553 I1.7063 J2.9553
G2 X13.4125 Y33.0 I1.7063 J-2.9553
G2 X9.4974 Y29.6247 I-3.4125 J0.0
G1 F25.0 Z-3.6
G2 F75.0 X8.2938 Y30.0447 I0.5026 J3.3753
G2 Y35.9553 I1.7063 J2.9553
G2 X13.4125 Y33.0 I1.7063 J-2.9553
G2 X9.4974 Y29.6247 I-3.4125 J0.0
G1 F25.0 Z-4.0
G2 F75.0 X8.2938 Y30.0447 I0.5026 J3.3753
G2 Y35.9553 I1.7063 J2.9553
G2 X13.4125 Y33.0 I1.7063 J-2.9553
G2 X9.4974 Y29.6247 I-3.4125 J0.0
G1 F25.0 Z-4.4
G2 F75.0 X8.2938 Y30.0447 I0.5026 J3.3753
G2 Y35.9553 I1.7063 J2.9553
G2 X13.4125 Y33.0 I1.7063 J-2.9553
G2 X9.4974 Y29.6247 I-3.4125 J0.0
G1 F25.0 Z-4.8
G2 F75.0 X8.2938 Y30.0447 I0.5026 J3.3753
G2 Y35.9553 I1.7063 J2.9553
G2 X13.4125 Y33.0 I1.7063 J-2.9553
G2 X9.4974 Y29.6247 I-3.4125 J0.0
G1 F25.0 Z-5.2
G2 F75.0 X8.2938 Y30.0447 I0.5026 J3.3753
G2 Y35.9553 I1.7063 J2.9553
G2 X13.4125 Y33.0 I1.7063 J-2.9553
G2 X9.4974 Y29.6247 I-3.4125 J0.0
G1 F25.0 Z-5.6
G2 F75.0 X8.2938 Y30.0447 I0.5026 J3.3753
G2 Y35.9553 I1.7063 J2.9553
G2 X13.4125 Y33.0 I1.7063 J-2.9553
G2 X9.4974 Y29.6247 I-3.4125 J0.0
G0 Z2.0
G0 X-6.6375 Y32.4179
G1 F25.0 Z-0.4
G2 F75.0 X-11.7063 Y30.0447 I-3.3625 J0.5821
G2 Y35.9553 I1.7063 J2.9553
G2 X-6.5875 Y33.0 I1.7063 J-2.9553
G2 X-6.6375 Y32.4179 I-3.4125 J0.0
G1 F25.0 Z-0.8
G2 F75.0 X-11.7063 Y30.0447 I-3.3625 J0.5821
G2 Y35.9553 I1.7063 J2.9553
G2 X-6.5875 Y33.0 I1.7063 J-2.9553
G2 X-6.6375 Y32.4179 I-3.4125 J0.0
G1 F25.0 Z-1.2
G2 F75.0 X-11.7063 Y30.0447 I-3.3625 J0.5821
G2 Y35.9553 I1.7063 J2.9553
G2 X-6.5875 Y33.0 I1.7063 J-2.9553
G2 X-6.6375 Y32.4179 I-3.4125 J0.0
G1 F25.0 Z-1.6
G2 F75.0 X-11.7063 Y30.0447 I-3.3625 J0.5821
G2 Y35.9553 I1.7063 J2.9553
G2 X-6.5875 Y33.0 I1.7063 J-2.9553
G2 X-6.6375 Y32.4179 I-3.4125 J0.0
G1 F25.0 Z-2.0
G2 F75.0 X-11.7063 Y30.0447 I-3.3625 J0.5821
G2 Y35.9553 I1.7063 J2.9553
G2 X-6.5875 Y33.0 I1.7063 J-2.9553
G2 X-6.6375 Y32.4179 I-3.4125 J0.0
G1 F25.0 Z-2.4
G2 F75.0 X-11.7063 Y30.0447 I-3.3625 J0.5821
G2 Y35.9553 I1.7063 J2.9553
G2 X-6.5875 Y33.0 I1.7063 J-2.9553
G2 X-6.6375 Y32.4179 I-3.4125 J0.0
G1 F25.0 Z-2.8
G2 F75.0 X-11.7063 Y30.0447 I-3.3625 J0.5821
G2 Y35.9553 I1.7063 J2.9553
G2 X-6.5875 Y33.0 I1.7063 J-2.9553
G2 X-6.6375 Y32.4179 I-3.4125 J0.0
G1 F25.0 Z-3.2
G2 F75.0 X-11.7063 Y30.0447 I-3.3625 J0.5821
G2 Y35.9553 I1.7063 J2.9553
G2 X-6.5875 Y33.0 I1.7063 J-2.9553
G2 X-6.6375 Y32.4179 I-3.4125 J0.0
G1 F25.0 Z-3.6
G2 F75.0 X-11.7063 Y30.0447 I-3.3625 J0.5821
G2 Y35.9553 I1.7063 J2.9553
G2 X-6.5875 Y33.0 I1.7063 J-2.9553
G2 X-6.6375 Y32.4179 I-3.4125 J0.0
G1 F25.0 Z-4.0
G2 F75.0 X-11.7063 Y30.0447 I-3.3625 J0.5821
G2 Y35.9553 I1.7063 J2.9553
G2 X-6.5875 Y33.0 I1.7063 J-2.9553
G2 X-6.6375 Y32.4179 I-3.4125 J0.0
G1 F25.0 Z-4.4
G2 F75.0 X-11.7063 Y30.0447 I-3.3625 J0.5821
G2 Y35.9553 I1.7063 J2.9553
G2 X-6.5875 Y33.0 I1.7063 J-2.9553
G2 X-6.6375 Y32.4179 I-3.4125 J0.0
G1 F25.0 Z-4.8
G2 F75.0 X-11.7063 Y30.0447 I-3.3625 J0.5821
G2 Y35.9553 I1.7063 J2.9553
G2 X-6.5875 Y33.0 I1.7063 J-2.9553
G2 X-6.6375 Y32.4179 I-3.4125 J0.0
G1 F25.0 Z-5.2
G2 F75.0 X-11.7063 Y30.0447 I-3.3625 J0.5821
G2 Y35.9553 I1.7063 J2.9553
G2 X-6.5875 Y33.0 I1.7063 J-2.9553
G2 X-6.6375 Y32.4179 I-3.4125 J0.0
G1 F25.0 Z-5.6
G2 F75.0 X-11.7063 Y30.0447 I-3.3625 J0.5821
G2 Y35.9553 I1.7063 J2.9553
G2 X-6.5875 Y33.0 I1.7063 J-2.9553
G2 X-6.6375 Y32.4179 I-3.4125 J0.0
G0 Z2.0
M5
M30
