( Made using CamBam - http://www.cambam.co.uk )
( m_mount_tube 2/9/2022 6:49:55 PM )
( T0 : 3.175 )
G21 G90 G40
G0 Z2.0
( T0 : 3.175 )
T0 M6
( 4_free2 )
G17
M3 S2500
G0 X19.0372 Y-28.0503
G1 F25.0 Z-0.4
G3 F75.0 X14.9497 Y-23.9628 I-4.0875 J0.0
G1 X5.0503
G3 X0.9628 Y-28.0503 I0.0 J-4.0875
G1 Y-37.9497
G3 X5.0503 Y-42.0372 I4.0875 J0.0
G1 X14.9497
G3 X19.0372 Y-37.9497 I0.0 J4.0875
G1 Y-28.0503
G1 F25.0 Z-0.8
G3 F75.0 X14.9497 Y-23.9628 I-4.0875 J0.0
G1 X5.0503
G3 X0.9628 Y-28.0503 I0.0 J-4.0875
G1 Y-37.9497
G3 X5.0503 Y-42.0372 I4.0875 J0.0
G1 X14.9497
G3 X19.0372 Y-37.9497 I0.0 J4.0875
G1 Y-28.0503
G1 F25.0 Z-1.2
G3 F75.0 X14.9497 Y-23.9628 I-4.0875 J0.0
G1 X5.0503
G3 X0.9628 Y-28.0503 I0.0 J-4.0875
G1 Y-37.9497
G3 X5.0503 Y-42.0372 I4.0875 J0.0
G1 X14.9497
G3 X19.0372 Y-37.9497 I0.0 J4.0875
G1 Y-28.0503
G1 F25.0 Z-1.6
G3 F75.0 X14.9497 Y-23.9628 I-4.0875 J0.0
G1 X5.0503
G3 X0.9628 Y-28.0503 I0.0 J-4.0875
G1 Y-37.9497
G3 X5.0503 Y-42.0372 I4.0875 J0.0
G1 X14.9497
G3 X19.0372 Y-37.9497 I0.0 J4.0875
G1 Y-28.0503
G1 F25.0 Z-2.0
G3 F75.0 X14.9497 Y-23.9628 I-4.0875 J0.0
G1 X5.0503
G3 X0.9628 Y-28.0503 I0.0 J-4.0875
G1 Y-37.9497
G3 X5.0503 Y-42.0372 I4.0875 J0.0
G1 X14.9497
G3 X19.0372 Y-37.9497 I0.0 J4.0875
G1 Y-28.0503
G1 F25.0 Z-2.4
G3 F75.0 X14.9497 Y-23.9628 I-4.0875 J0.0
G1 X5.0503
G3 X0.9628 Y-28.0503 I0.0 J-4.0875
G1 Y-37.9497
G3 X5.0503 Y-42.0372 I4.0875 J0.0
G1 X14.9497
G3 X19.0372 Y-37.9497 I0.0 J4.0875
G1 Y-28.0503
G1 F25.0 Z-2.8
G3 F75.0 X14.9497 Y-23.9628 I-4.0875 J0.0
G1 X13.0875
G1 X10.0 Z-2.4
G1 X6.9125 Z-2.8
G1 X5.0503
G3 X0.9628 Y-28.0503 I0.0 J-4.0875
G1 Y-29.9125
G1 Y-33.0 Z-2.4
G1 Y-36.0875 Z-2.8
G1 Y-37.9497
G3 X5.0503 Y-42.0372 I4.0875 J0.0
G1 X6.9125
G1 X10.0 Z-2.4
G1 X13.0875 Z-2.8
G1 X14.9497
G3 X19.0372 Y-37.9497 I0.0 J4.0875
G1 Y-36.0875
G1 Y-33.0 Z-2.4
G1 Y-29.9125 Z-2.8
G1 Y-28.0503
G1 F25.0 Z-3.2
G3 F75.0 X14.9497 Y-23.9628 I-4.0875 J0.0
G1 X13.0875
G1 X10.0 Z-2.4
G1 X6.9125 Z-3.2
G1 X5.0503
G3 X0.9628 Y-28.0503 I0.0 J-4.0875
G1 Y-29.9125
G1 Y-33.0 Z-2.4
G1 Y-36.0875 Z-3.2
G1 Y-37.9497
G3 X5.0503 Y-42.0372 I4.0875 J0.0
G1 X6.9125
G1 X10.0 Z-2.4
G1 X13.0875 Z-3.2
G1 X14.9497
G3 X19.0372 Y-37.9497 I0.0 J4.0875
G1 Y-36.0875
G1 Y-33.0 Z-2.4
G1 Y-29.9125 Z-3.2
G1 Y-28.0503
G1 F25.0 Z-3.6
G3 F75.0 X14.9497 Y-23.9628 I-4.0875 J0.0
G1 X13.0875
G1 X10.0 Z-2.4
G1 X6.9125 Z-3.6
G1 X5.0503
G3 X0.9628 Y-28.0503 I0.0 J-4.0875
G1 Y-29.9125
G1 Y-33.0 Z-2.4
G1 Y-36.0875 Z-3.6
G1 Y-37.9497
G3 X5.0503 Y-42.0372 I4.0875 J0.0
G1 X6.9125
G1 X10.0 Z-2.4
G1 X13.0875 Z-3.6
G1 X14.9497
G3 X19.0372 Y-37.9497 I0.0 J4.0875
G1 Y-36.0875
G1 Y-33.0 Z-2.4
G1 Y-29.9125 Z-3.6
G1 Y-28.0503
G1 F25.0 Z-4.0
G3 F75.0 X14.9497 Y-23.9628 I-4.0875 J0.0
G1 X13.0875
G1 X10.0 Z-2.4
G1 X6.9125 Z-4.0
G1 X5.0503
G3 X0.9628 Y-28.0503 I0.0 J-4.0875
G1 Y-29.9125
G1 Y-33.0 Z-2.4
G1 Y-36.0875 Z-4.0
G1 Y-37.9497
G3 X5.0503 Y-42.0372 I4.0875 J0.0
G1 X6.9125
G1 X10.0 Z-2.4
G1 X13.0875 Z-4.0
G1 X14.9497
G3 X19.0372 Y-37.9497 I0.0 J4.0875
G1 Y-36.0875
G1 Y-33.0 Z-2.4
G1 Y-29.9125 Z-4.0
G1 Y-28.0503
G1 F25.0 Z-4.4
G3 F75.0 X14.9497 Y-23.9628 I-4.0875 J0.0
G1 X13.0875
G1 X10.0 Z-2.4
G1 X6.9125 Z-4.4
G1 X5.0503
G3 X0.9628 Y-28.0503 I0.0 J-4.0875
G1 Y-29.9125
G1 Y-33.0 Z-2.4
G1 Y-36.0875 Z-4.4
G1 Y-37.9497
G3 X5.0503 Y-42.0372 I4.0875 J0.0
G1 X6.9125
G1 X10.0 Z-2.4
G1 X13.0875 Z-4.4
G1 X14.9497
G3 X19.0372 Y-37.9497 I0.0 J4.0875
G1 Y-36.0875
G1 Y-33.0 Z-2.4
G1 Y-29.9125 Z-4.4
G1 Y-28.0503
G1 F25.0 Z-4.8
G3 F75.0 X14.9497 Y-23.9628 I-4.0875 J0.0
G1 X13.0875
G1 X10.0 Z-2.4
G1 X6.9125 Z-4.8
G1 X5.0503
G3 X0.9628 Y-28.0503 I0.0 J-4.0875
G1 Y-29.9125
G1 Y-33.0 Z-2.4
G1 Y-36.0875 Z-4.8
G1 Y-37.9497
G3 X5.0503 Y-42.0372 I4.0875 J0.0
G1 X6.9125
G1 X10.0 Z-2.4
G1 X13.0875 Z-4.8
G1 X14.9497
G3 X19.0372 Y-37.9497 I0.0 J4.0875
G1 Y-36.0875
G1 Y-33.0 Z-2.4
G1 Y-29.9125 Z-4.8
G1 Y-28.0503
G1 F25.0 Z-5.2
G3 F75.0 X14.9497 Y-23.9628 I-4.0875 J0.0
G1 X13.0875
G1 X10.0 Z-2.4
G1 X6.9125 Z-5.2
G1 X5.0503
G3 X0.9628 Y-28.0503 I0.0 J-4.0875
G1 Y-29.9125
G1 Y-33.0 Z-2.4
G1 Y-36.0875 Z-5.2
G1 Y-37.9497
G3 X5.0503 Y-42.0372 I4.0875 J0.0
G1 X6.9125
G1 X10.0 Z-2.4
G1 X13.0875 Z-5.2
G1 X14.9497
G3 X19.0372 Y-37.9497 I0.0 J4.0875
G1 Y-36.0875
G1 Y-33.0 Z-2.4
G1 Y-29.9125 Z-5.2
G1 Y-28.0503
G1 F25.0 Z-5.6
G3 F75.0 X14.9497 Y-23.9628 I-4.0875 J0.0
G1 X13.0875
G1 X10.0 Z-2.4
G1 X6.9125 Z-5.6
G1 X5.0503
G3 X0.9628 Y-28.0503 I0.0 J-4.0875
G1 Y-29.9125
G1 Y-33.0 Z-2.4
G1 Y-36.0875 Z-5.6
G1 Y-37.9497
G3 X5.0503 Y-42.0372 I4.0875 J0.0
G1 X6.9125
G1 X10.0 Z-2.4
G1 X13.0875 Z-5.6
G1 X14.9497
G3 X19.0372 Y-37.9497 I0.0 J4.0875
G1 Y-36.0875
G1 Y-33.0 Z-2.4
G1 Y-29.9125 Z-5.6
G1 Y-28.0503
G0 Z2.0
G0 X15.4362 Y1.9918
G1 F25.0 Z-0.4
G3 F75.0 X19.0372 Y6.0503 I-0.4865 J4.0584
G1 Y15.9497
G3 X14.9497 Y20.0372 I-4.0875 J0.0
G1 X5.0503
G3 X0.9628 Y15.9497 I0.0 J-4.0875
G1 Y6.0503
G3 X5.0503 Y1.9628 I4.0875 J0.0
G1 X14.9497
G3 X15.4362 Y1.9918 I0.0 J4.0875
G1 F25.0 Z-0.8
G3 F75.0 X19.0372 Y6.0503 I-0.4865 J4.0584
G1 Y15.9497
G3 X14.9497 Y20.0372 I-4.0875 J0.0
G1 X5.0503
G3 X0.9628 Y15.9497 I0.0 J-4.0875
G1 Y6.0503
G3 X5.0503 Y1.9628 I4.0875 J0.0
G1 X14.9497
G3 X15.4362 Y1.9918 I0.0 J4.0875
G1 F25.0 Z-1.2
G3 F75.0 X19.0372 Y6.0503 I-0.4865 J4.0584
G1 Y15.9497
G3 X14.9497 Y20.0372 I-4.0875 J0.0
G1 X5.0503
G3 X0.9628 Y15.9497 I0.0 J-4.0875
G1 Y6.0503
G3 X5.0503 Y1.9628 I4.0875 J0.0
G1 X14.9497
G3 X15.4362 Y1.9918 I0.0 J4.0875
G1 F25.0 Z-1.6
G3 F75.0 X19.0372 Y6.0503 I-0.4865 J4.0584
G1 Y15.9497
G3 X14.9497 Y20.0372 I-4.0875 J0.0
G1 X5.0503
G3 X0.9628 Y15.9497 I0.0 J-4.0875
G1 Y6.0503
G3 X5.0503 Y1.9628 I4.0875 J0.0
G1 X14.9497
G3 X15.4362 Y1.9918 I0.0 J4.0875
G1 F25.0 Z-2.0
G3 F75.0 X19.0372 Y6.0503 I-0.4865 J4.0584
G1 Y15.9497
G3 X14.9497 Y20.0372 I-4.0875 J0.0
G1 X5.0503
G3 X0.9628 Y15.9497 I0.0 J-4.0875
G1 Y6.0503
G3 X5.0503 Y1.9628 I4.0875 J0.0
G1 X14.9497
G3 X15.4362 Y1.9918 I0.0 J4.0875
G1 F25.0 Z-2.4
G3 F75.0 X19.0372 Y6.0503 I-0.4865 J4.0584
G1 Y15.9497
G3 X14.9497 Y20.0372 I-4.0875 J0.0
G1 X5.0503
G3 X0.9628 Y15.9497 I0.0 J-4.0875
G1 Y6.0503
G3 X5.0503 Y1.9628 I4.0875 J0.0
G1 X14.9497
G3 X15.4362 Y1.9918 I0.0 J4.0875
G1 F25.0 Z-2.8
G3 F75.0 X19.0372 Y6.0503 I-0.4865 J4.0584
G1 Y7.9125
G1 Y11.0 Z-2.4
G1 Y14.0875 Z-2.8
G1 Y15.9497
G3 X14.9497 Y20.0372 I-4.0875 J0.0
G1 X13.0875
G1 X10.0 Z-2.4
G1 X6.9125 Z-2.8
G1 X5.0503
G3 X0.9628 Y15.9497 I0.0 J-4.0875
G1 Y14.0875
G1 Y11.0 Z-2.4
G1 Y7.9125 Z-2.8
G1 Y6.0503
G3 X5.0503 Y1.9628 I4.0875 J0.0
G1 X6.9125
G1 X10.0 Z-2.4
G1 X13.0875 Z-2.8
G1 X14.9497
G3 X15.4362 Y1.9918 I0.0 J4.0875
G1 F25.0 Z-3.2
G3 F75.0 X19.0372 Y6.0503 I-0.4865 J4.0584
G1 Y7.9125
G1 Y11.0 Z-2.4
G1 Y14.0875 Z-3.2
G1 Y15.9497
G3 X14.9497 Y20.0372 I-4.0875 J0.0
G1 X13.0875
G1 X10.0 Z-2.4
G1 X6.9125 Z-3.2
G1 X5.0503
G3 X0.9628 Y15.9497 I0.0 J-4.0875
G1 Y14.0875
G1 Y11.0 Z-2.4
G1 Y7.9125 Z-3.2
G1 Y6.0503
G3 X5.0503 Y1.9628 I4.0875 J0.0
G1 X6.9125
G1 X10.0 Z-2.4
G1 X13.0875 Z-3.2
G1 X14.9497
G3 X15.4362 Y1.9918 I0.0 J4.0875
G1 F25.0 Z-3.6
G3 F75.0 X19.0372 Y6.0503 I-0.4865 J4.0584
G1 Y7.9125
G1 Y11.0 Z-2.4
G1 Y14.0875 Z-3.6
G1 Y15.9497
G3 X14.9497 Y20.0372 I-4.0875 J0.0
G1 X13.0875
G1 X10.0 Z-2.4
G1 X6.9125 Z-3.6
G1 X5.0503
G3 X0.9628 Y15.9497 I0.0 J-4.0875
G1 Y14.0875
G1 Y11.0 Z-2.4
G1 Y7.9125 Z-3.6
G1 Y6.0503
G3 X5.0503 Y1.9628 I4.0875 J0.0
G1 X6.9125
G1 X10.0 Z-2.4
G1 X13.0875 Z-3.6
G1 X14.9497
G3 X15.4362 Y1.9918 I0.0 J4.0875
G1 F25.0 Z-4.0
G3 F75.0 X19.0372 Y6.0503 I-0.4865 J4.0584
G1 Y7.9125
G1 Y11.0 Z-2.4
G1 Y14.0875 Z-4.0
G1 Y15.9497
G3 X14.9497 Y20.0372 I-4.0875 J0.0
G1 X13.0875
G1 X10.0 Z-2.4
G1 X6.9125 Z-4.0
G1 X5.0503
G3 X0.9628 Y15.9497 I0.0 J-4.0875
G1 Y14.0875
G1 Y11.0 Z-2.4
G1 Y7.9125 Z-4.0
G1 Y6.0503
G3 X5.0503 Y1.9628 I4.0875 J0.0
G1 X6.9125
G1 X10.0 Z-2.4
G1 X13.0875 Z-4.0
G1 X14.9497
G3 X15.4362 Y1.9918 I0.0 J4.0875
G1 F25.0 Z-4.4
G3 F75.0 X19.0372 Y6.0503 I-0.4865 J4.0584
G1 Y7.9125
G1 Y11.0 Z-2.4
G1 Y14.0875 Z-4.4
G1 Y15.9497
G3 X14.9497 Y20.0372 I-4.0875 J0.0
G1 X13.0875
G1 X10.0 Z-2.4
G1 X6.9125 Z-4.4
G1 X5.0503
G3 X0.9628 Y15.9497 I0.0 J-4.0875
G1 Y14.0875
G1 Y11.0 Z-2.4
G1 Y7.9125 Z-4.4
G1 Y6.0503
G3 X5.0503 Y1.9628 I4.0875 J0.0
G1 X6.9125
G1 X10.0 Z-2.4
G1 X13.0875 Z-4.4
G1 X14.9497
G3 X15.4362 Y1.9918 I0.0 J4.0875
G1 F25.0 Z-4.8
G3 F75.0 X19.0372 Y6.0503 I-0.4865 J4.0584
G1 Y7.9125
G1 Y11.0 Z-2.4
G1 Y14.0875 Z-4.8
G1 Y15.9497
G3 X14.9497 Y20.0372 I-4.0875 J0.0
G1 X13.0875
G1 X10.0 Z-2.4
G1 X6.9125 Z-4.8
G1 X5.0503
G3 X0.9628 Y15.9497 I0.0 J-4.0875
G1 Y14.0875
G1 Y11.0 Z-2.4
G1 Y7.9125 Z-4.8
G1 Y6.0503
G3 X5.0503 Y1.9628 I4.0875 J0.0
G1 X6.9125
G1 X10.0 Z-2.4
G1 X13.0875 Z-4.8
G1 X14.9497
G3 X15.4362 Y1.9918 I0.0 J4.0875
G1 F25.0 Z-5.2
G3 F75.0 X19.0372 Y6.0503 I-0.4865 J4.0584
G1 Y7.9125
G1 Y11.0 Z-2.4
G1 Y14.0875 Z-5.2
G1 Y15.9497
G3 X14.9497 Y20.0372 I-4.0875 J0.0
G1 X13.0875
G1 X10.0 Z-2.4
G1 X6.9125 Z-5.2
G1 X5.0503
G3 X0.9628 Y15.9497 I0.0 J-4.0875
G1 Y14.0875
G1 Y11.0 Z-2.4
G1 Y7.9125 Z-5.2
G1 Y6.0503
G3 X5.0503 Y1.9628 I4.0875 J0.0
G1 X6.9125
G1 X10.0 Z-2.4
G1 X13.0875 Z-5.2
G1 X14.9497
G3 X15.4362 Y1.9918 I0.0 J4.0875
G1 F25.0 Z-5.6
G3 F75.0 X19.0372 Y6.0503 I-0.4865 J4.0584
G1 Y7.9125
G1 Y11.0 Z-2.4
G1 Y14.0875 Z-5.6
G1 Y15.9497
G3 X14.9497 Y20.0372 I-4.0875 J0.0
G1 X13.0875
G1 X10.0 Z-2.4
G1 X6.9125 Z-5.6
G1 X5.0503
G3 X0.9628 Y15.9497 I0.0 J-4.0875
G1 Y14.0875
G1 Y11.0 Z-2.4
G1 Y7.9125 Z-5.6
G1 Y6.0503
G3 X5.0503 Y1.9628 I4.0875 J0.0
G1 X6.9125
G1 X10.0 Z-2.4
G1 X13.0875 Z-5.6
G1 X14.9497
G3 X15.4362 Y1.9918 I0.0 J4.0875
G0 Z2.0
G0 X-1.0407 Y5.2559
G1 F25.0 Z-0.4
G3 F75.0 X-0.9628 Y6.0503 I-4.0096 J0.7943
G1 Y15.9497
G3 X-5.0503 Y20.0372 I-4.0875 J0.0
G1 X-14.9497
G3 X-19.0372 Y15.9497 I0.0 J-4.0875
G1 Y6.0503
G3 X-14.9497 Y1.9628 I4.0875 J0.0
G1 X-5.0503
G3 X-1.0407 Y5.2559 I0.0 J4.0875
G1 F25.0 Z-0.8
G3 F75.0 X-0.9628 Y6.0503 I-4.0096 J0.7943
G1 Y15.9497
G3 X-5.0503 Y20.0372 I-4.0875 J0.0
G1 X-14.9497
G3 X-19.0372 Y15.9497 I0.0 J-4.0875
G1 Y6.0503
G3 X-14.9497 Y1.9628 I4.0875 J0.0
G1 X-5.0503
G3 X-1.0407 Y5.2559 I0.0 J4.0875
G1 F25.0 Z-1.2
G3 F75.0 X-0.9628 Y6.0503 I-4.0096 J0.7943
G1 Y15.9497
G3 X-5.0503 Y20.0372 I-4.0875 J0.0
G1 X-14.9497
G3 X-19.0372 Y15.9497 I0.0 J-4.0875
G1 Y6.0503
G3 X-14.9497 Y1.9628 I4.0875 J0.0
G1 X-5.0503
G3 X-1.0407 Y5.2559 I0.0 J4.0875
G1 F25.0 Z-1.6
G3 F75.0 X-0.9628 Y6.0503 I-4.0096 J0.7943
G1 Y15.9497
G3 X-5.0503 Y20.0372 I-4.0875 J0.0
G1 X-14.9497
G3 X-19.0372 Y15.9497 I0.0 J-4.0875
G1 Y6.0503
G3 X-14.9497 Y1.9628 I4.0875 J0.0
G1 X-5.0503
G3 X-1.0407 Y5.2559 I0.0 J4.0875
G1 F25.0 Z-2.0
G3 F75.0 X-0.9628 Y6.0503 I-4.0096 J0.7943
G1 Y15.9497
G3 X-5.0503 Y20.0372 I-4.0875 J0.0
G1 X-14.9497
G3 X-19.0372 Y15.9497 I0.0 J-4.0875
G1 Y6.0503
G3 X-14.9497 Y1.9628 I4.0875 J0.0
G1 X-5.0503
G3 X-1.0407 Y5.2559 I0.0 J4.0875
G1 F25.0 Z-2.4
G3 F75.0 X-0.9628 Y6.0503 I-4.0096 J0.7943
G1 Y15.9497
G3 X-5.0503 Y20.0372 I-4.0875 J0.0
G1 X-14.9497
G3 X-19.0372 Y15.9497 I0.0 J-4.0875
G1 Y6.0503
G3 X-14.9497 Y1.9628 I4.0875 J0.0
G1 X-5.0503
G3 X-1.0407 Y5.2559 I0.0 J4.0875
G1 F25.0 Z-2.8
G3 F75.0 X-0.9628 Y6.0503 I-4.0096 J0.7943
G1 Y7.9125
G1 Y11.0 Z-2.4
G1 Y14.0875 Z-2.8
G1 Y15.9497
G3 X-5.0503 Y20.0372 I-4.0875 J0.0
G1 X-6.9125
G1 X-10.0 Z-2.4
G1 X-13.0875 Z-2.8
G1 X-14.9497
G3 X-19.0372 Y15.9497 I0.0 J-4.0875
G1 Y14.0875
G1 Y11.0 Z-2.4
G1 Y7.9125 Z-2.8
G1 Y6.0503
G3 X-14.9497 Y1.9628 I4.0875 J0.0
G1 X-13.0875
G1 X-10.0 Z-2.4
G1 X-6.9125 Z-2.8
G1 X-5.0503
G3 X-1.0407 Y5.2559 I0.0 J4.0875
G1 F25.0 Z-3.2
G3 F75.0 X-0.9628 Y6.0503 I-4.0096 J0.7943
G1 Y7.9125
G1 Y11.0 Z-2.4
G1 Y14.0875 Z-3.2
G1 Y15.9497
G3 X-5.0503 Y20.0372 I-4.0875 J0.0
G1 X-6.9125
G1 X-10.0 Z-2.4
G1 X-13.0875 Z-3.2
G1 X-14.9497
G3 X-19.0372 Y15.9497 I0.0 J-4.0875
G1 Y14.0875
G1 Y11.0 Z-2.4
G1 Y7.9125 Z-3.2
G1 Y6.0503
G3 X-14.9497 Y1.9628 I4.0875 J0.0
G1 X-13.0875
G1 X-10.0 Z-2.4
G1 X-6.9125 Z-3.2
G1 X-5.0503
G3 X-1.0407 Y5.2559 I0.0 J4.0875
G1 F25.0 Z-3.6
G3 F75.0 X-0.9628 Y6.0503 I-4.0096 J0.7943
G1 Y7.9125
G1 Y11.0 Z-2.4
G1 Y14.0875 Z-3.6
G1 Y15.9497
G3 X-5.0503 Y20.0372 I-4.0875 J0.0
G1 X-6.9125
G1 X-10.0 Z-2.4
G1 X-13.0875 Z-3.6
G1 X-14.9497
G3 X-19.0372 Y15.9497 I0.0 J-4.0875
G1 Y14.0875
G1 Y11.0 Z-2.4
G1 Y7.9125 Z-3.6
G1 Y6.0503
G3 X-14.9497 Y1.9628 I4.0875 J0.0
G1 X-13.0875
G1 X-10.0 Z-2.4
G1 X-6.9125 Z-3.6
G1 X-5.0503
G3 X-1.0407 Y5.2559 I0.0 J4.0875
G1 F25.0 Z-4.0
G3 F75.0 X-0.9628 Y6.0503 I-4.0096 J0.7943
G1 Y7.9125
G1 Y11.0 Z-2.4
G1 Y14.0875 Z-4.0
G1 Y15.9497
G3 X-5.0503 Y20.0372 I-4.0875 J0.0
G1 X-6.9125
G1 X-10.0 Z-2.4
G1 X-13.0875 Z-4.0
G1 X-14.9497
G3 X-19.0372 Y15.9497 I0.0 J-4.0875
G1 Y14.0875
G1 Y11.0 Z-2.4
G1 Y7.9125 Z-4.0
G1 Y6.0503
G3 X-14.9497 Y1.9628 I4.0875 J0.0
G1 X-13.0875
G1 X-10.0 Z-2.4
G1 X-6.9125 Z-4.0
G1 X-5.0503
G3 X-1.0407 Y5.2559 I0.0 J4.0875
G1 F25.0 Z-4.4
G3 F75.0 X-0.9628 Y6.0503 I-4.0096 J0.7943
G1 Y7.9125
G1 Y11.0 Z-2.4
G1 Y14.0875 Z-4.4
G1 Y15.9497
G3 X-5.0503 Y20.0372 I-4.0875 J0.0
G1 X-6.9125
G1 X-10.0 Z-2.4
G1 X-13.0875 Z-4.4
G1 X-14.9497
G3 X-19.0372 Y15.9497 I0.0 J-4.0875
G1 Y14.0875
G1 Y11.0 Z-2.4
G1 Y7.9125 Z-4.4
G1 Y6.0503
G3 X-14.9497 Y1.9628 I4.0875 J0.0
G1 X-13.0875
G1 X-10.0 Z-2.4
G1 X-6.9125 Z-4.4
G1 X-5.0503
G3 X-1.0407 Y5.2559 I0.0 J4.0875
G1 F25.0 Z-4.8
G3 F75.0 X-0.9628 Y6.0503 I-4.0096 J0.7943
G1 Y7.9125
G1 Y11.0 Z-2.4
G1 Y14.0875 Z-4.8
G1 Y15.9497
G3 X-5.0503 Y20.0372 I-4.0875 J0.0
G1 X-6.9125
G1 X-10.0 Z-2.4
G1 X-13.0875 Z-4.8
G1 X-14.9497
G3 X-19.0372 Y15.9497 I0.0 J-4.0875
G1 Y14.0875
G1 Y11.0 Z-2.4
G1 Y7.9125 Z-4.8
G1 Y6.0503
G3 X-14.9497 Y1.9628 I4.0875 J0.0
G1 X-13.0875
G1 X-10.0 Z-2.4
G1 X-6.9125 Z-4.8
G1 X-5.0503
G3 X-1.0407 Y5.2559 I0.0 J4.0875
G1 F25.0 Z-5.2
G3 F75.0 X-0.9628 Y6.0503 I-4.0096 J0.7943
G1 Y7.9125
G1 Y11.0 Z-2.4
G1 Y14.0875 Z-5.2
G1 Y15.9497
G3 X-5.0503 Y20.0372 I-4.0875 J0.0
G1 X-6.9125
G1 X-10.0 Z-2.4
G1 X-13.0875 Z-5.2
G1 X-14.9497
G3 X-19.0372 Y15.9497 I0.0 J-4.0875
G1 Y14.0875
G1 Y11.0 Z-2.4
G1 Y7.9125 Z-5.2
G1 Y6.0503
G3 X-14.9497 Y1.9628 I4.0875 J0.0
G1 X-13.0875
G1 X-10.0 Z-2.4
G1 X-6.9125 Z-5.2
G1 X-5.0503
G3 X-1.0407 Y5.2559 I0.0 J4.0875
G1 F25.0 Z-5.6
G3 F75.0 X-0.9628 Y6.0503 I-4.0096 J0.7943
G1 Y7.9125
G1 Y11.0 Z-2.4
G1 Y14.0875 Z-5.6
G1 Y15.9497
G3 X-5.0503 Y20.0372 I-4.0875 J0.0
G1 X-6.9125
G1 X-10.0 Z-2.4
G1 X-13.0875 Z-5.6
G1 X-14.9497
G3 X-19.0372 Y15.9497 I0.0 J-4.0875
G1 Y14.0875
G1 Y11.0 Z-2.4
G1 Y7.9125 Z-5.6
G1 Y6.0503
G3 X-14.9497 Y1.9628 I4.0875 J0.0
G1 X-13.0875
G1 X-10.0 Z-2.4
G1 X-6.9125 Z-5.6
G1 X-5.0503
G3 X-1.0407 Y5.2559 I0.0 J4.0875
G0 Z2.0
G0 X-4.3421 Y24.0246
G1 F25.0 Z-0.4
G3 F75.0 X-0.9628 Y28.0503 I-0.7081 J4.0257
G1 Y37.9497
G3 X-5.0503 Y42.0372 I-4.0875 J0.0
G1 X-14.9497
G3 X-19.0372 Y37.9497 I0.0 J-4.0875
G1 Y28.0503
G3 X-14.9497 Y23.9628 I4.0875 J0.0
G1 X-5.0503
G3 X-4.3421 Y24.0246 I0.0 J4.0875
G1 F25.0 Z-0.8
G3 F75.0 X-0.9628 Y28.0503 I-0.7081 J4.0257
G1 Y37.9497
G3 X-5.0503 Y42.0372 I-4.0875 J0.0
G1 X-14.9497
G3 X-19.0372 Y37.9497 I0.0 J-4.0875
G1 Y28.0503
G3 X-14.9497 Y23.9628 I4.0875 J0.0
G1 X-5.0503
G3 X-4.3421 Y24.0246 I0.0 J4.0875
G1 F25.0 Z-1.2
G3 F75.0 X-0.9628 Y28.0503 I-0.7081 J4.0257
G1 Y37.9497
G3 X-5.0503 Y42.0372 I-4.0875 J0.0
G1 X-14.9497
G3 X-19.0372 Y37.9497 I0.0 J-4.0875
G1 Y28.0503
G3 X-14.9497 Y23.9628 I4.0875 J0.0
G1 X-5.0503
G3 X-4.3421 Y24.0246 I0.0 J4.0875
G1 F25.0 Z-1.6
G3 F75.0 X-0.9628 Y28.0503 I-0.7081 J4.0257
G1 Y37.9497
G3 X-5.0503 Y42.0372 I-4.0875 J0.0
G1 X-14.9497
G3 X-19.0372 Y37.9497 I0.0 J-4.0875
G1 Y28.0503
G3 X-14.9497 Y23.9628 I4.0875 J0.0
G1 X-5.0503
G3 X-4.3421 Y24.0246 I0.0 J4.0875
G1 F25.0 Z-2.0
G3 F75.0 X-0.9628 Y28.0503 I-0.7081 J4.0257
G1 Y37.9497
G3 X-5.0503 Y42.0372 I-4.0875 J0.0
G1 X-14.9497
G3 X-19.0372 Y37.9497 I0.0 J-4.0875
G1 Y28.0503
G3 X-14.9497 Y23.9628 I4.0875 J0.0
G1 X-5.0503
G3 X-4.3421 Y24.0246 I0.0 J4.0875
G1 F25.0 Z-2.4
G3 F75.0 X-0.9628 Y28.0503 I-0.7081 J4.0257
G1 Y37.9497
G3 X-5.0503 Y42.0372 I-4.0875 J0.0
G1 X-14.9497
G3 X-19.0372 Y37.9497 I0.0 J-4.0875
G1 Y28.0503
G3 X-14.9497 Y23.9628 I4.0875 J0.0
G1 X-5.0503
G3 X-4.3421 Y24.0246 I0.0 J4.0875
G1 F25.0 Z-2.8
G3 F75.0 X-0.9628 Y28.0503 I-0.7081 J4.0257
G1 Y29.9125
G1 Y33.0 Z-2.4
G1 Y36.0875 Z-2.8
G1 Y37.9497
G3 X-5.0503 Y42.0372 I-4.0875 J0.0
G1 X-6.9125
G1 X-10.0 Z-2.4
G1 X-13.0875 Z-2.8
G1 X-14.9497
G3 X-19.0372 Y37.9497 I0.0 J-4.0875
G1 Y36.0875
G1 Y33.0 Z-2.4
G1 Y29.9125 Z-2.8
G1 Y28.0503
G3 X-14.9497 Y23.9628 I4.0875 J0.0
G1 X-13.0875
G1 X-10.0 Z-2.4
G1 X-6.9125 Z-2.8
G1 X-5.0503
G3 X-4.3421 Y24.0246 I0.0 J4.0875
G1 F25.0 Z-3.2
G3 F75.0 X-0.9628 Y28.0503 I-0.7081 J4.0257
G1 Y29.9125
G1 Y33.0 Z-2.4
G1 Y36.0875 Z-3.2
G1 Y37.9497
G3 X-5.0503 Y42.0372 I-4.0875 J0.0
G1 X-6.9125
G1 X-10.0 Z-2.4
G1 X-13.0875 Z-3.2
G1 X-14.9497
G3 X-19.0372 Y37.9497 I0.0 J-4.0875
G1 Y36.0875
G1 Y33.0 Z-2.4
G1 Y29.9125 Z-3.2
G1 Y28.0503
G3 X-14.9497 Y23.9628 I4.0875 J0.0
G1 X-13.0875
G1 X-10.0 Z-2.4
G1 X-6.9125 Z-3.2
G1 X-5.0503
G3 X-4.3421 Y24.0246 I0.0 J4.0875
G1 F25.0 Z-3.6
G3 F75.0 X-0.9628 Y28.0503 I-0.7081 J4.0257
G1 Y29.9125
G1 Y33.0 Z-2.4
G1 Y36.0875 Z-3.6
G1 Y37.9497
G3 X-5.0503 Y42.0372 I-4.0875 J0.0
G1 X-6.9125
G1 X-10.0 Z-2.4
G1 X-13.0875 Z-3.6
G1 X-14.9497
G3 X-19.0372 Y37.9497 I0.0 J-4.0875
G1 Y36.0875
G1 Y33.0 Z-2.4
G1 Y29.9125 Z-3.6
G1 Y28.0503
G3 X-14.9497 Y23.9628 I4.0875 J0.0
G1 X-13.0875
G1 X-10.0 Z-2.4
G1 X-6.9125 Z-3.6
G1 X-5.0503
G3 X-4.3421 Y24.0246 I0.0 J4.0875
G1 F25.0 Z-4.0
G3 F75.0 X-0.9628 Y28.0503 I-0.7081 J4.0257
G1 Y29.9125
G1 Y33.0 Z-2.4
G1 Y36.0875 Z-4.0
G1 Y37.9497
G3 X-5.0503 Y42.0372 I-4.0875 J0.0
G1 X-6.9125
G1 X-10.0 Z-2.4
G1 X-13.0875 Z-4.0
G1 X-14.9497
G3 X-19.0372 Y37.9497 I0.0 J-4.0875
G1 Y36.0875
G1 Y33.0 Z-2.4
G1 Y29.9125 Z-4.0
G1 Y28.0503
G3 X-14.9497 Y23.9628 I4.0875 J0.0
G1 X-13.0875
G1 X-10.0 Z-2.4
G1 X-6.9125 Z-4.0
G1 X-5.0503
G3 X-4.3421 Y24.0246 I0.0 J4.0875
G1 F25.0 Z-4.4
G3 F75.0 X-0.9628 Y28.0503 I-0.7081 J4.0257
G1 Y29.9125
G1 Y33.0 Z-2.4
G1 Y36.0875 Z-4.4
G1 Y37.9497
G3 X-5.0503 Y42.0372 I-4.0875 J0.0
G1 X-6.9125
G1 X-10.0 Z-2.4
G1 X-13.0875 Z-4.4
G1 X-14.9497
G3 X-19.0372 Y37.9497 I0.0 J-4.0875
G1 Y36.0875
G1 Y33.0 Z-2.4
G1 Y29.9125 Z-4.4
G1 Y28.0503
G3 X-14.9497 Y23.9628 I4.0875 J0.0
G1 X-13.0875
G1 X-10.0 Z-2.4
G1 X-6.9125 Z-4.4
G1 X-5.0503
G3 X-4.3421 Y24.0246 I0.0 J4.0875
G1 F25.0 Z-4.8
G3 F75.0 X-0.9628 Y28.0503 I-0.7081 J4.0257
G1 Y29.9125
G1 Y33.0 Z-2.4
G1 Y36.0875 Z-4.8
G1 Y37.9497
G3 X-5.0503 Y42.0372 I-4.0875 J0.0
G1 X-6.9125
G1 X-10.0 Z-2.4
G1 X-13.0875 Z-4.8
G1 X-14.9497
G3 X-19.0372 Y37.9497 I0.0 J-4.0875
G1 Y36.0875
G1 Y33.0 Z-2.4
G1 Y29.9125 Z-4.8
G1 Y28.0503
G3 X-14.9497 Y23.9628 I4.0875 J0.0
G1 X-13.0875
G1 X-10.0 Z-2.4
G1 X-6.9125 Z-4.8
G1 X-5.0503
G3 X-4.3421 Y24.0246 I0.0 J4.0875
G1 F25.0 Z-5.2
G3 F75.0 X-0.9628 Y28.0503 I-0.7081 J4.0257
G1 Y29.9125
G1 Y33.0 Z-2.4
G1 Y36.0875 Z-5.2
G1 Y37.9497
G3 X-5.0503 Y42.0372 I-4.0875 J0.0
G1 X-6.9125
G1 X-10.0 Z-2.4
G1 X-13.0875 Z-5.2
G1 X-14.9497
G3 X-19.0372 Y37.9497 I0.0 J-4.0875
G1 Y36.0875
G1 Y33.0 Z-2.4
G1 Y29.9125 Z-5.2
G1 Y28.0503
G3 X-14.9497 Y23.9628 I4.0875 J0.0
G1 X-13.0875
G1 X-10.0 Z-2.4
G1 X-6.9125 Z-5.2
G1 X-5.0503
G3 X-4.3421 Y24.0246 I0.0 J4.0875
G1 F25.0 Z-5.6
G3 F75.0 X-0.9628 Y28.0503 I-0.7081 J4.0257
G1 Y29.9125
G1 Y33.0 Z-2.4
G1 Y36.0875 Z-5.6
G1 Y37.9497
G3 X-5.0503 Y42.0372 I-4.0875 J0.0
G1 X-6.9125
G1 X-10.0 Z-2.4
G1 X-13.0875 Z-5.6
G1 X-14.9497
G3 X-19.0372 Y37.9497 I0.0 J-4.0875
G1 Y36.0875
G1 Y33.0 Z-2.4
G1 Y29.9125 Z-5.6
G1 Y28.0503
G3 X-14.9497 Y23.9628 I4.0875 J0.0
G1 X-13.0875
G1 X-10.0 Z-2.4
G1 X-6.9125 Z-5.6
G1 X-5.0503
G3 X-4.3421 Y24.0246 I0.0 J4.0875
G0 Z2.0
G0 X1.2933 Y26.44
G1 F25.0 Z-0.4
G3 F75.0 X5.0503 Y23.9628 I3.7569 J1.6103
G1 X14.9497
G3 X19.0372 Y28.0503 I0.0 J4.0875
G1 Y37.9497
G3 X14.9497 Y42.0372 I-4.0875 J0.0
G1 X5.0503
G3 X0.9628 Y37.9497 I0.0 J-4.0875
G1 Y28.0503
G3 X1.2933 Y26.44 I4.0875 J0.0
G1 F25.0 Z-0.8
G3 F75.0 X5.0503 Y23.9628 I3.7569 J1.6103
G1 X14.9497
G3 X19.0372 Y28.0503 I0.0 J4.0875
G1 Y37.9497
G3 X14.9497 Y42.0372 I-4.0875 J0.0
G1 X5.0503
G3 X0.9628 Y37.9497 I0.0 J-4.0875
G1 Y28.0503
G3 X1.2933 Y26.44 I4.0875 J0.0
G1 F25.0 Z-1.2
G3 F75.0 X5.0503 Y23.9628 I3.7569 J1.6103
G1 X14.9497
G3 X19.0372 Y28.0503 I0.0 J4.0875
G1 Y37.9497
G3 X14.9497 Y42.0372 I-4.0875 J0.0
G1 X5.0503
G3 X0.9628 Y37.9497 I0.0 J-4.0875
G1 Y28.0503
G3 X1.2933 Y26.44 I4.0875 J0.0
G1 F25.0 Z-1.6
G3 F75.0 X5.0503 Y23.9628 I3.7569 J1.6103
G1 X14.9497
G3 X19.0372 Y28.0503 I0.0 J4.0875
G1 Y37.9497
G3 X14.9497 Y42.0372 I-4.0875 J0.0
G1 X5.0503
G3 X0.9628 Y37.9497 I0.0 J-4.0875
G1 Y28.0503
G3 X1.2933 Y26.44 I4.0875 J0.0
G1 F25.0 Z-2.0
G3 F75.0 X5.0503 Y23.9628 I3.7569 J1.6103
G1 X14.9497
G3 X19.0372 Y28.0503 I0.0 J4.0875
G1 Y37.9497
G3 X14.9497 Y42.0372 I-4.0875 J0.0
G1 X5.0503
G3 X0.9628 Y37.9497 I0.0 J-4.0875
G1 Y28.0503
G3 X1.2933 Y26.44 I4.0875 J0.0
G1 F25.0 Z-2.4
G3 F75.0 X5.0503 Y23.9628 I3.7569 J1.6103
G1 X14.9497
G3 X19.0372 Y28.0503 I0.0 J4.0875
G1 Y37.9497
G3 X14.9497 Y42.0372 I-4.0875 J0.0
G1 X5.0503
G3 X0.9628 Y37.9497 I0.0 J-4.0875
G1 Y28.0503
G3 X1.2933 Y26.44 I4.0875 J0.0
G1 F25.0 Z-2.8
G3 F75.0 X5.0503 Y23.9628 I3.7569 J1.6103
G1 X6.9125
G1 X10.0 Z-2.4
G1 X13.0875 Z-2.8
G1 X14.9497
G3 X19.0372 Y28.0503 I0.0 J4.0875
G1 Y29.9125
G1 Y33.0 Z-2.4
G1 Y36.0875 Z-2.8
G1 Y37.9497
G3 X14.9497 Y42.0372 I-4.0875 J0.0
G1 X13.0875
G1 X10.0 Z-2.4
G1 X6.9125 Z-2.8
G1 X5.0503
G3 X0.9628 Y37.9497 I0.0 J-4.0875
G1 Y36.0875
G1 Y33.0 Z-2.4
G1 Y29.9125 Z-2.8
G1 Y28.0503
G3 X1.2933 Y26.44 I4.0875 J0.0
G1 F25.0 Z-3.2
G3 F75.0 X5.0503 Y23.9628 I3.7569 J1.6103
G1 X6.9125
G1 X10.0 Z-2.4
G1 X13.0875 Z-3.2
G1 X14.9497
G3 X19.0372 Y28.0503 I0.0 J4.0875
G1 Y29.9125
G1 Y33.0 Z-2.4
G1 Y36.0875 Z-3.2
G1 Y37.9497
G3 X14.9497 Y42.0372 I-4.0875 J0.0
G1 X13.0875
G1 X10.0 Z-2.4
G1 X6.9125 Z-3.2
G1 X5.0503
G3 X0.9628 Y37.9497 I0.0 J-4.0875
G1 Y36.0875
G1 Y33.0 Z-2.4
G1 Y29.9125 Z-3.2
G1 Y28.0503
G3 X1.2933 Y26.44 I4.0875 J0.0
G1 F25.0 Z-3.6
G3 F75.0 X5.0503 Y23.9628 I3.7569 J1.6103
G1 X6.9125
G1 X10.0 Z-2.4
G1 X13.0875 Z-3.6
G1 X14.9497
G3 X19.0372 Y28.0503 I0.0 J4.0875
G1 Y29.9125
G1 Y33.0 Z-2.4
G1 Y36.0875 Z-3.6
G1 Y37.9497
G3 X14.9497 Y42.0372 I-4.0875 J0.0
G1 X13.0875
G1 X10.0 Z-2.4
G1 X6.9125 Z-3.6
G1 X5.0503
G3 X0.9628 Y37.9497 I0.0 J-4.0875
G1 Y36.0875
G1 Y33.0 Z-2.4
G1 Y29.9125 Z-3.6
G1 Y28.0503
G3 X1.2933 Y26.44 I4.0875 J0.0
G1 F25.0 Z-4.0
G3 F75.0 X5.0503 Y23.9628 I3.7569 J1.6103
G1 X6.9125
G1 X10.0 Z-2.4
G1 X13.0875 Z-4.0
G1 X14.9497
G3 X19.0372 Y28.0503 I0.0 J4.0875
G1 Y29.9125
G1 Y33.0 Z-2.4
G1 Y36.0875 Z-4.0
G1 Y37.9497
G3 X14.9497 Y42.0372 I-4.0875 J0.0
G1 X13.0875
G1 X10.0 Z-2.4
G1 X6.9125 Z-4.0
G1 X5.0503
G3 X0.9628 Y37.9497 I0.0 J-4.0875
G1 Y36.0875
G1 Y33.0 Z-2.4
G1 Y29.9125 Z-4.0
G1 Y28.0503
G3 X1.2933 Y26.44 I4.0875 J0.0
G1 F25.0 Z-4.4
G3 F75.0 X5.0503 Y23.9628 I3.7569 J1.6103
G1 X6.9125
G1 X10.0 Z-2.4
G1 X13.0875 Z-4.4
G1 X14.9497
G3 X19.0372 Y28.0503 I0.0 J4.0875
G1 Y29.9125
G1 Y33.0 Z-2.4
G1 Y36.0875 Z-4.4
G1 Y37.9497
G3 X14.9497 Y42.0372 I-4.0875 J0.0
G1 X13.0875
G1 X10.0 Z-2.4
G1 X6.9125 Z-4.4
G1 X5.0503
G3 X0.9628 Y37.9497 I0.0 J-4.0875
G1 Y36.0875
G1 Y33.0 Z-2.4
G1 Y29.9125 Z-4.4
G1 Y28.0503
G3 X1.2933 Y26.44 I4.0875 J0.0
G1 F25.0 Z-4.8
G3 F75.0 X5.0503 Y23.9628 I3.7569 J1.6103
G1 X6.9125
G1 X10.0 Z-2.4
G1 X13.0875 Z-4.8
G1 X14.9497
G3 X19.0372 Y28.0503 I0.0 J4.0875
G1 Y29.9125
G1 Y33.0 Z-2.4
G1 Y36.0875 Z-4.8
G1 Y37.9497
G3 X14.9497 Y42.0372 I-4.0875 J0.0
G1 X13.0875
G1 X10.0 Z-2.4
G1 X6.9125 Z-4.8
G1 X5.0503
G3 X0.9628 Y37.9497 I0.0 J-4.0875
G1 Y36.0875
G1 Y33.0 Z-2.4
G1 Y29.9125 Z-4.8
G1 Y28.0503
G3 X1.2933 Y26.44 I4.0875 J0.0
G1 F25.0 Z-5.2
G3 F75.0 X5.0503 Y23.9628 I3.7569 J1.6103
G1 X6.9125
G1 X10.0 Z-2.4
G1 X13.0875 Z-5.2
G1 X14.9497
G3 X19.0372 Y28.0503 I0.0 J4.0875
G1 Y29.9125
G1 Y33.0 Z-2.4
G1 Y36.0875 Z-5.2
G1 Y37.9497
G3 X14.9497 Y42.0372 I-4.0875 J0.0
G1 X13.0875
G1 X10.0 Z-2.4
G1 X6.9125 Z-5.2
G1 X5.0503
G3 X0.9628 Y37.9497 I0.0 J-4.0875
G1 Y36.0875
G1 Y33.0 Z-2.4
G1 Y29.9125 Z-5.2
G1 Y28.0503
G3 X1.2933 Y26.44 I4.0875 J0.0
G1 F25.0 Z-5.6
G3 F75.0 X5.0503 Y23.9628 I3.7569 J1.6103
G1 X6.9125
G1 X10.0 Z-2.4
G1 X13.0875 Z-5.6
G1 X14.9497
G3 X19.0372 Y28.0503 I0.0 J4.0875
G1 Y29.9125
G1 Y33.0 Z-2.4
G1 Y36.0875 Z-5.6
G1 Y37.9497
G3 X14.9497 Y42.0372 I-4.0875 J0.0
G1 X13.0875
G1 X10.0 Z-2.4
G1 X6.9125 Z-5.6
G1 X5.0503
G3 X0.9628 Y37.9497 I0.0 J-4.0875
G1 Y36.0875
G1 Y33.0 Z-2.4
G1 Y29.9125 Z-5.6
G1 Y28.0503
G3 X1.2933 Y26.44 I4.0875 J0.0
G0 Z2.0
M5
M30
