( Made using CamBam - http://www.cambam.co.uk )
( m_mount_tube 2/9/2022 4:30:35 PM )
( T0 : 2.0 )
G21 G90 G40
G0 Z2.0
( T0 : 2.0 )
T0 M6
( 2_drill )
G17
M3 S1000
G0 X5.0503 Y-37.9497
G98
G81 X5.0503 Y-37.9497 Z-6.0 R2.0 F25.0
G81 Y-28.0503 Z-6.0
G81 X14.9497 Z-6.0
G81 Y-37.9497 Z-6.0
G81 X-5.0503 Z-6.0
G81 Y-28.0503 Z-6.0
G81 X-14.9497 Z-6.0
G81 Y-37.9497 Z-6.0
G81 Y-15.9497 Z-6.0
G81 Y-6.0503 Z-6.0
G81 X-5.0503 Z-6.0
G81 Y-15.9497 Z-6.0
G81 X5.0503 Z-6.0
G81 Y-6.0503 Z-6.0
G81 X14.9497 Z-6.0
G81 Y-15.9497 Z-6.0
G81 Y6.0503 Z-6.0
G81 Y15.9497 Z-6.0
G81 X5.0503 Z-6.0
G81 Y6.0503 Z-6.0
G81 X-5.0503 Z-6.0
G81 X-14.9497 Z-6.0
G81 Y15.9497 Z-6.0
G81 X-5.0503 Z-6.0
G81 Y28.0503 Z-6.0
G81 Y37.9497 Z-6.0
G81 X-14.9497 Z-6.0
G81 Y28.0503 Z-6.0
G81 X5.0503 Z-6.0
G81 Y37.9497 Z-6.0
G81 X14.9497 Z-6.0
G81 Y28.0503 Z-6.0
G80
M5
M30
