( Made using CamBam - http://www.cambam.co.uk )
( m_mount_tube 2/9/2022 6:10:39 PM )
( T0 : 3.175 )
G21 G90 G40
G0 Z2.0
( T0 : 3.175 )
T0 M6
( 4_free )
G17
M3 S2500
G0 X-19.0372 Y-28.0503
G1 F25.0 Z-0.4
G1 F75.0 Y-37.9497
G3 X-14.9497 Y-42.0372 I4.0875 J0.0
G1 X-5.0503
G3 X-0.9628 Y-37.9497 I0.0 J4.0875
G1 Y-28.0503
G3 X-5.0503 Y-23.9628 I-4.0875 J0.0
G1 X-14.9497
G3 X-19.0372 Y-28.0503 I0.0 J-4.0875
G1 F25.0 Z-0.8
G1 F75.0 Y-37.9497
G3 X-14.9497 Y-42.0372 I4.0875 J0.0
G1 X-5.0503
G3 X-0.9628 Y-37.9497 I0.0 J4.0875
G1 Y-28.0503
G3 X-5.0503 Y-23.9628 I-4.0875 J0.0
G1 X-14.9497
G3 X-19.0372 Y-28.0503 I0.0 J-4.0875
G1 F25.0 Z-1.2
G1 F75.0 Y-37.9497
G3 X-14.9497 Y-42.0372 I4.0875 J0.0
G1 X-5.0503
G3 X-0.9628 Y-37.9497 I0.0 J4.0875
G1 Y-28.0503
G3 X-5.0503 Y-23.9628 I-4.0875 J0.0
G1 X-14.9497
G3 X-19.0372 Y-28.0503 I0.0 J-4.0875
G1 F25.0 Z-1.6
G1 F75.0 Y-37.9497
G3 X-14.9497 Y-42.0372 I4.0875 J0.0
G1 X-5.0503
G3 X-0.9628 Y-37.9497 I0.0 J4.0875
G1 Y-28.0503
G3 X-5.0503 Y-23.9628 I-4.0875 J0.0
G1 X-14.9497
G3 X-19.0372 Y-28.0503 I0.0 J-4.0875
G1 F25.0 Z-2.0
G1 F75.0 Y-37.9497
G3 X-14.9497 Y-42.0372 I4.0875 J0.0
G1 X-5.0503
G3 X-0.9628 Y-37.9497 I0.0 J4.0875
G1 Y-28.0503
G3 X-5.0503 Y-23.9628 I-4.0875 J0.0
G1 X-14.9497
G3 X-19.0372 Y-28.0503 I0.0 J-4.0875
G1 F25.0 Z-2.4
G1 F75.0 Y-37.9497
G3 X-14.9497 Y-42.0372 I4.0875 J0.0
G1 X-5.0503
G3 X-0.9628 Y-37.9497 I0.0 J4.0875
G1 Y-28.0503
G3 X-5.0503 Y-23.9628 I-4.0875 J0.0
G1 X-14.9497
G3 X-19.0372 Y-28.0503 I0.0 J-4.0875
G1 F25.0 Z-2.8
G1 F75.0 Y-37.9497
G3 X-14.9497 Y-42.0372 I4.0875 J0.0
G1 X-5.0503
G3 X-0.9628 Y-37.9497 I0.0 J4.0875
G1 Y-28.0503
G3 X-5.0503 Y-23.9628 I-4.0875 J0.0
G1 X-14.9497
G3 X-19.0372 Y-28.0503 I0.0 J-4.0875
G1 F25.0 Z-3.2
G1 F75.0 Y-37.9497
G3 X-14.9497 Y-42.0372 I4.0875 J0.0
G1 X-5.0503
G3 X-0.9628 Y-37.9497 I0.0 J4.0875
G1 Y-28.0503
G3 X-5.0503 Y-23.9628 I-4.0875 J0.0
G1 X-14.9497
G3 X-19.0372 Y-28.0503 I0.0 J-4.0875
G1 F25.0 Z-3.6
G1 F75.0 Y-29.9125
G1 Y-33.0 Z-3.4
G1 Y-36.0875 Z-3.6
G1 Y-37.9497
G3 X-14.9497 Y-42.0372 I4.0875 J0.0
G1 X-5.0503
G3 X-0.9628 Y-37.9497 I0.0 J4.0875
G1 Y-36.0875
G1 Y-33.0 Z-3.4
G1 Y-29.9125 Z-3.6
G1 Y-28.0503
G3 X-5.0503 Y-23.9628 I-4.0875 J0.0
G1 X-14.9497
G3 X-19.0372 Y-28.0503 I0.0 J-4.0875
G1 F25.0 Z-4.0
G1 F75.0 Y-29.9125
G1 Y-33.0 Z-3.4
G1 Y-36.0875 Z-4.0
G1 Y-37.9497
G3 X-14.9497 Y-42.0372 I4.0875 J0.0
G1 X-5.0503
G3 X-0.9628 Y-37.9497 I0.0 J4.0875
G1 Y-36.0875
G1 Y-33.0 Z-3.4
G1 Y-29.9125 Z-4.0
G1 Y-28.0503
G3 X-5.0503 Y-23.9628 I-4.0875 J0.0
G1 X-14.9497
G3 X-19.0372 Y-28.0503 I0.0 J-4.0875
G1 F25.0 Z-4.4
G1 F75.0 Y-29.9125
G1 Y-33.0 Z-3.4
G1 Y-36.0875 Z-4.4
G1 Y-37.9497
G3 X-14.9497 Y-42.0372 I4.0875 J0.0
G1 X-5.0503
G3 X-0.9628 Y-37.9497 I0.0 J4.0875
G1 Y-36.0875
G1 Y-33.0 Z-3.4
G1 Y-29.9125 Z-4.4
G1 Y-28.0503
G3 X-5.0503 Y-23.9628 I-4.0875 J0.0
G1 X-14.9497
G3 X-19.0372 Y-28.0503 I0.0 J-4.0875
G1 F25.0 Z-4.8
G1 F75.0 Y-29.9125
G1 Y-33.0 Z-3.4
G1 Y-36.0875 Z-4.8
G1 Y-37.9497
G3 X-14.9497 Y-42.0372 I4.0875 J0.0
G1 X-5.0503
G3 X-0.9628 Y-37.9497 I0.0 J4.0875
G1 Y-36.0875
G1 Y-33.0 Z-3.4
G1 Y-29.9125 Z-4.8
G1 Y-28.0503
G3 X-5.0503 Y-23.9628 I-4.0875 J0.0
G1 X-14.9497
G3 X-19.0372 Y-28.0503 I0.0 J-4.0875
G1 F25.0 Z-5.2
G1 F75.0 Y-29.9125
G1 Y-33.0 Z-3.4
G1 Y-36.0875 Z-5.2
G1 Y-37.9497
G3 X-14.9497 Y-42.0372 I4.0875 J0.0
G1 X-5.0503
G3 X-0.9628 Y-37.9497 I0.0 J4.0875
G1 Y-36.0875
G1 Y-33.0 Z-3.4
G1 Y-29.9125 Z-5.2
G1 Y-28.0503
G3 X-5.0503 Y-23.9628 I-4.0875 J0.0
G1 X-14.9497
G3 X-19.0372 Y-28.0503 I0.0 J-4.0875
G1 F25.0 Z-5.6
G1 F75.0 Y-29.9125
G1 Y-33.0 Z-3.4
G1 Y-36.0875 Z-5.6
G1 Y-37.9497
G3 X-14.9497 Y-42.0372 I4.0875 J0.0
G1 X-5.0503
G3 X-0.9628 Y-37.9497 I0.0 J4.0875
G1 Y-36.0875
G1 Y-33.0 Z-3.4
G1 Y-29.9125 Z-5.6
G1 Y-28.0503
G3 X-5.0503 Y-23.9628 I-4.0875 J0.0
G1 X-14.9497
G3 X-19.0372 Y-28.0503 I0.0 J-4.0875
G0 Z2.0
G0 X-16.2579 Y-19.8223
G1 F25.0 Z-0.4
G3 F75.0 X-14.9497 Y-20.0372 I1.3081 J3.8725
G1 X-5.0503
G3 X-0.9628 Y-15.9497 I0.0 J4.0875
G1 Y-6.0503
G3 X-5.0503 Y-1.9628 I-4.0875 J0.0
G1 X-14.9497
G3 X-19.0372 Y-6.0503 I0.0 J-4.0875
G1 Y-15.9497
G3 X-16.2579 Y-19.8223 I4.0875 J0.0
G1 F25.0 Z-0.8
G3 F75.0 X-14.9497 Y-20.0372 I1.3081 J3.8725
G1 X-5.0503
G3 X-0.9628 Y-15.9497 I0.0 J4.0875
G1 Y-6.0503
G3 X-5.0503 Y-1.9628 I-4.0875 J0.0
G1 X-14.9497
G3 X-19.0372 Y-6.0503 I0.0 J-4.0875
G1 Y-15.9497
G3 X-16.2579 Y-19.8223 I4.0875 J0.0
G1 F25.0 Z-1.2
G3 F75.0 X-14.9497 Y-20.0372 I1.3081 J3.8725
G1 X-5.0503
G3 X-0.9628 Y-15.9497 I0.0 J4.0875
G1 Y-6.0503
G3 X-5.0503 Y-1.9628 I-4.0875 J0.0
G1 X-14.9497
G3 X-19.0372 Y-6.0503 I0.0 J-4.0875
G1 Y-15.9497
G3 X-16.2579 Y-19.8223 I4.0875 J0.0
G1 F25.0 Z-1.6
G3 F75.0 X-14.9497 Y-20.0372 I1.3081 J3.8725
G1 X-5.0503
G3 X-0.9628 Y-15.9497 I0.0 J4.0875
G1 Y-6.0503
G3 X-5.0503 Y-1.9628 I-4.0875 J0.0
G1 X-14.9497
G3 X-19.0372 Y-6.0503 I0.0 J-4.0875
G1 Y-15.9497
G3 X-16.2579 Y-19.8223 I4.0875 J0.0
G1 F25.0 Z-2.0
G3 F75.0 X-14.9497 Y-20.0372 I1.3081 J3.8725
G1 X-5.0503
G3 X-0.9628 Y-15.9497 I0.0 J4.0875
G1 Y-6.0503
G3 X-5.0503 Y-1.9628 I-4.0875 J0.0
G1 X-14.9497
G3 X-19.0372 Y-6.0503 I0.0 J-4.0875
G1 Y-15.9497
G3 X-16.2579 Y-19.8223 I4.0875 J0.0
G1 F25.0 Z-2.4
G3 F75.0 X-14.9497 Y-20.0372 I1.3081 J3.8725
G1 X-5.0503
G3 X-0.9628 Y-15.9497 I0.0 J4.0875
G1 Y-6.0503
G3 X-5.0503 Y-1.9628 I-4.0875 J0.0
G1 X-14.9497
G3 X-19.0372 Y-6.0503 I0.0 J-4.0875
G1 Y-15.9497
G3 X-16.2579 Y-19.8223 I4.0875 J0.0
G1 F25.0 Z-2.8
G3 F75.0 X-14.9497 Y-20.0372 I1.3081 J3.8725
G1 X-5.0503
G3 X-0.9628 Y-15.9497 I0.0 J4.0875
G1 Y-6.0503
G3 X-5.0503 Y-1.9628 I-4.0875 J0.0
G1 X-14.9497
G3 X-19.0372 Y-6.0503 I0.0 J-4.0875
G1 Y-15.9497
G3 X-16.2579 Y-19.8223 I4.0875 J0.0
G1 F25.0 Z-3.2
G3 F75.0 X-14.9497 Y-20.0372 I1.3081 J3.8725
G1 X-5.0503
G3 X-0.9628 Y-15.9497 I0.0 J4.0875
G1 Y-6.0503
G3 X-5.0503 Y-1.9628 I-4.0875 J0.0
G1 X-14.9497
G3 X-19.0372 Y-6.0503 I0.0 J-4.0875
G1 Y-15.9497
G3 X-16.2579 Y-19.8223 I4.0875 J0.0
G1 F25.0 Z-3.6
G3 F75.0 X-14.9497 Y-20.0372 I1.3081 J3.8725
G1 X-5.0503
G3 X-0.9628 Y-15.9497 I0.0 J4.0875
G1 Y-14.0875
G1 Y-11.0 Z-3.4
G1 Y-7.9125 Z-3.6
G1 Y-6.0503
G3 X-5.0503 Y-1.9628 I-4.0875 J0.0
G1 X-14.9497
G3 X-19.0372 Y-6.0503 I0.0 J-4.0875
G1 Y-7.9125
G1 Y-11.0 Z-3.4
G1 Y-14.0875 Z-3.6
G1 Y-15.9497
G3 X-16.2579 Y-19.8223 I4.0875 J0.0
G1 F25.0 Z-4.0
G3 F75.0 X-14.9497 Y-20.0372 I1.3081 J3.8725
G1 X-5.0503
G3 X-0.9628 Y-15.9497 I0.0 J4.0875
G1 Y-14.0875
G1 Y-11.0 Z-3.4
G1 Y-7.9125 Z-4.0
G1 Y-6.0503
G3 X-5.0503 Y-1.9628 I-4.0875 J0.0
G1 X-14.9497
G3 X-19.0372 Y-6.0503 I0.0 J-4.0875
G1 Y-7.9125
G1 Y-11.0 Z-3.4
G1 Y-14.0875 Z-4.0
G1 Y-15.9497
G3 X-16.2579 Y-19.8223 I4.0875 J0.0
G1 F25.0 Z-4.4
G3 F75.0 X-14.9497 Y-20.0372 I1.3081 J3.8725
G1 X-5.0503
G3 X-0.9628 Y-15.9497 I0.0 J4.0875
G1 Y-14.0875
G1 Y-11.0 Z-3.4
G1 Y-7.9125 Z-4.4
G1 Y-6.0503
G3 X-5.0503 Y-1.9628 I-4.0875 J0.0
G1 X-14.9497
G3 X-19.0372 Y-6.0503 I0.0 J-4.0875
G1 Y-7.9125
G1 Y-11.0 Z-3.4
G1 Y-14.0875 Z-4.4
G1 Y-15.9497
G3 X-16.2579 Y-19.8223 I4.0875 J0.0
G1 F25.0 Z-4.8
G3 F75.0 X-14.9497 Y-20.0372 I1.3081 J3.8725
G1 X-5.0503
G3 X-0.9628 Y-15.9497 I0.0 J4.0875
G1 Y-14.0875
G1 Y-11.0 Z-3.4
G1 Y-7.9125 Z-4.8
G1 Y-6.0503
G3 X-5.0503 Y-1.9628 I-4.0875 J0.0
G1 X-14.9497
G3 X-19.0372 Y-6.0503 I0.0 J-4.0875
G1 Y-7.9125
G1 Y-11.0 Z-3.4
G1 Y-14.0875 Z-4.8
G1 Y-15.9497
G3 X-16.2579 Y-19.8223 I4.0875 J0.0
G1 F25.0 Z-5.2
G3 F75.0 X-14.9497 Y-20.0372 I1.3081 J3.8725
G1 X-5.0503
G3 X-0.9628 Y-15.9497 I0.0 J4.0875
G1 Y-14.0875
G1 Y-11.0 Z-3.4
G1 Y-7.9125 Z-5.2
G1 Y-6.0503
G3 X-5.0503 Y-1.9628 I-4.0875 J0.0
G1 X-14.9497
G3 X-19.0372 Y-6.0503 I0.0 J-4.0875
G1 Y-7.9125
G1 Y-11.0 Z-3.4
G1 Y-14.0875 Z-5.2
G1 Y-15.9497
G3 X-16.2579 Y-19.8223 I4.0875 J0.0
G1 F25.0 Z-5.6
G3 F75.0 X-14.9497 Y-20.0372 I1.3081 J3.8725
G1 X-5.0503
G3 X-0.9628 Y-15.9497 I0.0 J4.0875
G1 Y-14.0875
G1 Y-11.0 Z-3.4
G1 Y-7.9125 Z-5.6
G1 Y-6.0503
G3 X-5.0503 Y-1.9628 I-4.0875 J0.0
G1 X-14.9497
G3 X-19.0372 Y-6.0503 I0.0 J-4.0875
G1 Y-7.9125
G1 Y-11.0 Z-3.4
G1 Y-14.0875 Z-5.6
G1 Y-15.9497
G3 X-16.2579 Y-19.8223 I4.0875 J0.0
G0 Z2.0
G0 X1.0286 Y-16.6806
G1 F25.0 Z-0.4
G3 F75.0 X5.0503 Y-20.0372 I4.0216 J0.7309
G1 X14.9497
G3 X19.0372 Y-15.9497 I0.0 J4.0875
G1 Y-6.0503
G3 X14.9497 Y-1.9628 I-4.0875 J0.0
G1 X5.0503
G3 X0.9628 Y-6.0503 I0.0 J-4.0875
G1 Y-15.9497
G3 X1.0286 Y-16.6806 I4.0875 J0.0
G1 F25.0 Z-0.8
G3 F75.0 X5.0503 Y-20.0372 I4.0216 J0.7309
G1 X14.9497
G3 X19.0372 Y-15.9497 I0.0 J4.0875
G1 Y-6.0503
G3 X14.9497 Y-1.9628 I-4.0875 J0.0
G1 X5.0503
G3 X0.9628 Y-6.0503 I0.0 J-4.0875
G1 Y-15.9497
G3 X1.0286 Y-16.6806 I4.0875 J0.0
G1 F25.0 Z-1.2
G3 F75.0 X5.0503 Y-20.0372 I4.0216 J0.7309
G1 X14.9497
G3 X19.0372 Y-15.9497 I0.0 J4.0875
G1 Y-6.0503
G3 X14.9497 Y-1.9628 I-4.0875 J0.0
G1 X5.0503
G3 X0.9628 Y-6.0503 I0.0 J-4.0875
G1 Y-15.9497
G3 X1.0286 Y-16.6806 I4.0875 J0.0
G1 F25.0 Z-1.6
G3 F75.0 X5.0503 Y-20.0372 I4.0216 J0.7309
G1 X14.9497
G3 X19.0372 Y-15.9497 I0.0 J4.0875
G1 Y-6.0503
G3 X14.9497 Y-1.9628 I-4.0875 J0.0
G1 X5.0503
G3 X0.9628 Y-6.0503 I0.0 J-4.0875
G1 Y-15.9497
G3 X1.0286 Y-16.6806 I4.0875 J0.0
G1 F25.0 Z-2.0
G3 F75.0 X5.0503 Y-20.0372 I4.0216 J0.7309
G1 X14.9497
G3 X19.0372 Y-15.9497 I0.0 J4.0875
G1 Y-6.0503
G3 X14.9497 Y-1.9628 I-4.0875 J0.0
G1 X5.0503
G3 X0.9628 Y-6.0503 I0.0 J-4.0875
G1 Y-15.9497
G3 X1.0286 Y-16.6806 I4.0875 J0.0
G1 F25.0 Z-2.4
G3 F75.0 X5.0503 Y-20.0372 I4.0216 J0.7309
G1 X14.9497
G3 X19.0372 Y-15.9497 I0.0 J4.0875
G1 Y-6.0503
G3 X14.9497 Y-1.9628 I-4.0875 J0.0
G1 X5.0503
G3 X0.9628 Y-6.0503 I0.0 J-4.0875
G1 Y-15.9497
G3 X1.0286 Y-16.6806 I4.0875 J0.0
G1 F25.0 Z-2.8
G3 F75.0 X5.0503 Y-20.0372 I4.0216 J0.7309
G1 X14.9497
G3 X19.0372 Y-15.9497 I0.0 J4.0875
G1 Y-6.0503
G3 X14.9497 Y-1.9628 I-4.0875 J0.0
G1 X5.0503
G3 X0.9628 Y-6.0503 I0.0 J-4.0875
G1 Y-15.9497
G3 X1.0286 Y-16.6806 I4.0875 J0.0
G1 F25.0 Z-3.2
G3 F75.0 X5.0503 Y-20.0372 I4.0216 J0.7309
G1 X14.9497
G3 X19.0372 Y-15.9497 I0.0 J4.0875
G1 Y-6.0503
G3 X14.9497 Y-1.9628 I-4.0875 J0.0
G1 X5.0503
G3 X0.9628 Y-6.0503 I0.0 J-4.0875
G1 Y-15.9497
G3 X1.0286 Y-16.6806 I4.0875 J0.0
G1 F25.0 Z-3.6
G3 F75.0 X5.0503 Y-20.0372 I4.0216 J0.7309
G1 X14.9497
G3 X19.0372 Y-15.9497 I0.0 J4.0875
G1 Y-14.0875
G1 Y-11.0 Z-3.4
G1 Y-7.9125 Z-3.6
G1 Y-6.0503
G3 X14.9497 Y-1.9628 I-4.0875 J0.0
G1 X5.0503
G3 X0.9628 Y-6.0503 I0.0 J-4.0875
G1 Y-7.9125
G1 Y-11.0 Z-3.4
G1 Y-14.0875 Z-3.6
G1 Y-15.9497
G3 X1.0286 Y-16.6806 I4.0875 J0.0
G1 F25.0 Z-4.0
G3 F75.0 X5.0503 Y-20.0372 I4.0216 J0.7309
G1 X14.9497
G3 X19.0372 Y-15.9497 I0.0 J4.0875
G1 Y-14.0875
G1 Y-11.0 Z-3.4
G1 Y-7.9125 Z-4.0
G1 Y-6.0503
G3 X14.9497 Y-1.9628 I-4.0875 J0.0
G1 X5.0503
G3 X0.9628 Y-6.0503 I0.0 J-4.0875
G1 Y-7.9125
G1 Y-11.0 Z-3.4
G1 Y-14.0875 Z-4.0
G1 Y-15.9497
G3 X1.0286 Y-16.6806 I4.0875 J0.0
G1 F25.0 Z-4.4
G3 F75.0 X5.0503 Y-20.0372 I4.0216 J0.7309
G1 X14.9497
G3 X19.0372 Y-15.9497 I0.0 J4.0875
G1 Y-14.0875
G1 Y-11.0 Z-3.4
G1 Y-7.9125 Z-4.4
G1 Y-6.0503
G3 X14.9497 Y-1.9628 I-4.0875 J0.0
G1 X5.0503
G3 X0.9628 Y-6.0503 I0.0 J-4.0875
G1 Y-7.9125
G1 Y-11.0 Z-3.4
G1 Y-14.0875 Z-4.4
G1 Y-15.9497
G3 X1.0286 Y-16.6806 I4.0875 J0.0
G1 F25.0 Z-4.8
G3 F75.0 X5.0503 Y-20.0372 I4.0216 J0.7309
G1 X14.9497
G3 X19.0372 Y-15.9497 I0.0 J4.0875
G1 Y-14.0875
G1 Y-11.0 Z-3.4
G1 Y-7.9125 Z-4.8
G1 Y-6.0503
G3 X14.9497 Y-1.9628 I-4.0875 J0.0
G1 X5.0503
G3 X0.9628 Y-6.0503 I0.0 J-4.0875
G1 Y-7.9125
G1 Y-11.0 Z-3.4
G1 Y-14.0875 Z-4.8
G1 Y-15.9497
G3 X1.0286 Y-16.6806 I4.0875 J0.0
G1 F25.0 Z-5.2
G3 F75.0 X5.0503 Y-20.0372 I4.0216 J0.7309
G1 X14.9497
G3 X19.0372 Y-15.9497 I0.0 J4.0875
G1 Y-14.0875
G1 Y-11.0 Z-3.4
G1 Y-7.9125 Z-5.2
G1 Y-6.0503
G3 X14.9497 Y-1.9628 I-4.0875 J0.0
G1 X5.0503
G3 X0.9628 Y-6.0503 I0.0 J-4.0875
G1 Y-7.9125
G1 Y-11.0 Z-3.4
G1 Y-14.0875 Z-5.2
G1 Y-15.9497
G3 X1.0286 Y-16.6806 I4.0875 J0.0
G1 F25.0 Z-5.6
G3 F75.0 X5.0503 Y-20.0372 I4.0216 J0.7309
G1 X14.9497
G3 X19.0372 Y-15.9497 I0.0 J4.0875
G1 Y-14.0875
G1 Y-11.0 Z-3.4
G1 Y-7.9125 Z-5.6
G1 Y-6.0503
G3 X14.9497 Y-1.9628 I-4.0875 J0.0
G1 X5.0503
G3 X0.9628 Y-6.0503 I0.0 J-4.0875
G1 Y-7.9125
G1 Y-11.0 Z-3.4
G1 Y-14.0875 Z-5.6
G1 Y-15.9497
G3 X1.0286 Y-16.6806 I4.0875 J0.0
G0 Z2.0
G0 X3.6872 Y-24.1967
G1 F25.0 Z-0.4
G3 F75.0 X0.9628 Y-28.0503 I1.3631 J-3.8535
G1 Y-37.9497
G3 X5.0503 Y-42.0372 I4.0875 J0.0
G1 X14.9497
G3 X19.0372 Y-37.9497 I0.0 J4.0875
G1 Y-28.0503
G3 X14.9497 Y-23.9628 I-4.0875 J0.0
G1 X5.0503
G3 X3.6872 Y-24.1967 I0.0 J-4.0875
G1 F25.0 Z-0.8
G3 F75.0 X0.9628 Y-28.0503 I1.3631 J-3.8535
G1 Y-37.9497
G3 X5.0503 Y-42.0372 I4.0875 J0.0
G1 X14.9497
G3 X19.0372 Y-37.9497 I0.0 J4.0875
G1 Y-28.0503
G3 X14.9497 Y-23.9628 I-4.0875 J0.0
G1 X5.0503
G3 X3.6872 Y-24.1967 I0.0 J-4.0875
G1 F25.0 Z-1.2
G3 F75.0 X0.9628 Y-28.0503 I1.3631 J-3.8535
G1 Y-37.9497
G3 X5.0503 Y-42.0372 I4.0875 J0.0
G1 X14.9497
G3 X19.0372 Y-37.9497 I0.0 J4.0875
G1 Y-28.0503
G3 X14.9497 Y-23.9628 I-4.0875 J0.0
G1 X5.0503
G3 X3.6872 Y-24.1967 I0.0 J-4.0875
G1 F25.0 Z-1.6
G3 F75.0 X0.9628 Y-28.0503 I1.3631 J-3.8535
G1 Y-37.9497
G3 X5.0503 Y-42.0372 I4.0875 J0.0
G1 X14.9497
G3 X19.0372 Y-37.9497 I0.0 J4.0875
G1 Y-28.0503
G3 X14.9497 Y-23.9628 I-4.0875 J0.0
G1 X5.0503
G3 X3.6872 Y-24.1967 I0.0 J-4.0875
G1 F25.0 Z-2.0
G3 F75.0 X0.9628 Y-28.0503 I1.3631 J-3.8535
G1 Y-37.9497
G3 X5.0503 Y-42.0372 I4.0875 J0.0
G1 X14.9497
G3 X19.0372 Y-37.9497 I0.0 J4.0875
G1 Y-28.0503
G3 X14.9497 Y-23.9628 I-4.0875 J0.0
G1 X5.0503
G3 X3.6872 Y-24.1967 I0.0 J-4.0875
G1 F25.0 Z-2.4
G3 F75.0 X0.9628 Y-28.0503 I1.3631 J-3.8535
G1 Y-37.9497
G3 X5.0503 Y-42.0372 I4.0875 J0.0
G1 X14.9497
G3 X19.0372 Y-37.9497 I0.0 J4.0875
G1 Y-28.0503
G3 X14.9497 Y-23.9628 I-4.0875 J0.0
G1 X5.0503
G3 X3.6872 Y-24.1967 I0.0 J-4.0875
G1 F25.0 Z-2.8
G3 F75.0 X0.9628 Y-28.0503 I1.3631 J-3.8535
G1 Y-37.9497
G3 X5.0503 Y-42.0372 I4.0875 J0.0
G1 X14.9497
G3 X19.0372 Y-37.9497 I0.0 J4.0875
G1 Y-28.0503
G3 X14.9497 Y-23.9628 I-4.0875 J0.0
G1 X5.0503
G3 X3.6872 Y-24.1967 I0.0 J-4.0875
G1 F25.0 Z-3.2
G3 F75.0 X0.9628 Y-28.0503 I1.3631 J-3.8535
G1 Y-37.9497
G3 X5.0503 Y-42.0372 I4.0875 J0.0
G1 X14.9497
G3 X19.0372 Y-37.9497 I0.0 J4.0875
G1 Y-28.0503
G3 X14.9497 Y-23.9628 I-4.0875 J0.0
G1 X5.0503
G3 X3.6872 Y-24.1967 I0.0 J-4.0875
G1 F25.0 Z-3.6
G3 F75.0 X0.9628 Y-28.0503 I1.3631 J-3.8535
G1 Y-29.9125
G1 Y-33.0 Z-3.4
G1 Y-36.0875 Z-3.6
G1 Y-37.9497
G3 X5.0503 Y-42.0372 I4.0875 J0.0
G1 X14.9497
G3 X19.0372 Y-37.9497 I0.0 J4.0875
G1 Y-36.0875
G1 Y-33.0 Z-3.4
G1 Y-29.9125 Z-3.6
G1 Y-28.0503
G3 X14.9497 Y-23.9628 I-4.0875 J0.0
G1 X5.0503
G3 X3.6872 Y-24.1967 I0.0 J-4.0875
G1 F25.0 Z-4.0
G3 F75.0 X0.9628 Y-28.0503 I1.3631 J-3.8535
G1 Y-29.9125
G1 Y-33.0 Z-3.4
G1 Y-36.0875 Z-4.0
G1 Y-37.9497
G3 X5.0503 Y-42.0372 I4.0875 J0.0
G1 X14.9497
G3 X19.0372 Y-37.9497 I0.0 J4.0875
G1 Y-36.0875
G1 Y-33.0 Z-3.4
G1 Y-29.9125 Z-4.0
G1 Y-28.0503
G3 X14.9497 Y-23.9628 I-4.0875 J0.0
G1 X5.0503
G3 X3.6872 Y-24.1967 I0.0 J-4.0875
G1 F25.0 Z-4.4
G3 F75.0 X0.9628 Y-28.0503 I1.3631 J-3.8535
G1 Y-29.9125
G1 Y-33.0 Z-3.4
G1 Y-36.0875 Z-4.4
G1 Y-37.9497
G3 X5.0503 Y-42.0372 I4.0875 J0.0
G1 X14.9497
G3 X19.0372 Y-37.9497 I0.0 J4.0875
G1 Y-36.0875
G1 Y-33.0 Z-3.4
G1 Y-29.9125 Z-4.4
G1 Y-28.0503
G3 X14.9497 Y-23.9628 I-4.0875 J0.0
G1 X5.0503
G3 X3.6872 Y-24.1967 I0.0 J-4.0875
G1 F25.0 Z-4.8
G3 F75.0 X0.9628 Y-28.0503 I1.3631 J-3.8535
G1 Y-29.9125
G1 Y-33.0 Z-3.4
G1 Y-36.0875 Z-4.8
G1 Y-37.9497
G3 X5.0503 Y-42.0372 I4.0875 J0.0
G1 X14.9497
G3 X19.0372 Y-37.9497 I0.0 J4.0875
G1 Y-36.0875
G1 Y-33.0 Z-3.4
G1 Y-29.9125 Z-4.8
G1 Y-28.0503
G3 X14.9497 Y-23.9628 I-4.0875 J0.0
G1 X5.0503
G3 X3.6872 Y-24.1967 I0.0 J-4.0875
G1 F25.0 Z-5.2
G3 F75.0 X0.9628 Y-28.0503 I1.3631 J-3.8535
G1 Y-29.9125
G1 Y-33.0 Z-3.4
G1 Y-36.0875 Z-5.2
G1 Y-37.9497
G3 X5.0503 Y-42.0372 I4.0875 J0.0
G1 X14.9497
G3 X19.0372 Y-37.9497 I0.0 J4.0875
G1 Y-36.0875
G1 Y-33.0 Z-3.4
G1 Y-29.9125 Z-5.2
G1 Y-28.0503
G3 X14.9497 Y-23.9628 I-4.0875 J0.0
G1 X5.0503
G3 X3.6872 Y-24.1967 I0.0 J-4.0875
G1 F25.0 Z-5.6
G3 F75.0 X0.9628 Y-28.0503 I1.3631 J-3.8535
G1 Y-29.9125
G1 Y-33.0 Z-3.4
G1 Y-36.0875 Z-5.6
G1 Y-37.9497
G3 X5.0503 Y-42.0372 I4.0875 J0.0
G1 X14.9497
G3 X19.0372 Y-37.9497 I0.0 J4.0875
G1 Y-36.0875
G1 Y-33.0 Z-3.4
G1 Y-29.9125 Z-5.6
G1 Y-28.0503
G3 X14.9497 Y-23.9628 I-4.0875 J0.0
G1 X5.0503
G3 X3.6872 Y-24.1967 I0.0 J-4.0875
G0 Z2.0
G0 X4.8662 Y1.9669
G1 F25.0 Z-0.4
G3 F75.0 X5.0503 Y1.9628 I0.184 J4.0834
G1 X14.9497
G3 X19.0372 Y6.0503 I0.0 J4.0875
G1 Y15.9497
G3 X14.9497 Y20.0372 I-4.0875 J0.0
G1 X5.0503
G3 X0.9628 Y15.9497 I0.0 J-4.0875
G1 Y6.0503
G3 X4.8662 Y1.9669 I4.0875 J0.0
G1 F25.0 Z-0.8
G3 F75.0 X5.0503 Y1.9628 I0.184 J4.0834
G1 X14.9497
G3 X19.0372 Y6.0503 I0.0 J4.0875
G1 Y15.9497
G3 X14.9497 Y20.0372 I-4.0875 J0.0
G1 X5.0503
G3 X0.9628 Y15.9497 I0.0 J-4.0875
G1 Y6.0503
G3 X4.8662 Y1.9669 I4.0875 J0.0
G1 F25.0 Z-1.2
G3 F75.0 X5.0503 Y1.9628 I0.184 J4.0834
G1 X14.9497
G3 X19.0372 Y6.0503 I0.0 J4.0875
G1 Y15.9497
G3 X14.9497 Y20.0372 I-4.0875 J0.0
G1 X5.0503
G3 X0.9628 Y15.9497 I0.0 J-4.0875
G1 Y6.0503
G3 X4.8662 Y1.9669 I4.0875 J0.0
G1 F25.0 Z-1.6
G3 F75.0 X5.0503 Y1.9628 I0.184 J4.0834
G1 X14.9497
G3 X19.0372 Y6.0503 I0.0 J4.0875
G1 Y15.9497
G3 X14.9497 Y20.0372 I-4.0875 J0.0
G1 X5.0503
G3 X0.9628 Y15.9497 I0.0 J-4.0875
G1 Y6.0503
G3 X4.8662 Y1.9669 I4.0875 J0.0
G1 F25.0 Z-2.0
G3 F75.0 X5.0503 Y1.9628 I0.184 J4.0834
G1 X14.9497
G3 X19.0372 Y6.0503 I0.0 J4.0875
G1 Y15.9497
G3 X14.9497 Y20.0372 I-4.0875 J0.0
G1 X5.0503
G3 X0.9628 Y15.9497 I0.0 J-4.0875
G1 Y6.0503
G3 X4.8662 Y1.9669 I4.0875 J0.0
G1 F25.0 Z-2.4
G3 F75.0 X5.0503 Y1.9628 I0.184 J4.0834
G1 X14.9497
G3 X19.0372 Y6.0503 I0.0 J4.0875
G1 Y15.9497
G3 X14.9497 Y20.0372 I-4.0875 J0.0
G1 X5.0503
G3 X0.9628 Y15.9497 I0.0 J-4.0875
G1 Y6.0503
G3 X4.8662 Y1.9669 I4.0875 J0.0
G1 F25.0 Z-2.8
G3 F75.0 X5.0503 Y1.9628 I0.184 J4.0834
G1 X14.9497
G3 X19.0372 Y6.0503 I0.0 J4.0875
G1 Y15.9497
G3 X14.9497 Y20.0372 I-4.0875 J0.0
G1 X5.0503
G3 X0.9628 Y15.9497 I0.0 J-4.0875
G1 Y6.0503
G3 X4.8662 Y1.9669 I4.0875 J0.0
G1 F25.0 Z-3.2
G3 F75.0 X5.0503 Y1.9628 I0.184 J4.0834
G1 X14.9497
G3 X19.0372 Y6.0503 I0.0 J4.0875
G1 Y15.9497
G3 X14.9497 Y20.0372 I-4.0875 J0.0
G1 X5.0503
G3 X0.9628 Y15.9497 I0.0 J-4.0875
G1 Y6.0503
G3 X4.8662 Y1.9669 I4.0875 J0.0
G1 F25.0 Z-3.6
G3 F75.0 X5.0503 Y1.9628 I0.184 J4.0834
G1 X14.9497
G3 X19.0372 Y6.0503 I0.0 J4.0875
G1 Y7.9125
G1 Y11.0 Z-3.4
G1 Y14.0875 Z-3.6
G1 Y15.9497
G3 X14.9497 Y20.0372 I-4.0875 J0.0
G1 X5.0503
G3 X0.9628 Y15.9497 I0.0 J-4.0875
G1 Y14.0875
G1 Y11.0 Z-3.4
G1 Y7.9125 Z-3.6
G1 Y6.0503
G3 X4.8662 Y1.9669 I4.0875 J0.0
G1 F25.0 Z-4.0
G3 F75.0 X5.0503 Y1.9628 I0.184 J4.0834
G1 X14.9497
G3 X19.0372 Y6.0503 I0.0 J4.0875
G1 Y7.9125
G1 Y11.0 Z-3.4
G1 Y14.0875 Z-4.0
G1 Y15.9497
G3 X14.9497 Y20.0372 I-4.0875 J0.0
G1 X5.0503
G3 X0.9628 Y15.9497 I0.0 J-4.0875
G1 Y14.0875
G1 Y11.0 Z-3.4
G1 Y7.9125 Z-4.0
G1 Y6.0503
G3 X4.8662 Y1.9669 I4.0875 J0.0
G1 F25.0 Z-4.4
G3 F75.0 X5.0503 Y1.9628 I0.184 J4.0834
G1 X14.9497
G3 X19.0372 Y6.0503 I0.0 J4.0875
G1 Y7.9125
G1 Y11.0 Z-3.4
G1 Y14.0875 Z-4.4
G1 Y15.9497
G3 X14.9497 Y20.0372 I-4.0875 J0.0
G1 X5.0503
G3 X0.9628 Y15.9497 I0.0 J-4.0875
G1 Y14.0875
G1 Y11.0 Z-3.4
G1 Y7.9125 Z-4.4
G1 Y6.0503
G3 X4.8662 Y1.9669 I4.0875 J0.0
G1 F25.0 Z-4.8
G3 F75.0 X5.0503 Y1.9628 I0.184 J4.0834
G1 X14.9497
G3 X19.0372 Y6.0503 I0.0 J4.0875
G1 Y7.9125
G1 Y11.0 Z-3.4
G1 Y14.0875 Z-4.8
G1 Y15.9497
G3 X14.9497 Y20.0372 I-4.0875 J0.0
G1 X5.0503
G3 X0.9628 Y15.9497 I0.0 J-4.0875
G1 Y14.0875
G1 Y11.0 Z-3.4
G1 Y7.9125 Z-4.8
G1 Y6.0503
G3 X4.8662 Y1.9669 I4.0875 J0.0
G1 F25.0 Z-5.2
G3 F75.0 X5.0503 Y1.9628 I0.184 J4.0834
G1 X14.9497
G3 X19.0372 Y6.0503 I0.0 J4.0875
G1 Y7.9125
G1 Y11.0 Z-3.4
G1 Y14.0875 Z-5.2
G1 Y15.9497
G3 X14.9497 Y20.0372 I-4.0875 J0.0
G1 X5.0503
G3 X0.9628 Y15.9497 I0.0 J-4.0875
G1 Y14.0875
G1 Y11.0 Z-3.4
G1 Y7.9125 Z-5.2
G1 Y6.0503
G3 X4.8662 Y1.9669 I4.0875 J0.0
G1 F25.0 Z-5.6
G3 F75.0 X5.0503 Y1.9628 I0.184 J4.0834
G1 X14.9497
G3 X19.0372 Y6.0503 I0.0 J4.0875
G1 Y7.9125
G1 Y11.0 Z-3.4
G1 Y14.0875 Z-5.6
G1 Y15.9497
G3 X14.9497 Y20.0372 I-4.0875 J0.0
G1 X5.0503
G3 X0.9628 Y15.9497 I0.0 J-4.0875
G1 Y14.0875
G1 Y11.0 Z-3.4
G1 Y7.9125 Z-5.6
G1 Y6.0503
G3 X4.8662 Y1.9669 I4.0875 J0.0
G0 Z2.0
G0 X-1.2706 Y4.4939
G1 F25.0 Z-0.4
G3 F75.0 X-0.9628 Y6.0503 I-3.7796 J1.5563
G1 Y15.9497
G3 X-5.0503 Y20.0372 I-4.0875 J0.0
G1 X-14.9497
G3 X-19.0372 Y15.9497 I0.0 J-4.0875
G1 Y6.0503
G3 X-14.9497 Y1.9628 I4.0875 J0.0
G1 X-5.0503
G3 X-1.2706 Y4.4939 I0.0 J4.0875
G1 F25.0 Z-0.8
G3 F75.0 X-0.9628 Y6.0503 I-3.7796 J1.5563
G1 Y15.9497
G3 X-5.0503 Y20.0372 I-4.0875 J0.0
G1 X-14.9497
G3 X-19.0372 Y15.9497 I0.0 J-4.0875
G1 Y6.0503
G3 X-14.9497 Y1.9628 I4.0875 J0.0
G1 X-5.0503
G3 X-1.2706 Y4.4939 I0.0 J4.0875
G1 F25.0 Z-1.2
G3 F75.0 X-0.9628 Y6.0503 I-3.7796 J1.5563
G1 Y15.9497
G3 X-5.0503 Y20.0372 I-4.0875 J0.0
G1 X-14.9497
G3 X-19.0372 Y15.9497 I0.0 J-4.0875
G1 Y6.0503
G3 X-14.9497 Y1.9628 I4.0875 J0.0
G1 X-5.0503
G3 X-1.2706 Y4.4939 I0.0 J4.0875
G1 F25.0 Z-1.6
G3 F75.0 X-0.9628 Y6.0503 I-3.7796 J1.5563
G1 Y15.9497
G3 X-5.0503 Y20.0372 I-4.0875 J0.0
G1 X-14.9497
G3 X-19.0372 Y15.9497 I0.0 J-4.0875
G1 Y6.0503
G3 X-14.9497 Y1.9628 I4.0875 J0.0
G1 X-5.0503
G3 X-1.2706 Y4.4939 I0.0 J4.0875
G1 F25.0 Z-2.0
G3 F75.0 X-0.9628 Y6.0503 I-3.7796 J1.5563
G1 Y15.9497
G3 X-5.0503 Y20.0372 I-4.0875 J0.0
G1 X-14.9497
G3 X-19.0372 Y15.9497 I0.0 J-4.0875
G1 Y6.0503
G3 X-14.9497 Y1.9628 I4.0875 J0.0
G1 X-5.0503
G3 X-1.2706 Y4.4939 I0.0 J4.0875
G1 F25.0 Z-2.4
G3 F75.0 X-0.9628 Y6.0503 I-3.7796 J1.5563
G1 Y15.9497
G3 X-5.0503 Y20.0372 I-4.0875 J0.0
G1 X-14.9497
G3 X-19.0372 Y15.9497 I0.0 J-4.0875
G1 Y6.0503
G3 X-14.9497 Y1.9628 I4.0875 J0.0
G1 X-5.0503
G3 X-1.2706 Y4.4939 I0.0 J4.0875
G1 F25.0 Z-2.8
G3 F75.0 X-0.9628 Y6.0503 I-3.7796 J1.5563
G1 Y15.9497
G3 X-5.0503 Y20.0372 I-4.0875 J0.0
G1 X-14.9497
G3 X-19.0372 Y15.9497 I0.0 J-4.0875
G1 Y6.0503
G3 X-14.9497 Y1.9628 I4.0875 J0.0
G1 X-5.0503
G3 X-1.2706 Y4.4939 I0.0 J4.0875
G1 F25.0 Z-3.2
G3 F75.0 X-0.9628 Y6.0503 I-3.7796 J1.5563
G1 Y15.9497
G3 X-5.0503 Y20.0372 I-4.0875 J0.0
G1 X-14.9497
G3 X-19.0372 Y15.9497 I0.0 J-4.0875
G1 Y6.0503
G3 X-14.9497 Y1.9628 I4.0875 J0.0
G1 X-5.0503
G3 X-1.2706 Y4.4939 I0.0 J4.0875
G1 F25.0 Z-3.6
G3 F75.0 X-0.9628 Y6.0503 I-3.7796 J1.5563
G1 Y7.9125
G1 Y11.0 Z-3.4
G1 Y14.0875 Z-3.6
G1 Y15.9497
G3 X-5.0503 Y20.0372 I-4.0875 J0.0
G1 X-14.9497
G3 X-19.0372 Y15.9497 I0.0 J-4.0875
G1 Y14.0875
G1 Y11.0 Z-3.4
G1 Y7.9125 Z-3.6
G1 Y6.0503
G3 X-14.9497 Y1.9628 I4.0875 J0.0
G1 X-5.0503
G3 X-1.2706 Y4.4939 I0.0 J4.0875
G1 F25.0 Z-4.0
G3 F75.0 X-0.9628 Y6.0503 I-3.7796 J1.5563
G1 Y7.9125
G1 Y11.0 Z-3.4
G1 Y14.0875 Z-4.0
G1 Y15.9497
G3 X-5.0503 Y20.0372 I-4.0875 J0.0
G1 X-14.9497
G3 X-19.0372 Y15.9497 I0.0 J-4.0875
G1 Y14.0875
G1 Y11.0 Z-3.4
G1 Y7.9125 Z-4.0
G1 Y6.0503
G3 X-14.9497 Y1.9628 I4.0875 J0.0
G1 X-5.0503
G3 X-1.2706 Y4.4939 I0.0 J4.0875
G1 F25.0 Z-4.4
G3 F75.0 X-0.9628 Y6.0503 I-3.7796 J1.5563
G1 Y7.9125
G1 Y11.0 Z-3.4
G1 Y14.0875 Z-4.4
G1 Y15.9497
G3 X-5.0503 Y20.0372 I-4.0875 J0.0
G1 X-14.9497
G3 X-19.0372 Y15.9497 I0.0 J-4.0875
G1 Y14.0875
G1 Y11.0 Z-3.4
G1 Y7.9125 Z-4.4
G1 Y6.0503
G3 X-14.9497 Y1.9628 I4.0875 J0.0
G1 X-5.0503
G3 X-1.2706 Y4.4939 I0.0 J4.0875
G1 F25.0 Z-4.8
G3 F75.0 X-0.9628 Y6.0503 I-3.7796 J1.5563
G1 Y7.9125
G1 Y11.0 Z-3.4
G1 Y14.0875 Z-4.8
G1 Y15.9497
G3 X-5.0503 Y20.0372 I-4.0875 J0.0
G1 X-14.9497
G3 X-19.0372 Y15.9497 I0.0 J-4.0875
G1 Y14.0875
G1 Y11.0 Z-3.4
G1 Y7.9125 Z-4.8
G1 Y6.0503
G3 X-14.9497 Y1.9628 I4.0875 J0.0
G1 X-5.0503
G3 X-1.2706 Y4.4939 I0.0 J4.0875
G1 F25.0 Z-5.2
G3 F75.0 X-0.9628 Y6.0503 I-3.7796 J1.5563
G1 Y7.9125
G1 Y11.0 Z-3.4
G1 Y14.0875 Z-5.2
G1 Y15.9497
G3 X-5.0503 Y20.0372 I-4.0875 J0.0
G1 X-14.9497
G3 X-19.0372 Y15.9497 I0.0 J-4.0875
G1 Y14.0875
G1 Y11.0 Z-3.4
G1 Y7.9125 Z-5.2
G1 Y6.0503
G3 X-14.9497 Y1.9628 I4.0875 J0.0
G1 X-5.0503
G3 X-1.2706 Y4.4939 I0.0 J4.0875
G1 F25.0 Z-5.6
G3 F75.0 X-0.9628 Y6.0503 I-3.7796 J1.5563
G1 Y7.9125
G1 Y11.0 Z-3.4
G1 Y14.0875 Z-5.6
G1 Y15.9497
G3 X-5.0503 Y20.0372 I-4.0875 J0.0
G1 X-14.9497
G3 X-19.0372 Y15.9497 I0.0 J-4.0875
G1 Y14.0875
G1 Y11.0 Z-3.4
G1 Y7.9125 Z-5.6
G1 Y6.0503
G3 X-14.9497 Y1.9628 I4.0875 J0.0
G1 X-5.0503
G3 X-1.2706 Y4.4939 I0.0 J4.0875
G0 Z2.0
G0 X-4.4027 Y24.0144
G1 F25.0 Z-0.4
G3 F75.0 X-0.9628 Y28.0503 I-0.6476 J4.0359
G1 Y37.9497
G3 X-5.0503 Y42.0372 I-4.0875 J0.0
G1 X-14.9497
G3 X-19.0372 Y37.9497 I0.0 J-4.0875
G1 Y28.0503
G3 X-14.9497 Y23.9628 I4.0875 J0.0
G1 X-5.0503
G3 X-4.4027 Y24.0144 I0.0 J4.0875
G1 F25.0 Z-0.8
G3 F75.0 X-0.9628 Y28.0503 I-0.6476 J4.0359
G1 Y37.9497
G3 X-5.0503 Y42.0372 I-4.0875 J0.0
G1 X-14.9497
G3 X-19.0372 Y37.9497 I0.0 J-4.0875
G1 Y28.0503
G3 X-14.9497 Y23.9628 I4.0875 J0.0
G1 X-5.0503
G3 X-4.4027 Y24.0144 I0.0 J4.0875
G1 F25.0 Z-1.2
G3 F75.0 X-0.9628 Y28.0503 I-0.6476 J4.0359
G1 Y37.9497
G3 X-5.0503 Y42.0372 I-4.0875 J0.0
G1 X-14.9497
G3 X-19.0372 Y37.9497 I0.0 J-4.0875
G1 Y28.0503
G3 X-14.9497 Y23.9628 I4.0875 J0.0
G1 X-5.0503
G3 X-4.4027 Y24.0144 I0.0 J4.0875
G1 F25.0 Z-1.6
G3 F75.0 X-0.9628 Y28.0503 I-0.6476 J4.0359
G1 Y37.9497
G3 X-5.0503 Y42.0372 I-4.0875 J0.0
G1 X-14.9497
G3 X-19.0372 Y37.9497 I0.0 J-4.0875
G1 Y28.0503
G3 X-14.9497 Y23.9628 I4.0875 J0.0
G1 X-5.0503
G3 X-4.4027 Y24.0144 I0.0 J4.0875
G1 F25.0 Z-2.0
G3 F75.0 X-0.9628 Y28.0503 I-0.6476 J4.0359
G1 Y37.9497
G3 X-5.0503 Y42.0372 I-4.0875 J0.0
G1 X-14.9497
G3 X-19.0372 Y37.9497 I0.0 J-4.0875
G1 Y28.0503
G3 X-14.9497 Y23.9628 I4.0875 J0.0
G1 X-5.0503
G3 X-4.4027 Y24.0144 I0.0 J4.0875
G1 F25.0 Z-2.4
G3 F75.0 X-0.9628 Y28.0503 I-0.6476 J4.0359
G1 Y37.9497
G3 X-5.0503 Y42.0372 I-4.0875 J0.0
G1 X-14.9497
G3 X-19.0372 Y37.9497 I0.0 J-4.0875
G1 Y28.0503
G3 X-14.9497 Y23.9628 I4.0875 J0.0
G1 X-5.0503
G3 X-4.4027 Y24.0144 I0.0 J4.0875
G1 F25.0 Z-2.8
G3 F75.0 X-0.9628 Y28.0503 I-0.6476 J4.0359
G1 Y37.9497
G3 X-5.0503 Y42.0372 I-4.0875 J0.0
G1 X-14.9497
G3 X-19.0372 Y37.9497 I0.0 J-4.0875
G1 Y28.0503
G3 X-14.9497 Y23.9628 I4.0875 J0.0
G1 X-5.0503
G3 X-4.4027 Y24.0144 I0.0 J4.0875
G1 F25.0 Z-3.2
G3 F75.0 X-0.9628 Y28.0503 I-0.6476 J4.0359
G1 Y37.9497
G3 X-5.0503 Y42.0372 I-4.0875 J0.0
G1 X-14.9497
G3 X-19.0372 Y37.9497 I0.0 J-4.0875
G1 Y28.0503
G3 X-14.9497 Y23.9628 I4.0875 J0.0
G1 X-5.0503
G3 X-4.4027 Y24.0144 I0.0 J4.0875
G1 F25.0 Z-3.6
G3 F75.0 X-0.9628 Y28.0503 I-0.6476 J4.0359
G1 Y29.9125
G1 Y33.0 Z-3.4
G1 Y36.0875 Z-3.6
G1 Y37.9497
G3 X-5.0503 Y42.0372 I-4.0875 J0.0
G1 X-14.9497
G3 X-19.0372 Y37.9497 I0.0 J-4.0875
G1 Y36.0875
G1 Y33.0 Z-3.4
G1 Y29.9125 Z-3.6
G1 Y28.0503
G3 X-14.9497 Y23.9628 I4.0875 J0.0
G1 X-5.0503
G3 X-4.4027 Y24.0144 I0.0 J4.0875
G1 F25.0 Z-4.0
G3 F75.0 X-0.9628 Y28.0503 I-0.6476 J4.0359
G1 Y29.9125
G1 Y33.0 Z-3.4
G1 Y36.0875 Z-4.0
G1 Y37.9497
G3 X-5.0503 Y42.0372 I-4.0875 J0.0
G1 X-14.9497
G3 X-19.0372 Y37.9497 I0.0 J-4.0875
G1 Y36.0875
G1 Y33.0 Z-3.4
G1 Y29.9125 Z-4.0
G1 Y28.0503
G3 X-14.9497 Y23.9628 I4.0875 J0.0
G1 X-5.0503
G3 X-4.4027 Y24.0144 I0.0 J4.0875
G1 F25.0 Z-4.4
G3 F75.0 X-0.9628 Y28.0503 I-0.6476 J4.0359
G1 Y29.9125
G1 Y33.0 Z-3.4
G1 Y36.0875 Z-4.4
G1 Y37.9497
G3 X-5.0503 Y42.0372 I-4.0875 J0.0
G1 X-14.9497
G3 X-19.0372 Y37.9497 I0.0 J-4.0875
G1 Y36.0875
G1 Y33.0 Z-3.4
G1 Y29.9125 Z-4.4
G1 Y28.0503
G3 X-14.9497 Y23.9628 I4.0875 J0.0
G1 X-5.0503
G3 X-4.4027 Y24.0144 I0.0 J4.0875
G1 F25.0 Z-4.8
G3 F75.0 X-0.9628 Y28.0503 I-0.6476 J4.0359
G1 Y29.9125
G1 Y33.0 Z-3.4
G1 Y36.0875 Z-4.8
G1 Y37.9497
G3 X-5.0503 Y42.0372 I-4.0875 J0.0
G1 X-14.9497
G3 X-19.0372 Y37.9497 I0.0 J-4.0875
G1 Y36.0875
G1 Y33.0 Z-3.4
G1 Y29.9125 Z-4.8
G1 Y28.0503
G3 X-14.9497 Y23.9628 I4.0875 J0.0
G1 X-5.0503
G3 X-4.4027 Y24.0144 I0.0 J4.0875
G1 F25.0 Z-5.2
G3 F75.0 X-0.9628 Y28.0503 I-0.6476 J4.0359
G1 Y29.9125
G1 Y33.0 Z-3.4
G1 Y36.0875 Z-5.2
G1 Y37.9497
G3 X-5.0503 Y42.0372 I-4.0875 J0.0
G1 X-14.9497
G3 X-19.0372 Y37.9497 I0.0 J-4.0875
G1 Y36.0875
G1 Y33.0 Z-3.4
G1 Y29.9125 Z-5.2
G1 Y28.0503
G3 X-14.9497 Y23.9628 I4.0875 J0.0
G1 X-5.0503
G3 X-4.4027 Y24.0144 I0.0 J4.0875
G1 F25.0 Z-5.6
G3 F75.0 X-0.9628 Y28.0503 I-0.6476 J4.0359
G1 Y29.9125
G1 Y33.0 Z-3.4
G1 Y36.0875 Z-5.6
G1 Y37.9497
G3 X-5.0503 Y42.0372 I-4.0875 J0.0
G1 X-14.9497
G3 X-19.0372 Y37.9497 I0.0 J-4.0875
G1 Y36.0875
G1 Y33.0 Z-3.4
G1 Y29.9125 Z-5.6
G1 Y28.0503
G3 X-14.9497 Y23.9628 I4.0875 J0.0
G1 X-5.0503
G3 X-4.4027 Y24.0144 I0.0 J4.0875
G0 Z2.0
G0 X1.291 Y26.4453
G1 F25.0 Z-0.4
G3 F75.0 X5.0503 Y23.9628 I3.7592 J1.605
G1 X14.9497
G3 X19.0372 Y28.0503 I0.0 J4.0875
G1 Y37.9497
G3 X14.9497 Y42.0372 I-4.0875 J0.0
G1 X5.0503
G3 X0.9628 Y37.9497 I0.0 J-4.0875
G1 Y28.0503
G3 X1.291 Y26.4453 I4.0875 J0.0
G1 F25.0 Z-0.8
G3 F75.0 X5.0503 Y23.9628 I3.7592 J1.605
G1 X14.9497
G3 X19.0372 Y28.0503 I0.0 J4.0875
G1 Y37.9497
G3 X14.9497 Y42.0372 I-4.0875 J0.0
G1 X5.0503
G3 X0.9628 Y37.9497 I0.0 J-4.0875
G1 Y28.0503
G3 X1.291 Y26.4453 I4.0875 J0.0
G1 F25.0 Z-1.2
G3 F75.0 X5.0503 Y23.9628 I3.7592 J1.605
G1 X14.9497
G3 X19.0372 Y28.0503 I0.0 J4.0875
G1 Y37.9497
G3 X14.9497 Y42.0372 I-4.0875 J0.0
G1 X5.0503
G3 X0.9628 Y37.9497 I0.0 J-4.0875
G1 Y28.0503
G3 X1.291 Y26.4453 I4.0875 J0.0
G1 F25.0 Z-1.6
G3 F75.0 X5.0503 Y23.9628 I3.7592 J1.605
G1 X14.9497
G3 X19.0372 Y28.0503 I0.0 J4.0875
G1 Y37.9497
G3 X14.9497 Y42.0372 I-4.0875 J0.0
G1 X5.0503
G3 X0.9628 Y37.9497 I0.0 J-4.0875
G1 Y28.0503
G3 X1.291 Y26.4453 I4.0875 J0.0
G1 F25.0 Z-2.0
G3 F75.0 X5.0503 Y23.9628 I3.7592 J1.605
G1 X14.9497
G3 X19.0372 Y28.0503 I0.0 J4.0875
G1 Y37.9497
G3 X14.9497 Y42.0372 I-4.0875 J0.0
G1 X5.0503
G3 X0.9628 Y37.9497 I0.0 J-4.0875
G1 Y28.0503
G3 X1.291 Y26.4453 I4.0875 J0.0
G1 F25.0 Z-2.4
G3 F75.0 X5.0503 Y23.9628 I3.7592 J1.605
G1 X14.9497
G3 X19.0372 Y28.0503 I0.0 J4.0875
G1 Y37.9497
G3 X14.9497 Y42.0372 I-4.0875 J0.0
G1 X5.0503
G3 X0.9628 Y37.9497 I0.0 J-4.0875
G1 Y28.0503
G3 X1.291 Y26.4453 I4.0875 J0.0
G1 F25.0 Z-2.8
G3 F75.0 X5.0503 Y23.9628 I3.7592 J1.605
G1 X14.9497
G3 X19.0372 Y28.0503 I0.0 J4.0875
G1 Y37.9497
G3 X14.9497 Y42.0372 I-4.0875 J0.0
G1 X5.0503
G3 X0.9628 Y37.9497 I0.0 J-4.0875
G1 Y28.0503
G3 X1.291 Y26.4453 I4.0875 J0.0
G1 F25.0 Z-3.2
G3 F75.0 X5.0503 Y23.9628 I3.7592 J1.605
G1 X14.9497
G3 X19.0372 Y28.0503 I0.0 J4.0875
G1 Y37.9497
G3 X14.9497 Y42.0372 I-4.0875 J0.0
G1 X5.0503
G3 X0.9628 Y37.9497 I0.0 J-4.0875
G1 Y28.0503
G3 X1.291 Y26.4453 I4.0875 J0.0
G1 F25.0 Z-3.6
G3 F75.0 X5.0503 Y23.9628 I3.7592 J1.605
G1 X14.9497
G3 X19.0372 Y28.0503 I0.0 J4.0875
G1 Y29.9125
G1 Y33.0 Z-3.4
G1 Y36.0875 Z-3.6
G1 Y37.9497
G3 X14.9497 Y42.0372 I-4.0875 J0.0
G1 X5.0503
G3 X0.9628 Y37.9497 I0.0 J-4.0875
G1 Y36.0875
G1 Y33.0 Z-3.4
G1 Y29.9125 Z-3.6
G1 Y28.0503
G3 X1.291 Y26.4453 I4.0875 J0.0
G1 F25.0 Z-4.0
G3 F75.0 X5.0503 Y23.9628 I3.7592 J1.605
G1 X14.9497
G3 X19.0372 Y28.0503 I0.0 J4.0875
G1 Y29.9125
G1 Y33.0 Z-3.4
G1 Y36.0875 Z-4.0
G1 Y37.9497
G3 X14.9497 Y42.0372 I-4.0875 J0.0
G1 X5.0503
G3 X0.9628 Y37.9497 I0.0 J-4.0875
G1 Y36.0875
G1 Y33.0 Z-3.4
G1 Y29.9125 Z-4.0
G1 Y28.0503
G3 X1.291 Y26.4453 I4.0875 J0.0
G1 F25.0 Z-4.4
G3 F75.0 X5.0503 Y23.9628 I3.7592 J1.605
G1 X14.9497
G3 X19.0372 Y28.0503 I0.0 J4.0875
G1 Y29.9125
G1 Y33.0 Z-3.4
G1 Y36.0875 Z-4.4
G1 Y37.9497
G3 X14.9497 Y42.0372 I-4.0875 J0.0
G1 X5.0503
G3 X0.9628 Y37.9497 I0.0 J-4.0875
G1 Y36.0875
G1 Y33.0 Z-3.4
G1 Y29.9125 Z-4.4
G1 Y28.0503
G3 X1.291 Y26.4453 I4.0875 J0.0
G1 F25.0 Z-4.8
G3 F75.0 X5.0503 Y23.9628 I3.7592 J1.605
G1 X14.9497
G3 X19.0372 Y28.0503 I0.0 J4.0875
G1 Y29.9125
G1 Y33.0 Z-3.4
G1 Y36.0875 Z-4.8
G1 Y37.9497
G3 X14.9497 Y42.0372 I-4.0875 J0.0
G1 X5.0503
G3 X0.9628 Y37.9497 I0.0 J-4.0875
G1 Y36.0875
G1 Y33.0 Z-3.4
G1 Y29.9125 Z-4.8
G1 Y28.0503
G3 X1.291 Y26.4453 I4.0875 J0.0
G1 F25.0 Z-5.2
G3 F75.0 X5.0503 Y23.9628 I3.7592 J1.605
G1 X14.9497
G3 X19.0372 Y28.0503 I0.0 J4.0875
G1 Y29.9125
G1 Y33.0 Z-3.4
G1 Y36.0875 Z-5.2
G1 Y37.9497
G3 X14.9497 Y42.0372 I-4.0875 J0.0
G1 X5.0503
G3 X0.9628 Y37.9497 I0.0 J-4.0875
G1 Y36.0875
G1 Y33.0 Z-3.4
G1 Y29.9125 Z-5.2
G1 Y28.0503
G3 X1.291 Y26.4453 I4.0875 J0.0
G1 F25.0 Z-5.6
G3 F75.0 X5.0503 Y23.9628 I3.7592 J1.605
G1 X14.9497
G3 X19.0372 Y28.0503 I0.0 J4.0875
G1 Y29.9125
G1 Y33.0 Z-3.4
G1 Y36.0875 Z-5.6
G1 Y37.9497
G3 X14.9497 Y42.0372 I-4.0875 J0.0
G1 X5.0503
G3 X0.9628 Y37.9497 I0.0 J-4.0875
G1 Y36.0875
G1 Y33.0 Z-3.4
G1 Y29.9125 Z-5.6
G1 Y28.0503
G3 X1.291 Y26.4453 I4.0875 J0.0
G0 Z2.0
M5
M30
